; HEADER_BLOCK_START
; generated by OrcaSlicer 2.2.0 on 2025-02-22 at 15:49:20
; total layer number: 40
; filament_density: 1.27
; filament_diameter: 1.75
; max_z_height: 12.00
; HEADER_BLOCK_END

; THUMBNAIL_BLOCK_START

;
; THUMBNAIL_BLOCK_END

; THUMBNAIL_BLOCK_START

;
; THUMBNAIL_BLOCK_END

; external perimeters extrusion width = 0.50mm
; perimeters extrusion width = 0.50mm
; infill extrusion width = 0.50mm
; solid infill extrusion width = 0.50mm
; top infill extrusion width = 0.50mm
; first layer extrusion width = 0.50mm

; EXECUTABLE_BLOCK_START
M73 P0 R55
;TYPE:Custom
G28 ; home all axis
G90 ; use absolute coordinates
M83 ; extruder relative mode
led_heating
;M140 S80 ; set final bed temp
M104 S150 ; set temporary nozzle temp to prevent oozing during homing
G4 S10 ; allow partial nozzle warmup
M190 S80 ; wait for bed temp to stabilize
BED_MESH_CALIBRATE

G1 Z50 F240
G1 X2 Y10 F3000
M104 S260 ; set final nozzle temp
;M190 S80 ; wait for bed temp to stabilize
M109 S260 ; wait for nozzle temp to stabilize
led_printing
G1 Z0.28 F240
LINE_PURGE
G92 E0
G90
G21
M83 ; use relative distances for extrusion
; filament start gcode
SET_PRESSURE_ADVANCE ADVANCE=0.04; Override pressure advance value
M106 S0
;LAYER_CHANGE
;Z:0.3
;HEIGHT:0.3
;BEFORE_LAYER_CHANGE
;0.3
G92 E0

;_SET_FAN_SPEED_CHANGING_LAYER
SET_VELOCITY_LIMIT ACCEL=5000 ACCEL_TO_DECEL=2500
; printing object Body1.stl id:2343346602752 copy 0
G1 E-1 F5100
G1 Z.7 F9000
G1 X180.068 Y7.378
G1 Z.7
G1 Z.3
G1 E1 F3900
;TYPE:Inner wall
;WIDTH:0.5
G1 F1800
G1 X180.528 Y7.071 E.02855
G1 X181.027 Y6.832 E.02854
G1 X181.554 Y6.667 E.02854
G1 X182.098 Y6.579 E.02842
G1 X182.672 Y6.571 E.02964
G1 X183.202 Y6.637 E.02756
G1 X183.735 Y6.784 E.02854
G1 X184.242 Y7.004 E.02854
G1 X184.713 Y7.295 E.02855
G1 X185.168 Y7.675 E.03062
G1 X209.67 Y31.333 E1.75802
G1 X210.01 Y31.724 E.02676
G1 X210.309 Y32.19 E.02856
G1 X210.545 Y32.71 E.02946
G1 X210.695 Y33.223 E.02761
G1 X210.774 Y33.769 E.02848
G1 X210.775 Y34.319 E.02839
G1 X210.697 Y34.864 E.02839
G1 X210.544 Y35.39 E.0283
G1 X210.319 Y35.89 E.0283
G1 X209.972 Y36.415 E.03249
G1 X209.39 Y37.066 E.04508
;WIDTH:0.546691
G1 X209.236 Y37.192 E.01138
;WIDTH:0.593383
G1 X209.081 Y37.319 E.01248
;WIDTH:0.640075
G1 X208.927 Y37.445 E.01358
;WIDTH:0.686767
G1 X208.773 Y37.571 E.01469
G1 X208.327 Y38.051 E.04834
;WIDTH:0.660954
G1 X205.504 Y40.978 E.28748
;WIDTH:0.686769
G1 X205.084 Y41.394 E.04362
G1 X205.038 Y41.472 E.00662
;WIDTH:0.645777
G1 X204.992 Y41.549 E.00619
;WIDTH:0.604785
G1 X204.946 Y41.626 E.00575
;WIDTH:0.563793
G1 X204.774 Y41.827 E.01567
;WIDTH:0.531896
G1 X204.602 Y42.028 E.01467
;WIDTH:0.5
G1 X45.517 Y206.895 E11.8255
;WIDTH:0.546692
G1 X45.363 Y207.021 E.01138
M73 P1 R55
;WIDTH:0.593385
M73 P1 R55
G1 X45.209 Y207.147 E.01248
;WIDTH:0.640078
G1 X45.055 Y207.273 E.01358
;WIDTH:0.68677
G1 X44.901 Y207.399 E.01468
G1 X44.455 Y207.88 E.04834
;WIDTH:0.660953
G1 X41.631 Y210.807 E.28748
;WIDTH:0.686769
G1 X41.211 Y211.223 E.04361
G1 X41.13 Y211.327 E.00973
;WIDTH:0.658345
G1 X41.049 Y211.432 E.00929
;WIDTH:0.629921
G1 X40.943 Y211.573 E.0119
;WIDTH:0.586614
G1 X40.836 Y211.715 E.01098
;WIDTH:0.543307
G1 X40.729 Y211.857 E.01007
;WIDTH:0.5
G1 X40.373 Y212.226 E.02644
G1 X39.932 Y212.622 E.03062
G1 X39.472 Y212.929 E.02855
G1 X38.973 Y213.168 E.02854
G1 X38.446 Y213.333 E.02854
G1 X37.9 Y213.422 E.02854
G1 X37.347 Y213.432 E.02854
G1 X36.798 Y213.363 E.02854
G1 X36.265 Y213.216 E.02854
G1 X35.758 Y212.996 E.02854
G1 X35.287 Y212.705 E.02855
G1 X34.832 Y212.325 E.03062
G1 X10.423 Y188.771 E1.75081
G1 X10.027 Y188.33 E.03062
G1 X9.719 Y187.87 E.02854
G1 X9.481 Y187.371 E.02854
G1 X9.315 Y186.844 E.02854
G1 X9.227 Y186.298 E.02854
G1 X9.217 Y185.745 E.02854
G1 X9.286 Y185.196 E.02855
G1 X9.432 Y184.663 E.02854
G1 X9.653 Y184.156 E.02854
G1 X9.944 Y183.685 E.02855
G1 X10.324 Y183.23 E.03062
G1 X10.68 Y182.862 E.02644
;WIDTH:0.546692
G1 X10.834 Y182.736 E.01138
;WIDTH:0.593384
G1 X10.988 Y182.609 E.01248
;WIDTH:0.640076
G1 X11.142 Y182.483 E.01358
;WIDTH:0.686768
G1 X11.296 Y182.357 E.01468
G1 X11.742 Y181.877 E.04834
;WIDTH:0.660955
G1 X14.566 Y178.95 E.28747
;WIDTH:0.686768
G1 X14.986 Y178.534 E.04362
G1 X15.032 Y178.456 E.00662
;WIDTH:0.645778
G1 X15.078 Y178.379 E.00619
;WIDTH:0.604788
G1 X15.124 Y178.302 E.00575
;WIDTH:0.563798
G1 X15.296 Y178.101 E.01567
;WIDTH:0.531899
G1 X15.468 Y177.9 E.01467
;WIDTH:0.5
G1 X174.552 Y13.033 E11.8255
;WIDTH:0.546692
G1 X174.707 Y12.907 E.01138
;WIDTH:0.593384
G1 X174.861 Y12.781 E.01248
;WIDTH:0.640076
G1 X175.015 Y12.655 E.01358
;WIDTH:0.686768
G1 X175.169 Y12.529 E.01468
G1 X175.615 Y12.048 E.04834
;WIDTH:0.660954
G1 X178.439 Y9.122 E.28748
;WIDTH:0.68677
G1 X178.858 Y8.705 E.04361
G1 X178.904 Y8.628 E.00662
;WIDTH:0.645782
G1 X178.95 Y8.551 E.00619
;WIDTH:0.604794
G1 X178.996 Y8.474 E.00575
;WIDTH:0.563806
G1 X179.311 Y8.124 E.02785
;WIDTH:0.531903
G1 X179.627 Y7.774 E.02607
;WIDTH:0.5
G1 X180.038 Y7.405 E.02855
G1 X179.8 Y7.033 F9000
G1 F1800
G1 X180.312 Y6.691 E.03176
G1 X180.867 Y6.426 E.03176
G1 X181.454 Y6.242 E.03176
G1 X182.06 Y6.144 E.03169
G1 X182.696 Y6.135 E.03285
G1 X183.287 Y6.209 E.03073
G1 X183.88 Y6.372 E.03176
G1 X184.445 Y6.617 E.03176
G1 X184.968 Y6.941 E.03176
G1 X185.459 Y7.351 E.03303
G1 X209.995 Y31.042 E1.76042
G1 X210.45 Y31.6 E.0372
G1 X210.736 Y32.074 E.02856
G1 X210.96 Y32.58 E.02858
G1 X211.125 Y33.153 E.03081
G1 X211.21 Y33.762 E.03169
G1 X211.219 Y34.278 E.02668
G1 X211.142 Y34.889 E.03176
G1 X210.979 Y35.482 E.03176
G1 X210.734 Y36.047 E.03176
G1 X210.411 Y36.57 E.03176
G1 X210 Y37.061 E.03303
G1 X40.676 Y212.539 E12.58665
G1 X40.2 Y212.967 E.03303
G1 X39.688 Y213.309 E.03176
G1 X39.133 Y213.574 E.03176
G1 X38.546 Y213.758 E.03176
G1 X37.939 Y213.857 E.03176
G1 X37.324 Y213.868 E.03176
G1 X36.713 Y213.791 E.03176
G1 X36.12 Y213.628 E.03176
G1 X35.555 Y213.383 E.03176
G1 X35.032 Y213.059 E.03176
G1 X34.541 Y212.649 E.03303
G1 X10.109 Y189.074 E1.75242
G1 X9.682 Y188.598 E.03303
G1 X9.34 Y188.086 E.03176
G1 X9.074 Y187.531 E.03176
G1 X8.89 Y186.944 E.03176
G1 X8.792 Y186.337 E.03176
G1 X8.781 Y185.722 E.03176
G1 X8.858 Y185.111 E.03176
G1 X9.021 Y184.518 E.03176
G1 X9.266 Y183.953 E.03176
G1 X9.589 Y183.43 E.03176
G1 X10 Y182.939 E.03303
G1 X179.324 Y7.461 E12.58665
G1 X179.77 Y7.06 E.03096
M73 P1 R54
M73 P1 R54
G1 X179.532 Y6.688 F9000
;TYPE:Outer wall
G1 F1800
G1 X180.096 Y6.312 E.03498
G1 X180.707 Y6.019 E.03498
G1 X181.353 Y5.817 E.03498
G1 X182.022 Y5.708 E.03495
G1 X182.721 Y5.699 E.03607
G1 X183.372 Y5.781 E.0339
G1 X184.026 Y5.96 E.03498
G1 X184.647 Y6.23 E.03498
G1 X185.224 Y6.587 E.03498
G1 X185.75 Y7.027 E.03544
G1 X210.204 Y30.623 E1.75403
G1 X210.663 Y31.134 E.03544
G1 X211.039 Y31.697 E.03495
G1 X211.284 Y32.214 E.02953
G1 X211.426 Y32.609 E.02167
G1 X211.575 Y33.205 E.03168
G1 X211.645 Y33.754 E.02858
G1 X211.655 Y34.302 E.02829
G1 X211.571 Y34.974 E.03498
G1 X211.391 Y35.628 E.03498
G1 X211.121 Y36.249 E.03498
G1 X210.765 Y36.825 E.03498
G1 X210.324 Y37.352 E.03544
G1 X40.979 Y212.853 E12.58826
G1 X40.468 Y213.312 E.03544
M73 P2 R54
M73 P2 R54
G1 X39.904 Y213.688 E.03498
G1 X39.293 Y213.981 E.03498
G1 X38.647 Y214.183 E.03498
G1 X37.978 Y214.292 E.03498
G1 X37.3 Y214.304 E.03498
G1 X36.628 Y214.219 E.03498
G1 X35.974 Y214.04 E.03498
G1 X35.353 Y213.77 E.03498
G1 X34.776 Y213.413 E.03498
G1 X34.25 Y212.973 E.03544
G1 X9.796 Y189.377 E1.75403
G1 X9.337 Y188.866 E.03544
G1 X8.96 Y188.303 E.03498
G1 X8.668 Y187.691 E.03498
G1 X8.465 Y187.045 E.03498
G1 X8.357 Y186.376 E.03498
G1 X8.345 Y185.698 E.03498
G1 X8.429 Y185.026 E.03498
G1 X8.609 Y184.372 E.03498
G1 X8.879 Y183.751 E.03498
G1 X9.235 Y183.175 E.03498
G1 X9.676 Y182.648 E.03544
G1 X179.021 Y7.147 E12.58826
G1 X179.502 Y6.715 E.03337
G1 E-1 F5100
G1 Z.7 F9000
G1 X205.898 Y30.742 Z.7
G1 Z.3
G1 E1 F3900
;TYPE:Inner wall
G1 F1800
G1 X206.46 Y30.92 E.03041
G1 X207.096 Y31.253 E.03705
G1 X207.664 Y31.692 E.03705
G1 X208.148 Y32.222 E.03705
G1 X208.459 Y32.708 E.02978
G1 X208.615 Y32.999 E.01706
G1 X208.805 Y33.493 E.02728
G1 X208.958 Y34.194 E.03706
G1 X208.987 Y34.911 E.03705
G1 X208.894 Y35.607 E.03624
G1 X208.709 Y36.204 E.03227
;WIDTH:0.543303
G1 X208.605 Y36.461 E.01571
;WIDTH:0.586606
G1 X208.501 Y36.718 E.01713
;WIDTH:0.62991
G1 X208.398 Y36.974 E.01855
;WIDTH:0.658338
G1 X208.353 Y37.067 E.00724
;WIDTH:0.686767
G1 X208.307 Y37.159 E.00758
G1 X207.937 Y37.597 E.04233
;WIDTH:0.660954
G1 X205.119 Y40.518 E.28687
;WIDTH:0.686769
G1 X204.655 Y40.944 E.04641
G1 X204.489 Y41.022 E.0136
;WIDTH:0.640076
G1 X204.322 Y41.1 E.01258
;WIDTH:0.593384
G1 X204.155 Y41.179 E.01156
;WIDTH:0.546692
G1 X203.988 Y41.257 E.01054
;WIDTH:0.5
G1 X203.338 Y41.524 E.03624
G1 X202.628 Y41.682 E.03757
G1 X201.905 Y41.713 E.03734
G1 X201.209 Y41.62 E.03624
G1 X200.515 Y41.401 E.03757
G1 X199.874 Y41.066 E.03734
G1 X199.305 Y40.628 E.03705
G1 X198.822 Y40.097 E.03705
G1 X198.438 Y39.491 E.03705
G1 X198.165 Y38.827 E.03705
G1 X198.012 Y38.125 E.03706
G1 X197.982 Y37.408 E.03705
G1 X198.078 Y36.697 E.03706
G1 X198.296 Y36.013 E.03705
G1 X198.629 Y35.377 E.03705
G1 X199.089 Y34.78 E.03892
G1 X201.909 Y31.858 E.20958
G1 X202.375 Y31.446 E.03211
G1 X202.982 Y31.062 E.03705
G1 X203.646 Y30.789 E.03705
G1 X204.347 Y30.636 E.03705
G1 X205.049 Y30.607 E.03624
G1 X205.77 Y30.701 E.03757
G1 X205.86 Y30.73 E.00486
G1 X205.771 Y31.154 F9000
G1 F1800
G1 X206.318 Y31.332 E.02969
G1 X206.885 Y31.634 E.03314
G1 X207.39 Y32.03 E.03314
G1 X207.819 Y32.508 E.03314
G1 X208.086 Y32.933 E.02587
G1 X208.338 Y33.493 E.03173
G1 X208.486 Y34.049 E.02968
G1 X208.542 Y34.391 E.01788
G1 X208.552 Y34.919 E.02728
G1 X208.464 Y35.539 E.03233
G1 X208.296 Y36.065 E.02847
G1 X207.96 Y36.732 E.03856
G1 X207.55 Y37.255 E.03432
G1 X204.747 Y40.159 E.20831
G1 X204.308 Y40.544 E.03015
G1 X203.763 Y40.884 E.03314
G1 X203.182 Y41.118 E.03233
G1 X202.542 Y41.255 E.03377
G1 X201.897 Y41.277 E.03332
G1 X201.277 Y41.189 E.03233
G1 X200.655 Y40.989 E.03377
G1 X200.085 Y40.685 E.03332
G1 X199.58 Y40.289 E.03314
G1 X199.151 Y39.811 E.03314
G1 X198.811 Y39.266 E.03314
G1 X198.572 Y38.67 E.03314
G1 X198.439 Y38.042 E.03315
G1 X198.418 Y37.4 E.03314
G1 X198.508 Y36.765 E.03314
G1 X198.708 Y36.154 E.03314
G1 X199.01 Y35.588 E.03314
G1 X199.42 Y35.064 E.03432
G1 X202.222 Y32.16 E.20831
G1 X202.661 Y31.775 E.03015
G1 X203.206 Y31.436 E.03314
G1 X203.802 Y31.196 E.03314
G1 X204.43 Y31.064 E.03314
G1 X205.056 Y31.042 E.03233
G1 X205.705 Y31.132 E.03377
G1 X205.733 Y31.141 E.00156
G1 X205.639 Y31.563 F9000
;TYPE:Outer wall
G1 F1800
G1 X206.177 Y31.744 E.0293
G1 X206.674 Y32.015 E.02924
G1 X207.116 Y32.369 E.02923
G1 X207.49 Y32.794 E.02924
G1 X207.785 Y33.278 E.02924
G1 X207.991 Y33.805 E.02923
G1 X208.103 Y34.361 E.02924
G1 X208.116 Y34.927 E.02923
G1 X208.034 Y35.471 E.02842
G1 X207.851 Y36.022 E.02998
G1 X207.579 Y36.521 E.0293
G1 X207.22 Y36.969 E.02962
G1 X204.434 Y39.857 E.20713
G1 X204.022 Y40.216 E.02819
G1 X203.539 Y40.51 E.02924
G1 X203.026 Y40.711 E.02842
G1 X202.457 Y40.828 E.02998
G1 X201.89 Y40.842 E.0293
G1 X201.345 Y40.759 E.02842
G1 X200.794 Y40.576 E.02998
G1 X200.296 Y40.304 E.0293
G1 X199.854 Y39.95 E.02923
G1 X199.479 Y39.525 E.02924
G1 X199.185 Y39.042 E.02923
G1 X198.978 Y38.514 E.02924
G1 X198.867 Y37.959 E.02924
G1 X198.853 Y37.392 E.02923
G1 X198.938 Y36.833 E.02924
G1 X199.119 Y36.296 E.02923
G1 X199.391 Y35.799 E.02924
G1 X199.749 Y35.35 E.02962
G1 X202.536 Y32.463 E.20713
G1 X202.947 Y32.104 E.02819
G1 X203.431 Y31.809 E.02923
G1 X203.958 Y31.603 E.02924
G1 X204.514 Y31.491 E.02924
G1 X205.064 Y31.478 E.02842
G1 X205.599 Y31.557 E.02791
G1 E-1 F5100
G1 Z.7 F9000
G1 X174.507 Y44.843 Z.7
G1 Z.3
G1 E1 F3900
;TYPE:Inner wall
G1 F1800
G1 X174.461 Y44.67 E.00926
G1 X174.472 Y44.453 E.0112
G1 X174.557 Y44.165 E.01551
G1 X174.765 Y43.858 E.01913
G1 X185.156 Y33.09 E.7724
G1 X185.538 Y32.834 E.02374
G1 X185.867 Y32.759 E.0174
G1 X186.223 Y32.794 E.01849
G1 X186.594 Y32.964 E.02104
G1 X198.472 Y44.425 E.85198
G1 X198.629 Y44.615 E.01269
G1 X198.753 Y44.878 E.01503
G1 X198.805 Y45.22 E.01785
G1 X198.729 Y45.608 E.02039
G1 X198.5 Y45.965 E.02194
G1 X188.109 Y56.734 E.7724
G1 X187.721 Y56.992 E.02403
G1 X187.301 Y57.066 E.02202
G1 X186.943 Y56.997 E.01884
G1 X186.625 Y56.816 E.01888
G1 X174.793 Y45.398 E.84872
G1 X174.576 Y45.103 E.01889
G1 X174.517 Y44.882 E.01183
G1 X174.916 Y44.547 F9000
G1 F1800
G1 X174.954 Y44.345 E.01061
G1 X175.079 Y44.161 E.01148
G1 X185.47 Y33.392 E.7724
G1 X185.699 Y33.239 E.01424
G1 X186.027 Y33.198 E.01705
G1 X186.329 Y33.313 E.01669
G1 X198.17 Y44.739 E.84931
G1 X198.338 Y45.01 E.01651
G1 X198.369 Y45.216 E.01071
G1 X198.324 Y45.448 E.01223
G1 X198.186 Y45.663 E.01316
G1 X187.795 Y56.431 E.7724
G1 X187.563 Y56.586 E.01442
G1 X187.311 Y56.631 E.01321
G1 X186.95 Y56.524 E.0194
G1 X175.095 Y45.085 E.85034
G1 X174.965 Y44.908 E.01133
G1 X174.896 Y44.648 E.01389
G1 X174.908 Y44.586 E.00324
G1 X175.331 Y44.626 F9000
;TYPE:Outer wall
G1 F1800
G1 X175.392 Y44.463 E.00895
G1 X185.783 Y33.695 E.7724
G1 X185.925 Y33.629 E.00809
G1 X186.091 Y33.689 E.00911
G1 X197.867 Y45.052 E.84467
G1 X197.934 Y45.211 E.00889
G1 X197.873 Y45.36 E.00831
G1 X187.482 Y56.129 E.7724
G1 X187.32 Y56.195 E.00901
G1 X187.174 Y56.134 E.00819
G1 X175.398 Y44.771 E.84467
G1 X175.348 Y44.662 E.0062
G1 E-1 F5100
G1 Z.7 F9000
G1 X171.369 Y47.409 Z.7
G1 Z.3
G1 E1 F3900
;TYPE:Inner wall
G1 F1800
G1 X171.568 Y47.263 E.01273
G1 X171.853 Y47.168 E.01551
G1 X172.221 Y47.162 E.01901
G1 X172.506 Y47.248 E.01538
G1 X172.809 Y47.455 E.01889
G1 X184.585 Y58.818 E.84467
G1 X184.733 Y58.996 E.01198
G1 X184.834 Y59.183 E.01098
G1 X184.916 Y59.539 E.01884
G1 X184.856 Y59.961 E.02202
G1 X184.612 Y60.357 E.02403
G1 X174.221 Y71.126 E.7724
G1 X173.834 Y71.384 E.02403
G1 X173.414 Y71.459 E.02202
G1 X173.055 Y71.39 E.01884
G1 X172.738 Y71.208 E.01888
G1 X160.905 Y59.79 E.84872
G1 X160.688 Y59.496 E.01889
G1 X160.574 Y59.062 E.02315
G1 X160.584 Y58.845 E.0112
G1 X160.67 Y58.557 E.01551
G1 X160.878 Y58.251 E.01913
G1 X171.269 Y47.482 E.7724
G1 X171.337 Y47.432 E.00434
G1 X171.622 Y47.755 F9000
G1 F1800
G1 X171.762 Y47.653 E.0089
G1 X172.062 Y47.585 E.01591
G1 X172.325 Y47.644 E.01389
G1 X172.506 Y47.768 E.01133
G1 X184.282 Y59.131 E.84467
G1 X184.432 Y59.35 E.0137
G1 X184.481 Y59.564 E.0113
G1 X184.445 Y59.817 E.01321
G1 X184.299 Y60.055 E.01442
G1 X173.908 Y70.824 E.7724
G1 X173.675 Y70.978 E.01442
G1 X173.423 Y71.023 E.01321
G1 X173.063 Y70.916 E.0194
G1 X161.208 Y59.477 E.85034
G1 X161.078 Y59.3 E.01133
G1 X161.009 Y59.04 E.01389
G1 X161.066 Y58.737 E.01591
G1 X161.191 Y58.553 E.01148
G1 X171.582 Y47.785 E.7724
G1 X171.59 Y47.779 E.00052
G1 X171.896 Y48.087 F9000
;TYPE:Outer wall
G1 F1800
G1 X172.056 Y48.02 E.00895
G1 X172.204 Y48.081 E.00826
G1 X183.98 Y59.445 E.84467
G1 X184.046 Y59.589 E.00819
M73 P3 R54
M73 P3 R54
G1 X183.985 Y59.752 E.00901
G1 X173.594 Y70.521 E.7724
G1 X173.433 Y70.588 E.00901
G1 X173.286 Y70.527 E.00819
G1 X161.51 Y59.164 E.84467
G1 X161.444 Y59.018 E.00826
G1 X161.505 Y58.856 E.00895
G1 X171.868 Y48.116 E.77034
G1 E-1 F5100
G1 Z.7 F9000
G1 X157.501 Y61.787 Z.7
G1 Z.3
G1 E1 F3900
;TYPE:Inner wall
G1 F1800
G1 X157.68 Y61.655 E.01148
G1 X157.965 Y61.56 E.01551
G1 X158.333 Y61.555 E.01901
G1 X158.619 Y61.641 E.01538
G1 X158.921 Y61.847 E.01889
G1 X170.697 Y73.21 E.84467
G1 X170.846 Y73.388 E.01198
G1 X170.946 Y73.575 E.01098
G1 X171.028 Y73.931 E.01884
G1 X170.969 Y74.353 E.02202
G1 X170.725 Y74.75 E.02403
G1 X160.334 Y85.518 E.7724
G1 X159.946 Y85.776 E.02403
G1 X159.526 Y85.851 E.02202
G1 X159.168 Y85.782 E.01884
G1 X158.85 Y85.6 E.01888
G1 X147.018 Y74.183 E.84872
G1 X146.801 Y73.888 E.01889
G1 X146.686 Y73.454 E.02315
G1 X146.697 Y73.238 E.0112
G1 X146.782 Y72.95 E.01551
G1 X146.99 Y72.643 E.01913
G1 X157.381 Y61.874 E.7724
G1 X157.469 Y61.81 E.00559
G1 X157.754 Y62.133 F9000
G1 F1800
G1 X157.874 Y62.045 E.00765
G1 X158.175 Y61.977 E.01591
G1 X158.437 Y62.037 E.01389
G1 X158.619 Y62.16 E.01133
G1 X170.395 Y73.523 E.84467
G1 X170.544 Y73.743 E.0137
G1 X170.593 Y73.956 E.0113
G1 X170.558 Y74.209 E.01321
G1 X170.411 Y74.447 E.01442
