; HEADER_BLOCK_START
; generated by OrcaSlicer 2.2.0 on 2025-02-23 at 12:30:45
; total layer number: 84
; filament_density: 1.27
; filament_diameter: 1.75
; max_z_height: 25.20
; HEADER_BLOCK_END

; THUMBNAIL_BLOCK_START

;
; THUMBNAIL_BLOCK_END

; THUMBNAIL_BLOCK_START

;
; THUMBNAIL_BLOCK_END

; external perimeters extrusion width = 0.50mm
; perimeters extrusion width = 0.50mm
; infill extrusion width = 0.50mm
; solid infill extrusion width = 0.50mm
; top infill extrusion width = 0.50mm
; first layer extrusion width = 0.50mm

; EXECUTABLE_BLOCK_START


; Pre-Processed for Cancel-Object support by preprocess_cancellation v0.2.0
; 1 known objects
EXCLUDE_OBJECT_DEFINE NAME=Body1_stl_id_7811887588677804288_copy_0 CENTER=110.129,109.421 POLYGON=[[91.85,95.753],[91.85,124.284],[128.15,124.284],[128.15,95.753]]
M73 P0 R9
;TYPE:Custom
G28 ; home all axis
G90 ; use absolute coordinates
M83 ; extruder relative mode
led_heating
;M140 S80 ; set final bed temp
M104 S150 ; set temporary nozzle temp to prevent oozing during homing
G4 S10 ; allow partial nozzle warmup
M190 S80 ; wait for bed temp to stabilize
BED_MESH_CALIBRATE

G1 Z50 F240
G1 X2 Y10 F3000
M73 P2 R9
M104 S260 ; set final nozzle temp
;M190 S80 ; wait for bed temp to stabilize
M109 S260 ; wait for nozzle temp to stabilize
led_printing
M73 P2 R9
G1 Z0.28 F240
LINE_PURGE
G92 E0
G90
G21
M83 ; use relative distances for extrusion
; filament start gcode
SET_PRESSURE_ADVANCE ADVANCE=0.04; Override pressure advance value
M106 S0
;LAYER_CHANGE
;Z:0.3
;HEIGHT:0.3
;BEFORE_LAYER_CHANGE
;0.3
G92 E0

;_SET_FAN_SPEED_CHANGING_LAYER
SET_VELOCITY_LIMIT ACCEL=5000 ACCEL_TO_DECEL=2500
; printing object Body1.stl id:7811887588677804288 copy 0
EXCLUDE_OBJECT_START NAME=Body1_stl_id_7811887588677804288_copy_0
G1 E-1 F5100
M73 P4 R8
M73 P4 R8
G1 Z.7 F9000
G1 X110.292 Y98.476
G1 Z.7
G1 Z.3
G1 E1 F3900
;TYPE:Inner wall
;WIDTH:0.5
G1 F1800
G1 X110.853 Y98.327 E.02998
G1 X111.874 Y98.076 E.05427
G1 X113.162 Y97.791 E.06806
G1 X114.975 Y97.44 E.09531
G1 X117.049 Y97.118 E.10837
G1 X118.358 Y96.958 E.06808
G1 X120.197 Y96.783 E.09531
G1 X121.237 Y96.713 E.05384
G1 X123.349 Y96.632 E.10905
G1 X126.341 Y96.624 E.15447
G1 X126.734 Y96.693 E.0206
G1 X127.018 Y96.882 E.01759
G1 X127.207 Y97.166 E.01759
G1 X127.279 Y97.603 E.02288
G1 X127.279 Y122.446 E1.2823
G1 X127.17 Y122.912 E.02468
G1 X126.995 Y123.134 E.01459
G1 X126.768 Y123.276 E.01384
G1 X126.349 Y123.379 E.02226
G1 X93.624 Y123.379 E1.68912
G1 X93.19 Y123.257 E.02329
M73 P5 R8
M73 P5 R8
G1 X92.977 Y123.106 E.01348
G1 X92.805 Y122.853 E.01579
G1 X92.721 Y122.419 E.0228
G1 X92.721 Y102.382 E1.0342
G1 X92.925 Y101.946 E.02486
G1 X93.268 Y101.699 E.0218
G1 X93.693 Y101.624 E.0223
G1 X95.576 Y101.578 E.0972
G1 X97.545 Y101.449 E.10186
G1 X99.503 Y101.235 E.10164
G1 X100.51 Y101.091 E.05251
G1 X102.431 Y100.752 E.1007
G1 X104.359 Y100.325 E.10194
G1 X106.267 Y99.814 E.10194
G1 X108.15 Y99.22 E.10194
G1 X109.936 Y98.571 E.09809
G1 X110.253 Y98.487 E.01694
G1 X110.177 Y98.06 F9000
G1 F1800
G1 X111.775 Y97.652 E.08514
G1 X113.073 Y97.364 E.06862
G1 X114.898 Y97.012 E.09592
G1 X116.991 Y96.686 E.10936
G1 X118.311 Y96.525 E.06864
G1 X120.161 Y96.349 E.09592
G1 X121.214 Y96.278 E.05447
G1 X123.34 Y96.196 E.10978
G1 X126.414 Y96.188 E.15868
G1 X126.902 Y96.289 E.02572
G1 X127.228 Y96.491 E.01981
G1 X127.49 Y96.772 E.01981
G1 X127.649 Y97.121 E.01981
G1 X127.714 Y97.603 E.02511
G1 X127.714 Y122.342 E1.27693
G1 X127.648 Y122.895 E.02876
G1 X127.413 Y123.332 E.02558
G1 X127.148 Y123.57 E.01842
G1 X126.757 Y123.739 E.02196
G1 X126.369 Y123.814 E.02043
G1 X93.758 Y123.814 E1.68326
G1 X93.365 Y123.788 E.0203
G1 X92.934 Y123.626 E.02379
G1 X92.587 Y123.332 E.0235
G1 X92.352 Y122.896 E.02557
G1 X92.286 Y122.451 E.0232
G1 X92.286 Y102.62 E1.02359
G1 X92.322 Y102.222 E.02065
G1 X92.451 Y101.871 E.01927
G1 X92.662 Y101.593 E.01807
G1 X93.099 Y101.293 E.02736
G1 X93.286 Y101.246 E.00996
G1 X93.683 Y101.189 E.02067
G1 X95.556 Y101.143 E.09673
G1 X97.507 Y101.015 E.10091
G1 X99.448 Y100.803 E.10077
G1 X100.434 Y100.662 E.05141
G1 X102.346 Y100.325 E.10021
G1 X104.256 Y99.902 E.10096
M73 P6 R8
M73 P6 R8
G1 X106.145 Y99.396 E.10096
G1 X108.01 Y98.808 E.10096
G1 X109.806 Y98.155 E.0986
G1 X110.138 Y98.07 E.01772
G1 X110.069 Y97.638 F9000
;TYPE:Outer wall
G1 F1800
G1 X111.676 Y97.228 E.0856
G1 X112.985 Y96.938 E.06918
G1 X114.821 Y96.583 E.09653
G1 X116.934 Y96.254 E.11036
G1 X118.264 Y96.092 E.0692
G1 X120.126 Y95.915 E.09653
G1 X121.191 Y95.843 E.05511
G1 X123.331 Y95.76 E.11051
G1 X126.295 Y95.753 E.153
G1 X126.74 Y95.785 E.02305
G1 X127.22 Y95.965 E.02648
G1 X127.637 Y96.263 E.02643
G1 X127.935 Y96.68 E.02643
G1 X128.115 Y97.159 E.02643
G1 X128.15 Y97.603 E.02301
G1 X128.15 Y122.483 E1.28419
G1 X128.071 Y123.013 E.02764
G1 X127.942 Y123.324 E.01742
G1 X127.638 Y123.723 E.02587
G1 X127.23 Y124.038 E.02663
G1 X126.691 Y124.222 E.02942
G1 X126.389 Y124.25 E.01567
G1 X93.758 Y124.25 E1.68428
G1 X93.266 Y124.216 E.02545
G1 X92.884 Y124.073 E.02105
G1 X92.491 Y123.852 E.02325
G1 X92.156 Y123.471 E.02623
G1 X91.929 Y123.013 E.02639
G1 X91.85 Y122.483 E.02763
G1 X91.85 Y102.62 E1.02524
G1 X91.895 Y102.12 E.0259
G1 X91.996 Y101.845 E.01513
G1 X92.162 Y101.52 E.01886
G1 X92.487 Y101.152 E.02532
G1 X92.931 Y100.886 E.02671
G1 X93.239 Y100.808 E.01641
G1 X93.672 Y100.753 E.02255
G1 X95.537 Y100.708 E.09627
G1 X97.469 Y100.581 E.09996
G1 X99.393 Y100.371 E.09991
G1 X100.358 Y100.233 E.05032
G1 X102.261 Y99.897 E.09972
G1 X104.152 Y99.478 E.09997
G1 X106.023 Y98.977 E.09998
G1 X107.87 Y98.395 E.09997
G1 X109.675 Y97.739 E.09912
G1 X110.031 Y97.648 E.01895
G1 E-1 F5100
G1 Z.7 F9000
G1 X125.812 Y96.759 Z.7
G1 Z.3
G1 E1 F3900
;TYPE:Bottom surface
;WIDTH:0.50145
G1 F2400
G1 X127.148 Y98.095 E.09783
G1 X127.148 Y98.713 F9000
G1 F2400
G1 X125.195 Y96.76 E.14304
G1 X124.578 Y96.761 F9000
G1 F2400
G1 X127.148 Y99.331 E.18826
G1 X127.148 Y99.949 F9000
G1 F2400
G1 X123.96 Y96.761 E.23347
G1 X123.343 Y96.763 F9000
G1 F2400
G1 X127.148 Y100.567 E.27867
G1 X127.148 Y101.186 F9000
G1 F2400
G1 X122.748 Y96.785 E.32226
G1 X122.153 Y96.808 F9000
G1 F2400
G1 X127.148 Y101.804 E.36585
G1 X127.148 Y102.422 F9000
G1 F2400
M73 P7 R8
M73 P7 R8
G1 X121.558 Y96.831 E.40943
G1 X120.97 Y96.862 F9000
G1 F2400
G1 X127.148 Y103.04 E.45246
G1 X127.148 Y103.658 F9000
G1 F2400
G1 X120.391 Y96.901 E.49487
G1 X119.822 Y96.95 F9000
G1 F2400
G1 X127.148 Y104.276 E.53655
G1 X127.148 Y104.894 F9000
G1 F2400
G1 X119.258 Y97.004 E.57789
G1 X118.693 Y97.057 F9000
G1 F2400
G1 X127.148 Y105.512 E.61923
G1 X127.148 Y106.13 F9000
G1 F2400
G1 X118.135 Y97.117 E.66013
G1 X117.584 Y97.184 F9000
G1 F2400
G1 X127.148 Y106.749 E.70047
G1 X127.148 Y107.367 F9000
G1 F2400
G1 X117.034 Y97.252 E.74076
G1 X116.494 Y97.331 F9000
G1 F2400
G1 X127.148 Y107.985 E.78028
G1 X127.148 Y108.603 F9000
G1 F2400
G1 X115.956 Y97.411 E.8197
G1 X115.426 Y97.498 F9000
G1 F2400
G1 X127.148 Y109.221 E.85855
G1 X127.148 Y109.839 F9000
G1 F2400
G1 X114.898 Y97.588 E.89722
G1 X114.38 Y97.689 F9000
G1 F2400
G1 X127.148 Y110.457 E.93516
G1 X127.148 Y111.075 F9000
G1 F2400
G1 X113.862 Y97.789 E.9731
G1 X113.344 Y97.889 F9000
G1 F2400
G1 X127.148 Y111.693 E1.01103
G1 X127.148 Y112.311 F9000
M73 P8 R8
M73 P8 R8
G1 F2400
G1 X112.834 Y97.997 E1.04835
G1 X112.328 Y98.11 F9000
G1 F2400
G1 X127.148 Y112.93 E1.0854
G1 X127.148 Y113.548 F9000
G1 F2400
G1 X111.824 Y98.223 E1.12234
G1 X111.328 Y98.345 F9000
G1 F2400
G1 X127.148 Y114.166 E1.15868
G1 X127.148 Y114.784 F9000
G1 F2400
G1 X110.832 Y98.468 E1.19496
G1 X110.344 Y98.598 F9000
G1 F2400
G1 X127.148 Y115.402 E1.23073
G1 X127.148 Y116.02 F9000
G1 F2400
G1 X109.864 Y98.736 E1.26587
G1 X109.411 Y98.901 F9000
G1 F2400
G1 X127.148 Y116.638 E1.29909
G1 X127.148 Y117.256 F9000
G1 F2400
G1 X108.957 Y99.065 E1.3323
G1 X108.504 Y99.23 F9000
M73 P9 R8
M73 P9 R8
G1 F2400
G1 X127.148 Y117.874 E1.36551
G1 X127.148 Y118.493 F9000
G1 F2400
G1 X108.046 Y99.39 E1.39903
G1 X107.576 Y99.538 F9000
G1 F2400
G1 X127.148 Y119.111 E1.43347
G1 X127.148 Y119.729 F9000
G1 F2400
G1 X107.105 Y99.686 E1.46792
G1 X106.635 Y99.834 F9000
G1 F2400
G1 X127.148 Y120.347 E1.50236
G1 X127.148 Y120.965 F9000
G1 F2400
G1 X106.161 Y99.978 E1.5371
G1 X105.673 Y100.108 F9000
G1 F2400
G1 X127.148 Y121.583 E1.57283
G1 X127.148 Y122.201 F9000
G1 F2400
G1 X105.185 Y100.238 E1.60855
G1 X104.697 Y100.369 F9000
M73 P10 R8
M73 P10 R8
G1 F2400
G1 X127.09 Y122.762 E1.64005
G1 X126.819 Y123.108 F9000
G1 F2400
G1 X104.204 Y100.493 E1.65632
G1 X103.697 Y100.605 F9000
G1 F2400
G1 X126.341 Y123.248 E1.65837
G1 X125.722 Y123.248 F9000
G1 F2400
G1 X103.191 Y100.717 E1.65017
G1 X102.685 Y100.829 F9000
G1 F2400
G1 X125.104 Y123.248 E1.64198
G1 X124.486 Y123.248 F9000
G1 F2400
G1 X102.169 Y100.931 E1.63449
G1 X101.644 Y101.024 F9000
G1 F2400
G1 X123.868 Y123.248 E1.6277
G1 X123.25 Y123.248 F9000
M73 P11 R8
M73 P11 R8
G1 F2400
G1 X101.118 Y101.116 E1.62092
G1 X100.593 Y101.209 F9000
G1 F2400
G1 X122.632 Y123.248 E1.61414
G1 X122.014 Y123.248 F9000
G1 F2400
G1 X100.054 Y101.288 E1.60836
G1 X99.513 Y101.365 F9000
G1 F2400
G1 X121.396 Y123.248 E1.6027
G1 X120.778 Y123.248 F9000
G1 F2400
G1 X98.956 Y101.426 E1.59823
G1 X98.398 Y101.487 F9000
G1 F2400
G1 X120.16 Y123.248 E1.59378
G1 X119.541 Y123.248 F9000
G1 F2400
G1 X97.841 Y101.547 E1.58934
G1 X97.273 Y101.598 F9000
M73 P12 R8
M73 P12 R8
G1 F2400
G1 X118.923 Y123.248 E1.58564
G1 X118.305 Y123.248 F9000
G1 F2400
G1 X96.693 Y101.636 E1.58288
G1 X96.112 Y101.673 F9000
G1 F2400
G1 X117.687 Y123.248 E1.58011
G1 X117.069 Y123.248 F9000
G1 F2400
G1 X95.531 Y101.71 E1.57742
G1 X94.928 Y101.725 F9000
G1 F2400
G1 X116.451 Y123.248 E1.57635
G1 X115.833 Y123.248 F9000
G1 F2400
G1 X94.324 Y101.74 E1.57527
G1 X93.721 Y101.754 F9000
G1 F2400
G1 X115.215 Y123.248 E1.57419
G1 X114.597 Y123.248 F9000
M73 P13 R8
M73 P13 R8
G1 F2400
G1 X93.226 Y101.877 E1.56519
G1 X92.933 Y102.202 F9000
G1 F2400
G1 X113.978 Y123.248 E1.54138
G1 X113.36 Y123.248 F9000
G1 F2400
G1 X92.852 Y102.74 E1.50202
G1 X92.852 Y103.358 F9000
G1 F2400
G1 X112.742 Y123.248 E1.45675
G1 X112.124 Y123.248 F9000
G1 F2400
G1 X92.852 Y103.976 E1.41148
G1 X92.852 Y104.594 F9000
G1 F2400
G1 X111.506 Y123.248 E1.36621
G1 X110.888 Y123.248 F9000
G1 F2400
G1 X92.852 Y105.212 E1.32094
G1 X92.852 Y105.83 F9000
G1 F2400
G1 X110.27 Y123.248 E1.27567
G1 X109.652 Y123.248 F9000
M73 P14 R8
M73 P14 R8
G1 F2400
G1 X92.852 Y106.448 E1.2304
G1 X92.852 Y107.066 F9000
G1 F2400
G1 X109.034 Y123.248 E1.18513
G1 X108.415 Y123.248 F9000
G1 F2400
G1 X92.852 Y107.685 E1.13986
G1 X92.852 Y108.303 F9000
G1 F2400
G1 X107.797 Y123.248 E1.09459
G1 X107.179 Y123.248 F9000
G1 F2400
G1 X92.852 Y108.921 E1.04932
G1 X92.852 Y109.539 F9000
G1 F2400
G1 X106.561 Y123.248 E1.00405
G1 X105.943 Y123.248 F9000
G1 F2400
G1 X92.852 Y110.157 E.95878
G1 X92.852 Y110.775 F9000
G1 F2400
G1 X105.325 Y123.248 E.91351
G1 X104.707 Y123.248 F9000
G1 F2400
G1 X92.852 Y111.393 E.86824
G1 X92.852 Y112.011 F9000
G1 F2400
G1 X104.089 Y123.248 E.82297
G1 X103.471 Y123.248 F9000
G1 F2400
G1 X92.852 Y112.629 E.7777
G1 X92.852 Y113.248 F9000
M73 P15 R8
M73 P15 R8
G1 F2400
G1 X102.852 Y123.248 E.73243
G1 X102.234 Y123.248 F9000
M73 P15 R7
M73 P15 R7
G1 F2400
G1 X92.852 Y113.866 E.68716
G1 X92.852 Y114.484 F9000
G1 F2400
G1 X101.616 Y123.248 E.64189
G1 X100.998 Y123.248 F9000
G1 F2400
G1 X92.852 Y115.102 E.59662
G1 X92.852 Y115.72 F9000
G1 F2400
G1 X100.38 Y123.248 E.55135
G1 X99.762 Y123.248 F9000
G1 F2400
G1 X92.852 Y116.338 E.50608
G1 X92.852 Y116.956 F9000
G1 F2400
G1 X99.144 Y123.248 E.46081
G1 X98.526 Y123.248 F9000
G1 F2400
G1 X92.852 Y117.574 E.41554
G1 X92.852 Y118.192 F9000
G1 F2400
G1 X97.908 Y123.248 E.37027
G1 X97.289 Y123.248 F9000
G1 F2400
G1 X92.852 Y118.811 E.325
G1 X92.852 Y119.429 F9000
G1 F2400
G1 X96.671 Y123.248 E.27973
G1 X96.053 Y123.248 F9000
G1 F2400
G1 X92.852 Y120.047 E.23446
G1 X92.852 Y120.665 F9000
G1 F2400
G1 X95.435 Y123.248 E.18919
G1 X94.817 Y123.248 F9000
G1 F2400
G1 X92.852 Y121.283 E.14392
G1 X92.852 Y121.901 F9000
G1 F2400
G1 X94.199 Y123.248 E.09865
; stop printing object Body1.stl id:7811887588677804288 copy 0
EXCLUDE_OBJECT_END NAME=Body1_stl_id_7811887588677804288_copy_0
;LAYER_CHANGE
;Z:0.6
;HEIGHT:0.3
;BEFORE_LAYER_CHANGE
;0.6
G92 E0

;_SET_FAN_SPEED_CHANGING_LAYER
M104 S255 ; set nozzle temperature
M140 S80 ; set bed temperature
; printing object Body1.stl id:7811887588677804288 copy 0
EXCLUDE_OBJECT_START NAME=Body1_stl_id_7811887588677804288_copy_0
G1 E-1 F5100
G1 Z1 F9000
G1 X110.303 Y98.473 Z1
G1 Z.6
G1 E1 F3900
;TYPE:Inner wall
;WIDTH:0.5
G1 F11018.803
G1 X110.738 Y98.357 E.02325
G1 X111.765 Y98.102 E.05465
G1 X113.592 Y97.702 E.09649
G1 X114.891 Y97.455 E.0683
G1 X116.983 Y97.127 E.1093
G1 X118.84 Y96.907 E.09651
G1 X120.158 Y96.786 E.06829
G1 X121.21 Y96.715 E.05444
G1 X123.339 Y96.632 E.10995
G1 X126.304 Y96.629 E.15304
G1 X126.765 Y96.71 E.0242
G1 X127.018 Y96.882 E.01578
G1 X127.207 Y97.166 E.01759
G1 X127.279 Y97.603 E.02287
G1 X127.279 Y122.476 E1.28384
G1 X127.175 Y122.866 E.02086
G1 X126.95 Y123.17 E.01953
G1 X126.708 Y123.315 E.0145
G1 X126.345 Y123.379 E.01906
G1 X93.703 Y123.379 E1.68486
G1 X93.291 Y123.315 E.02149
G1 X92.97 Y123.099 E.01996
G1 X92.805 Y122.853 E.01533
G1 X92.721 Y122.419 E.0228
G1 X92.721 Y102.496 E1.02832
G1 X92.834 Y102.081 E.0222
G1 X93.118 Y101.78 E.02139
G1 X93.372 Y101.659 E.01452
G1 X93.72 Y101.624 E.01805
G1 X95.576 Y101.578 E.0958
G1 X97.539 Y101.45 E.10157
G1 X98.55 Y101.35 E.05242
G1 X100.238 Y101.13 E.08788
G1 X101.458 Y100.934 E.06377
G1 X102.454 Y100.747 E.05232
G1 X104.359 Y100.325 E.1007
G1 X106.267 Y99.814 E.10194
G1 X108.15 Y99.22 E.10194
G1 X109.937 Y98.571 E.09812
G1 X110.264 Y98.483 E.01749
G1 X110.079 Y97.635 F9000
;TYPE:Outer wall
G1 F11018.803
G1 X111.567 Y97.254 E.0793
G1 X113.417 Y96.849 E.09772
G1 X114.738 Y96.597 E.06943
G1 X116.869 Y96.263 E.11131
G1 X118.749 Y96.04 E.09774
G1 X120.088 Y95.918 E.06942
G1 X121.163 Y95.844 E.05561
G1 X123.321 Y95.761 E.11146
G1 X126.52 Y95.757 E.1651
G1 X126.889 Y95.844 E.01957
G1 X127.244 Y95.978 E.01961
G1 X127.637 Y96.263 E.02503
G1 X127.937 Y96.683 E.02663
G1 X128.115 Y97.159 E.02623
G1 X128.15 Y97.603 E.02299
G1 X128.15 Y122.482 E1.28418
G1 X128.072 Y123.007 E.02736
G1 X127.853 Y123.471 E.02652
G1 X127.508 Y123.851 E.02649
G1 X127.225 Y124.021 E.01703
G1 X126.885 Y124.172 E.01921
G1 X126.388 Y124.25 E.02597
G1 X93.492 Y124.25 E1.69793
G1 X92.936 Y124.117 E.02953
G1 X92.487 Y123.848 E.027
G1 X92.153 Y123.467 E.02617
G1 X91.929 Y123.013 E.02615
G1 X91.85 Y122.483 E.02763
G1 X91.85 Y102.647 E1.02385
G1 X91.891 Y102.222 E.02207
M73 P16 R7
M73 P16 R7
G1 X92.001 Y101.82 E.02148
G1 X92.245 Y101.395 E.02531
G1 X92.629 Y101.047 E.02671
G1 X92.915 Y100.912 E.01638
G1 X93.294 Y100.786 E.02059
G1 X93.699 Y100.753 E.02099
G1 X95.537 Y100.708 E.09488
G1 X97.468 Y100.581 E.09989
G1 X98.438 Y100.486 E.0503
G1 X100.113 Y100.268 E.0872
G1 X101.308 Y100.076 E.0625
G1 X102.266 Y99.896 E.05028
G1 X104.152 Y99.478 E.09972
G1 X106.023 Y98.977 E.09998
G1 X107.87 Y98.395 E.09997
G1 X109.675 Y97.739 E.09913
G1 X110.04 Y97.645 E.01946
G1 X110.187 Y98.057 F9000
;TYPE:Inner wall
G1 F11018.803
G1 X111.666 Y97.678 E.07882
G1 X113.504 Y97.276 E.09711
G1 X114.815 Y97.026 E.06886
G1 X116.926 Y96.695 E.11031
G1 X118.795 Y96.473 E.09712
G1 X120.123 Y96.352 E.06886
G1 X121.187 Y96.28 E.05503
G1 X123.33 Y96.196 E.11071
G1 X126.47 Y96.193 E.16206
G1 X126.92 Y96.299 E.0239
G1 X127.207 Y96.474 E.01733
G1 X127.49 Y96.772 E.02121
G1 X127.647 Y97.118 E.01961
G1 X127.714 Y97.603 E.02529
G1 X127.714 Y122.342 E1.27694
G1 X127.651 Y122.879 E.0279
G1 X127.487 Y123.226 E.01984
G1 X127.229 Y123.511 E.01982
G1 X126.758 Y123.755 E.02736
G1 X126.366 Y123.814 E.02046
G1 X93.703 Y123.814 E1.68596
G1 X93.242 Y123.755 E.024
G1 X92.891 Y123.582 E.0202
G1 X92.587 Y123.332 E.02033
G1 X92.352 Y122.896 E.02557
G1 X92.286 Y122.451 E.0232
G1 X92.286 Y102.647 E1.02219
G1 X92.342 Y102.143 E.02621
G1 X92.507 Y101.787 E.02025
G1 X92.873 Y101.413 E.02699
G1 X93.235 Y101.242 E.02064
G1 X93.71 Y101.188 E.02468
G1 X95.556 Y101.143 E.09534
