; HEADER_BLOCK_START
; generated by OrcaSlicer 2.2.0 on 2025-02-19 at 07:17:30
; total layer number: 27
; filament_density: 1.27
; filament_diameter: 1.75
; max_z_height: 8.10
; HEADER_BLOCK_END

; THUMBNAIL_BLOCK_START

;
; THUMBNAIL_BLOCK_END

; THUMBNAIL_BLOCK_START

;
; THUMBNAIL_BLOCK_END

; external perimeters extrusion width = 0.50mm
; perimeters extrusion width = 0.50mm
; infill extrusion width = 0.50mm
; solid infill extrusion width = 0.50mm
; top infill extrusion width = 0.50mm
; first layer extrusion width = 0.50mm

; EXECUTABLE_BLOCK_START
M73 P0 R26
;TYPE:Custom
G28 ; home all axis
G90 ; use absolute coordinates
M83 ; extruder relative mode
led_heating
;M140 S80 ; set final bed temp
M104 S150 ; set temporary nozzle temp to prevent oozing during homing
G4 S10 ; allow partial nozzle warmup
M190 S80 ; wait for bed temp to stabilize
BED_MESH_CALIBRATE

G1 Z50 F240
G1 X2 Y10 F3000
M104 S260 ; set final nozzle temp
;M190 S80 ; wait for bed temp to stabilize
M109 S260 ; wait for nozzle temp to stabilize
led_printing
G1 Z0.28 F240
LINE_PURGE
G92 E0
G90
G21
M83 ; use relative distances for extrusion
; filament start gcode
SET_PRESSURE_ADVANCE ADVANCE=0.04; Override pressure advance value
M106 S0
;LAYER_CHANGE
;Z:0.3
;HEIGHT:0.3
;BEFORE_LAYER_CHANGE
;0.3
G92 E0

;_SET_FAN_SPEED_CHANGING_LAYER
SET_VELOCITY_LIMIT ACCEL=5000 ACCEL_TO_DECEL=2500
; printing object Body2.stl id:2143640870144 copy 0
G1 E-1 F5100
M73 P1 R26
M73 P1 R26
G1 Z.7 F9000
G1 X57.673 Y66.673
G1 Z.7
G1 Z.3
G1 E1 F3900
;TYPE:Inner wall
;WIDTH:0.5
G1 F1800
G1 X58.062 Y66.375 E.02528
G1 X58.514 Y66.188 E.02528
G1 X59.037 Y66.121 E.02718
G1 X144.025 Y66.122 E4.38675
G1 X144.988 Y66.147 E.04975
G1 X145.973 Y66.225 E.05101
G1 X146.953 Y66.354 E.05102
G1 X147.924 Y66.534 E.05096
G1 X148.923 Y66.776 E.05304
G1 X149.834 Y67.046 E.04904
G1 X150.765 Y67.376 E.05101
G1 X151.679 Y67.754 E.05102
G1 X152.571 Y68.179 E.05101
G1 X153.439 Y68.651 E.05101
G1 X154.282 Y69.167 E.05101
G1 X155.096 Y69.727 E.05102
G1 X155.881 Y70.329 E.05102
G1 X156.632 Y70.971 E.05101
G1 X157.349 Y71.651 E.05102
G1 X158.029 Y72.368 E.05102
G1 X158.671 Y73.119 E.05101
G1 X159.273 Y73.904 E.05101
G1 X159.833 Y74.718 E.05102
G1 X160.349 Y75.561 E.05102
G1 X160.821 Y76.429 E.05101
G1 X161.246 Y77.321 E.05101
G1 X161.624 Y78.235 E.05102
G1 X161.954 Y79.166 E.05101
G1 X162.235 Y80.114 E.05101
G1 X162.466 Y81.075 E.05102
G1 X162.646 Y82.046 E.05096
G1 X162.769 Y82.993 E.04929
G1 X162.816 Y83.548 E.02876
G1 X162.854 Y84.087 E.02792
G1 X162.879 Y85.052 E.04983
G1 X162.879 Y134.985 E2.57735
G1 X162.853 Y135.988 E.05177
G1 X162.775 Y136.973 E.05101
G1 X162.646 Y137.953 E.05102
G1 X162.466 Y138.925 E.05101
G1 X162.235 Y139.886 E.05102
G1 X161.954 Y140.834 E.05101
G1 X161.625 Y141.764 E.05096
G1 X161.23 Y142.713 E.05304
G1 X160.821 Y143.571 E.04904
G1 X160.349 Y144.439 E.05101
G1 X159.833 Y145.282 E.05101
G1 X159.274 Y146.096 E.05096
G1 X158.646 Y146.91 E.05304
G1 X158.029 Y147.632 E.04904
G1 X157.35 Y148.348 E.05096
G1 X156.603 Y149.054 E.05304
G1 X155.881 Y149.671 E.04904
G1 X155.096 Y150.273 E.05101
G1 X154.282 Y150.833 E.05102
G1 X153.439 Y151.349 E.05101
G1 X152.571 Y151.821 E.05102
G1 X151.679 Y152.246 E.05101
G1 X150.765 Y152.624 E.05102
G1 X149.834 Y152.954 E.05101
G1 X148.886 Y153.235 E.05101
G1 X147.925 Y153.466 E.05102
G1 X146.953 Y153.646 E.05102
M73 P2 R26
M73 P2 R26
G1 X145.973 Y153.775 E.05102
G1 X144.988 Y153.853 E.05101
G1 X143.985 Y153.879 E.05177
G1 X59.037 Y153.879 E4.38472
G1 X58.514 Y153.812 E.02718
G1 X58.159 Y153.654 E.02009
G1 X57.7 Y153.35 E.02839
G1 X57.359 Y152.906 E.02892
G1 X57.188 Y152.486 E.02343
G1 X57.121 Y151.963 E.02718
G1 X57.121 Y68.037 E4.33197
G1 X57.188 Y67.514 E.02718
G1 X57.383 Y67.093 E.02397
G1 X57.651 Y66.706 E.02428
G1 X57.365 Y66.365 F9000
G1 F1800
G1 X57.844 Y65.997 E.03117
G1 X58.401 Y65.766 E.03117
G1 X59.022 Y65.686 E.03232
G1 X144.03 Y65.687 E4.38778
G1 X145.011 Y65.712 E.05063
G1 X146.019 Y65.792 E.05219
G1 X147.021 Y65.924 E.05219
G1 X148.015 Y66.108 E.05216
G1 X149.036 Y66.355 E.05422
G1 X149.968 Y66.631 E.0502
G1 X150.922 Y66.969 E.05219
G1 X151.856 Y67.356 E.05219
G1 X152.768 Y67.791 E.05219
G1 X153.657 Y68.273 E.05219
G1 X154.519 Y68.802 E.05219
G1 X155.353 Y69.375 E.05219
G1 X156.155 Y69.99 E.05219
G1 X156.924 Y70.647 E.05219
G1 X157.657 Y71.343 E.05219
G1 X158.353 Y72.076 E.05219
G1 X159.01 Y72.845 E.05219
G1 X159.625 Y73.647 E.05219
G1 X160.198 Y74.481 E.05219
G1 X160.727 Y75.343 E.05219
G1 X161.209 Y76.232 E.05219
G1 X161.644 Y77.144 E.05219
G1 X162.031 Y78.078 E.0522
G1 X162.369 Y79.032 E.05219
G1 X162.656 Y80.001 E.05219
G1 X162.892 Y80.984 E.05219
G1 X163.076 Y81.978 E.05216
G1 X163.201 Y82.937 E.0499
G1 X163.25 Y83.514 E.02989
G1 X163.29 Y84.076 E.0291
G1 X163.314 Y85.052 E.05042
G1 X163.314 Y134.991 E2.57764
G1 X163.288 Y136.011 E.05266
G1 X163.208 Y137.019 E.05219
G1 X163.076 Y138.021 E.05219
G1 X162.892 Y139.016 E.05219
G1 X162.656 Y139.999 E.05219
G1 X162.369 Y140.968 E.05219
G1 X162.032 Y141.921 E.05216
G1 X161.628 Y142.891 E.05422
G1 X161.209 Y143.768 E.0502
G1 X160.727 Y144.657 E.05219
G1 X160.198 Y145.519 E.05219
G1 X159.626 Y146.352 E.05216
G1 X158.985 Y147.184 E.05422
G1 X158.353 Y147.924 E.0502
G1 X157.658 Y148.657 E.05216
G1 X156.894 Y149.378 E.05422
G1 X156.155 Y150.01 E.0502
G1 X155.353 Y150.625 E.05219
G1 X154.519 Y151.198 E.0522
G1 X153.657 Y151.727 E.05219
G1 X152.768 Y152.209 E.05219
G1 X151.856 Y152.644 E.05219
G1 X150.922 Y153.031 E.05219
G1 X149.968 Y153.369 E.05219
G1 X148.999 Y153.656 E.05219
G1 X148.016 Y153.892 E.05219
G1 X147.021 Y154.076 E.05219
G1 X146.019 Y154.208 E.05219
G1 X145.011 Y154.288 E.05219
G1 X143.991 Y154.314 E.05266
G1 X58.778 Y154.314 E4.39836
G1 X58.135 Y154.144 E.03433
G1 X57.688 Y153.886 E.02665
G1 X57.381 Y153.65 E.02
G1 X56.987 Y153.137 E.03335
G1 X56.766 Y152.599 E.03006
G1 X56.686 Y151.978 E.03232
G1 X56.686 Y67.897 E4.33993
G1 X56.802 Y67.295 E.03163
M73 P3 R26
M73 P3 R26
G1 X57.067 Y66.77 E.03035
G1 X57.341 Y66.397 E.02391
G1 X57.057 Y66.055 F9000
;TYPE:Outer wall
G1 F1800
G1 X57.484 Y65.714 E.02818
G1 X57.948 Y65.46 E.02731
G1 X58.468 Y65.309 E.02796
G1 X59.008 Y65.25 E.02805
G1 X144.036 Y65.251 E4.38881
G1 X145.034 Y65.277 E.05152
G1 X146.064 Y65.358 E.05337
G1 X147.09 Y65.493 E.05337
G1 X148.106 Y65.682 E.05336
G1 X149.149 Y65.934 E.05539
G1 X150.103 Y66.217 E.05136
G1 X151.078 Y66.562 E.05337
G1 X152.033 Y66.958 E.05337
G1 X152.966 Y67.403 E.05337
G1 X153.875 Y67.896 E.05337
G1 X154.757 Y68.436 E.05337
G1 X155.609 Y69.022 E.05337
G1 X156.429 Y69.651 E.05337
G1 X157.215 Y70.323 E.05337
G1 X157.965 Y71.035 E.05337
G1 X158.677 Y71.785 E.05337
M73 P3 R25
M73 P3 R25
G1 X159.349 Y72.571 E.05337
G1 X159.978 Y73.391 E.05337
G1 X160.564 Y74.243 E.05337
G1 X161.104 Y75.125 E.05337
G1 X161.597 Y76.034 E.05337
G1 X162.042 Y76.967 E.05337
G1 X162.438 Y77.922 E.05337
G1 X162.783 Y78.897 E.05337
G1 X163.077 Y79.888 E.05337
G1 X163.318 Y80.894 E.05337
G1 X163.507 Y81.91 E.05336
G1 X163.645 Y82.974 E.05539
G1 X163.685 Y83.479 E.02614
G1 X163.725 Y84.065 E.03028
G1 X163.75 Y85.052 E.051
G1 X163.75 Y134.997 E2.57793
G1 X163.723 Y136.034 E.05354
G1 X163.642 Y137.064 E.05337
G1 X163.507 Y138.09 E.05337
G1 X163.318 Y139.106 E.05337
G1 X163.077 Y140.112 E.05337
G1 X162.783 Y141.103 E.05337
G1 X162.438 Y142.077 E.05336
G1 X162.026 Y143.068 E.0554
G1 X161.597 Y143.966 E.05135
G1 X161.104 Y144.875 E.05337
G1 X160.564 Y145.757 E.05337
G1 X159.978 Y146.609 E.05336
G1 X159.323 Y147.459 E.0554
G1 X158.677 Y148.215 E.05135
G1 X157.965 Y148.965 E.05336
G1 X157.186 Y149.702 E.0554
G1 X156.429 Y150.349 E.05135
G1 X155.609 Y150.978 E.05337
G1 X154.757 Y151.564 E.05337
G1 X153.875 Y152.104 E.05337
G1 X152.966 Y152.597 E.05337
G1 X152.033 Y153.042 E.05337
G1 X151.078 Y153.438 E.05337
G1 X150.103 Y153.783 E.05337
G1 X149.112 Y154.077 E.05337
G1 X148.106 Y154.318 E.05337
G1 X147.09 Y154.507 E.05337
G1 X146.064 Y154.642 E.05337
G1 X145.034 Y154.723 E.05337
G1 X143.997 Y154.75 E.05354
G1 X59.008 Y154.75 E4.38678
G1 X58.481 Y154.694 E.02735
G1 X57.955 Y154.542 E.02828
G1 X57.47 Y154.263 E.02887
G1 X57.061 Y153.949 E.02661
G1 X56.616 Y153.368 E.03778
G1 X56.46 Y153.052 E.01819
G1 X56.307 Y152.526 E.02828
G1 X56.25 Y151.992 E.02773
G1 X56.25 Y68.008 E4.33491
G1 X56.306 Y67.481 E.02735
G1 X56.457 Y66.955 E.02828
G1 X56.823 Y66.321 E.03778
G1 X57.031 Y66.085 E.01622
G1 E-1 F5100
G1 Z.7 F9000
G1 X152.965 Y128.569 Z.7
G1 Z.3
G1 E1 F3900
;TYPE:Inner wall
G1 F1800
G1 X152.86 Y128.558 E.00549
G1 X152.355 Y128.429 E.02686
G1 X151.875 Y128.229 E.02686
G1 X151.492 Y128.009 E.02278
G1 X135.377 Y117.265 E.99974
G1 X134.954 Y116.949 E.02725
M73 P4 R25
M73 P4 R25
G1 X134.521 Y116.546 E.03054
G1 X134.137 Y116.096 E.03054
G1 X133.807 Y115.604 E.03054
G1 X133.537 Y115.078 E.03054
G1 X133.329 Y114.524 E.03054
G1 X133.186 Y113.95 E.03054
G1 X133.111 Y113.363 E.03054
G1 X133.103 Y112.772 E.03054
G1 X133.165 Y112.183 E.03054
G1 X133.293 Y111.606 E.03054
G1 X133.487 Y111.047 E.03054
G1 X133.745 Y110.514 E.03054
G1 X134.062 Y110.015 E.03054
G1 X134.435 Y109.555 E.03054
G1 X134.858 Y109.142 E.03054
G1 X135.325 Y108.78 E.03049
G1 X135.997 Y108.33 E.04173
G1 X151.492 Y98 E.96126
G1 X152.016 Y97.713 E.03084
G1 X152.505 Y97.534 E.02686
G1 X153.014 Y97.427 E.02686
G1 X153.515 Y97.396 E.02587
G1 X154.052 Y97.437 E.02784
G1 X154.56 Y97.553 E.02687
G1 X155.045 Y97.741 E.02686
G1 X155.499 Y97.996 E.02686
G1 X155.911 Y98.314 E.02686
G1 X156.273 Y98.688 E.02686
G1 X156.578 Y99.11 E.02686
G1 X156.819 Y99.571 E.02686
G1 X156.992 Y100.062 E.02686
G1 X157.092 Y100.572 E.02686
G1 X157.121 Y101.013 E.02278
G1 X157.121 Y124.997 E1.23795
G1 X157.079 Y125.547 E.02848
G1 X156.947 Y126.098 E.02924
G1 X156.754 Y126.581 E.02686
G1 X156.493 Y127.031 E.02686
G1 X156.182 Y127.424 E.02587
G1 X155.82 Y127.775 E.02599
G1 X155.366 Y128.097 E.02873
G1 X154.902 Y128.332 E.02686
G1 X154.427 Y128.493 E.02588
G1 X153.897 Y128.593 E.02784
G1 X153.377 Y128.613 E.02687
G1 X153.005 Y128.573 E.01931
G1 X153.014 Y128.139 F9000
G1 F1800
G1 X152.958 Y128.133 E.0029
G1 X152.514 Y128.023 E.02363
G1 X152.09 Y127.85 E.02364
G1 X151.734 Y127.647 E.02116
G1 X135.618 Y116.903 E.99974
G1 X135.216 Y116.601 E.02595
G1 X134.821 Y116.231 E.02794
G1 X134.472 Y115.817 E.02794
G1 X134.172 Y115.366 E.02794
G1 X133.927 Y114.884 E.02794
G1 X133.739 Y114.376 E.02794
G1 X133.61 Y113.85 E.02794
G1 X133.543 Y113.313 E.02794
G1 X133.539 Y112.772 E.02794
G1 X133.597 Y112.233 E.02794
G1 X133.717 Y111.705 E.02795
G1 X133.897 Y111.195 E.02794
G1 X134.135 Y110.708 E.02795
G1 X134.427 Y110.253 E.02794
G1 X134.77 Y109.834 E.02794
G1 X135.158 Y109.457 E.02794
G1 X135.587 Y109.128 E.0279
G1 X136.239 Y108.693 E.04043
G1 X151.734 Y98.363 E.96126
G1 X152.174 Y98.119 E.026
G1 X152.603 Y97.958 E.02363
G1 X153.051 Y97.861 E.02363
G1 X153.491 Y97.83 E.02276
G1 X153.964 Y97.864 E.0245
G1 X154.411 Y97.963 E.02364
G1 X154.84 Y98.125 E.02363
G1 X155.24 Y98.347 E.02364
G1 X155.605 Y98.624 E.02363
G1 X155.926 Y98.951 E.02364
G1 X156.196 Y99.32 E.02363
G1 X156.411 Y99.724 E.02364
G1 X156.566 Y100.155 E.02363
G1 X156.658 Y100.604 E.02364
G1 X156.686 Y101.013 E.02116
G1 X156.686 Y124.997 E1.23795
G1 X156.644 Y125.499 E.026
G1 X156.54 Y125.944 E.02364
G1 X156.372 Y126.37 E.02363
G1 X156.145 Y126.768 E.02364
G1 X155.874 Y127.116 E.02276
G1 X155.505 Y127.467 E.02627
G1 X155.161 Y127.712 E.02186
G1 X154.754 Y127.923 E.02363
G1 X154.337 Y128.067 E.02276
G1 X153.871 Y128.158 E.0245
G1 X153.414 Y128.179 E.02364
G1 X153.054 Y128.143 E.01867
G1 X153.057 Y127.709 F9000
;TYPE:Outer wall
G1 F1800
G1 X152.672 Y127.617 E.02041
G1 X152.305 Y127.471 E.02041
G1 X151.976 Y127.284 E.01954
G1 X135.86 Y116.54 E.99974
G1 X135.459 Y116.237 E.02595
G1 X134.917 Y115.672 E.04039
G1 X134.537 Y115.128 E.03425
G1 X134.31 Y114.675 E.02615
G1 X134.141 Y114.204 E.02585
G1 X134.03 Y113.726 E.02535
G1 X133.975 Y113.238 E.02535
G1 X133.976 Y112.747 E.02535
G1 X134.034 Y112.259 E.02535
G1 X134.148 Y111.781 E.02534
G1 X134.401 Y111.15 E.03508
G1 X134.792 Y110.491 E.03957
G1 X135.114 Y110.101 E.02612
G1 X135.478 Y109.756 E.02588
G1 X136.111 Y109.301 E.04023
G1 X151.976 Y98.725 E.98415
G1 X152.333 Y98.524 E.02116
G1 X152.702 Y98.383 E.02041
G1 X153.088 Y98.295 E.02041
G1 X153.467 Y98.265 E.01965
G1 X153.876 Y98.29 E.02115
G1 X154.263 Y98.372 E.02041
G1 X154.634 Y98.509 E.02041
G1 X154.982 Y98.698 E.02041
G1 X155.298 Y98.934 E.02041
G1 X155.578 Y99.213 E.02041
G1 X155.815 Y99.53 E.02041
G1 X156.004 Y99.878 E.02041
G1 X156.141 Y100.248 E.02041
G1 X156.223 Y100.635 E.02041
G1 X156.25 Y101.013 E.01954
G1 X156.25 Y124.997 E1.23795
G1 X156.219 Y125.405 E.02115
G1 X156.132 Y125.791 E.02041
G1 X155.991 Y126.16 E.02041
G1 X155.798 Y126.505 E.02041
G1 X155.566 Y126.808 E.01965
G1 X155.247 Y127.116 E.02292
G1 X154.955 Y127.328 E.01863
G1 X154.605 Y127.513 E.02041
G1 X154.247 Y127.641 E.01965
G1 X153.845 Y127.723 E.02115
G1 X153.45 Y127.744 E.02041
G1 X153.097 Y127.713 E.01834
G1 E-1 F5100
G1 Z.7 F9000
G1 X131.534 Y73.388 Z.7
G1 Z.3
G1 E1 F3900
;TYPE:Inner wall
G1 F1800
G1 X131.8 Y73.052 E.0221
G1 X132.172 Y72.701 E.02643
G1 X132.59 Y72.405 E.02643
G1 X133.046 Y72.171 E.02643
G1 X133.529 Y72.004 E.02643
G1 X134.032 Y71.907 E.02643
G1 X134.465 Y71.879 E.0224
G1 X144.001 Y71.879 E.49217
G1 X144.739 Y71.903 E.03813
G1 X145.377 Y71.958 E.03307
G1 X146.013 Y72.039 E.03307
G1 X146.603 Y72.141 E.03089
G1 X147.5 Y72.355 E.04762
G1 X148.071 Y72.533 E.03089
G1 X149.193 Y72.951 E.06178
G1 X150.003 Y73.333 E.04624
G1 X150.586 Y73.658 E.03444
G1 X151.556 Y74.273 E.05924
G1 X152.251 Y74.799 E.04503
G1 X152.811 Y75.283 E.0382
G1 X153.273 Y75.727 E.03308
G1 X153.717 Y76.189 E.03307
G1 X154.154 Y76.691 E.03436
G1 X154.648 Y77.337 E.04196
G1 X155.006 Y77.868 E.03308
G1 X155.342 Y78.414 E.03307
G1 X155.633 Y78.931 E.0306
G1 X156.015 Y79.729 E.04572
G1 X156.253 Y80.324 E.03308
G1 X156.624 Y81.424 E.05991
G1 X156.839 Y82.294 E.04624
G1 X156.96 Y82.983 E.03612
G1 X157.045 Y83.658 E.0351
G1 X157.097 Y84.261 E.03125
G1 X157.121 Y84.981 E.03717
G1 X157.121 Y88.997 E.20727
G1 X157.08 Y89.538 E.02802
G1 X156.857 Y90.333 E.0426
G1 X156.733 Y90.611 E.01573
G1 X156.355 Y91.211 E.03658
G1 X156.159 Y91.443 E.01573
G1 X155.631 Y91.914 E.03652
G1 X155.094 Y92.285 E.03365
G1 X138.488 Y103.356 E1.03017
G1 X138.038 Y103.622 E.02695
G1 X137.506 Y103.865 E.0302
G1 X136.966 Y104.041 E.02931
G1 X136.381 Y104.161 E.03085
G1 X135.794 Y104.212 E.03043
G1 X135.209 Y104.195 E.0302
G1 X134.647 Y104.114 E.02931
G1 X134.068 Y103.964 E.03085
G1 X133.519 Y103.75 E.03043
G1 X133.002 Y103.477 E.0302
G1 X132.519 Y103.147 E.0302
G1 X132.077 Y102.763 E.0302
G1 X131.682 Y102.332 E.0302
G1 X131.338 Y101.858 E.0302
G1 X131.016 Y101.279 E.0342
G1 X130.824 Y100.809 E.0262
G1 X130.66 Y100.248 E.0302
G1 X130.56 Y99.671 E.0302
G1 X130.526 Y99.062 E.03147
G1 X130.846 Y75.45 E1.2189
G1 X130.888 Y74.943 E.02626
G1 X131.028 Y74.369 E.03052
G1 X131.222 Y73.895 E.02643
G1 X131.481 Y73.453 E.02643
G1 X131.509 Y73.419 E.00226
G1 X131.872 Y73.661 F9000
G1 F1800
G1 X132.106 Y73.363 E.01955
G1 X132.431 Y73.051 E.02325
G1 X132.797 Y72.788 E.02325
G1 X133.197 Y72.58 E.02325
G1 X133.621 Y72.43 E.02325
G1 X134.063 Y72.341 E.02325
G1 X134.465 Y72.314 E.02081
G1 X144.001 Y72.314 E.49217
G1 X144.724 Y72.339 E.03736
G1 X145.333 Y72.392 E.03154
G1 X145.939 Y72.469 E.03154
G1 X146.529 Y72.57 E.03089
G1 X147.398 Y72.778 E.04614
G1 X147.94 Y72.948 E.0293
G1 X149.033 Y73.356 E.06025
G1 X149.816 Y73.727 E.04471
G1 X150.373 Y74.038 E.0329
G1 X151.334 Y74.649 E.05879
G1 X151.991 Y75.148 E.0426
G1 X152.525 Y75.611 E.03647
G1 X152.965 Y76.035 E.03154
G1 X153.389 Y76.475 E.03154
G1 X153.826 Y76.977 E.03436
G1 X154.3 Y77.6 E.04042
G1 X154.642 Y78.107 E.03154
G1 X154.962 Y78.627 E.03154
G1 X155.253 Y79.144 E.0306
G1 X155.622 Y79.916 E.04418
G1 X155.848 Y80.484 E.03155
G1 X156.209 Y81.556 E.05837
G1 X156.415 Y82.397 E.04471
G1 X156.531 Y83.057 E.03459
G1 X156.612 Y83.702 E.03356
G1 X156.661 Y84.276 E.02971
G1 X156.686 Y84.989 E.03682
G1 X156.686 Y88.997 E.20686
G1 X156.635 Y89.531 E.0277
G1 X156.439 Y90.212 E.03658
G1 X155.987 Y90.979 E.04595
