; HEADER_BLOCK_START
; generated by OrcaSlicer 2.2.0 on 2025-02-23 at 12:52:32
; total layer number: 84
; filament_density: 1.27
; filament_diameter: 1.75
; max_z_height: 25.20
; HEADER_BLOCK_END

; THUMBNAIL_BLOCK_START

;
; THUMBNAIL_BLOCK_END

; THUMBNAIL_BLOCK_START

;
; THUMBNAIL_BLOCK_END

; external perimeters extrusion width = 0.40mm
; perimeters extrusion width = 0.40mm
; infill extrusion width = 0.40mm
; solid infill extrusion width = 0.40mm
; top infill extrusion width = 0.40mm
; first layer extrusion width = 0.40mm

; EXECUTABLE_BLOCK_START


; Pre-Processed for Cancel-Object support by preprocess_cancellation v0.2.0
; 1 known objects
EXCLUDE_OBJECT_DEFINE NAME=Body1_stl_id_2129007149440_copy_0 CENTER=110.281,108.767 POLYGON=[[91.8,95.702],[91.8,124.3],[128.2,124.3],[128.2,95.702]]
M73 P0 R13
;TYPE:Custom
G28 ; home all axis
G90 ; use absolute coordinates
M83 ; extruder relative mode
led_heating
;M140 S80 ; set final bed temp
M104 S150 ; set temporary nozzle temp to prevent oozing during homing
G4 S10 ; allow partial nozzle warmup
M190 S80 ; wait for bed temp to stabilize
BED_MESH_CALIBRATE

G1 Z50 F240
G1 X2 Y10 F3000
M73 P1 R13
M104 S260 ; set final nozzle temp
;M190 S80 ; wait for bed temp to stabilize
M109 S260 ; wait for nozzle temp to stabilize
led_printing
M73 P1 R13
G1 Z0.28 F240
LINE_PURGE
G92 E0
G90
G21
M83 ; use relative distances for extrusion
; filament start gcode
SET_PRESSURE_ADVANCE ADVANCE=0.04; Override pressure advance value
M106 S0
;LAYER_CHANGE
;Z:0.3
;HEIGHT:0.3
;BEFORE_LAYER_CHANGE
;0.3
G92 E0

;_SET_FAN_SPEED_CHANGING_LAYER
SET_VELOCITY_LIMIT ACCEL=5000 ACCEL_TO_DECEL=2500
; printing object Body1.stl id:2129007149440 copy 0
EXCLUDE_OBJECT_START NAME=Body1_stl_id_2129007149440_copy_0
G1 E-1 F5100
M73 P3 R13
M73 P3 R13
G1 Z.7 F9000
G1 X115.44 Y97.112
G1 Z.7
G1 Z.3
G1 E1 F3900
;TYPE:Inner wall
;WIDTH:0.4
G1 F1800
G1 X116.137 Y97 E.02807
G1 X118.177 Y96.725 E.08187
G1 X119.3 Y96.611 E.04487
G1 X121.155 Y96.468 E.07399
G1 X123.36 Y96.381 E.08776
G1 X126.559 Y96.372 E.1272
G1 X127.025 Y96.565 E.02006
G1 X127.335 Y96.875 E.01745
G1 X127.471 Y97.175 E.01309
G1 X127.529 Y97.603 E.01718
G1 X127.529 Y122.342 E.9838
G1 X127.468 Y122.846 E.02016
G1 X127.269 Y123.213 E.01663
G1 X127.042 Y123.417 E.01213
G1 X126.716 Y123.56 E.01415
G1 X126.359 Y123.629 E.01449
G1 X93.703 Y123.629 E1.29861
G1 X93.296 Y123.577 E.01634
G1 X92.872 Y123.355 E.01901
G1 X92.683 Y123.142 E.01133
G1 X92.553 Y122.853 E.0126
G1 X92.471 Y122.459 E.01602
G1 X92.471 Y102.667 E.78706
G1 X92.538 Y102.136 E.02126
G1 X92.652 Y101.905 E.01025
G1 X92.993 Y101.555 E.01943
G1 X93.329 Y101.426 E.01432
G1 X93.734 Y101.373 E.01624
G1 X95.549 Y101.329 E.07219
G1 X97.603 Y101.193 E.08189
G1 X99.423 Y100.993 E.07278
G1 X100.41 Y100.853 E.03965
G1 X102.421 Y100.499 E.0812
G1 X104.285 Y100.086 E.07592
G1 X106.196 Y99.574 E.0787
G1 X108.071 Y98.983 E.07817
G1 X109.861 Y98.332 E.07575
G1 X110.846 Y98.071 E.04051
G1 X112.937 Y97.582 E.08541
G1 X114.946 Y97.192 E.08137
G1 X115.401 Y97.118 E.01833
G1 X115.388 Y96.779 F9000
G1 F1800
G1 X115.937 Y96.688 E.02214
G1 X118.126 Y96.393 E.08784
G1 X119.164 Y96.285 E.04149
G1 X121.135 Y96.133 E.07862
G1 X123.353 Y96.046 E.08825
G1 X126.294 Y96.037 E.11696
G1 X126.684 Y96.066 E.01557
G1 X127.086 Y96.217 E.01706
G1 X127.434 Y96.466 E.01702
G1 X127.683 Y96.814 E.01702
G1 X127.834 Y97.215 E.01702
G1 X127.864 Y97.603 E.01549
G1 X127.864 Y122.342 E.9838
G1 X127.816 Y122.785 E.01771
G1 X127.689 Y123.189 E.01684
G1 X127.436 Y123.522 E.01664
G1 X127.101 Y123.781 E.01683
G1 X126.652 Y123.938 E.01891
G1 X126.375 Y123.964 E.01109
G1 X93.703 Y123.964 E1.29924
G1 X93.315 Y123.934 E.0155
G1 X92.922 Y123.776 E.01684
G1 X92.557 Y123.515 E.01784
G1 X92.319 Y123.201 E.01566
G1 X92.162 Y122.752 E.01891
G1 X92.136 Y122.475 E.01109
G1 X92.136 Y102.503 E.79422
G1 X92.267 Y101.915 E.02395
M73 P4 R13
M73 P4 R13
G1 X92.463 Y101.583 E.01534
G1 X92.914 Y101.217 E.02309
G1 X93.309 Y101.085 E.01658
G1 X93.726 Y101.038 E.01667
G1 X95.534 Y100.994 E.07191
G1 X97.574 Y100.858 E.08132
G1 X99.381 Y100.66 E.07228
G1 X100.352 Y100.522 E.039
G1 X102.355 Y100.17 E.0809
G1 X104.205 Y99.76 E.07533
G1 X106.102 Y99.252 E.07812
G1 X107.963 Y98.665 E.07758
G1 X109.76 Y98.012 E.07606
G1 X110.765 Y97.745 E.04131
G1 X112.867 Y97.254 E.08585
G1 X114.867 Y96.865 E.08103
G1 X115.349 Y96.785 E.01941
G1 X115.333 Y96.448 F9000
;TYPE:Outer wall
G1 F1800
G1 X115.888 Y96.356 E.02234
G1 X118.087 Y96.06 E.08824
G1 X119.134 Y95.95 E.04187
G1 X121.116 Y95.798 E.07906
G1 X123.346 Y95.71 E.08875
G1 X126.293 Y95.702 E.1172
G1 X126.751 Y95.735 E.01826
G1 X127.244 Y95.921 E.02096
G1 X127.672 Y96.228 E.02095
G1 X127.979 Y96.656 E.02095
G1 X128.164 Y97.149 E.02095
G1 X128.2 Y97.603 E.01812
G1 X128.2 Y122.487 E.98954
G1 X128.12 Y123.026 E.02169
G1 X127.987 Y123.348 E.01386
G1 X127.673 Y123.759 E.02056
G1 X127.252 Y124.084 E.02114
G1 X126.724 Y124.268 E.02222
G1 X126.39 Y124.3 E.01334
G1 X93.488 Y124.3 E1.30842
G1 X92.916 Y124.163 E.02342
G1 X92.622 Y123.987 E.01362
G1 X92.32 Y123.752 E.01522
G1 X92.016 Y123.352 E.01997
G1 X91.832 Y122.824 E.02222
G1 X91.8 Y122.49 E.01334
G1 X91.8 Y102.667 E.78833
G1 X91.858 Y102.144 E.0209
G1 X91.957 Y101.786 E.01481
G1 X92.207 Y101.362 E.01955
G1 X92.604 Y101.003 E.02129
G1 X92.908 Y100.84 E.01372
G1 X93.429 Y100.709 E.02138
G1 X95.518 Y100.659 E.0831
G1 X97.545 Y100.524 E.08075
G1 X99.339 Y100.327 E.07178
G1 X100.294 Y100.192 E.03835
G1 X102.29 Y99.841 E.08061
G1 X104.125 Y99.433 E.07475
G1 X106.009 Y98.929 E.07753
G1 X107.855 Y98.348 E.077
G1 X109.66 Y97.691 E.07637
G1 X110.683 Y97.42 E.0421
G1 X112.796 Y96.925 E.0863
G1 X114.807 Y96.535 E.08147
G1 X115.294 Y96.454 E.0196
G1 E-1 F5100
G1 Z.7 F9000
G1 X126.641 Y96.509 Z.7
G1 Z.3
G1 E1 F3900
;TYPE:Bottom surface
;WIDTH:0.40254
G1 F2400
G1 X127.391 Y97.259 E.04253
G1 X127.428 Y97.774 F9000
G1 F2400
G1 X126.133 Y96.479 E.0734
G1 X125.655 Y96.48 F9000
G1 F2400
G1 X127.428 Y98.253 E.10047
G1 X127.428 Y98.731 F9000
G1 F2400
G1 X125.177 Y96.48 E.12754
G1 X124.7 Y96.481 F9000
G1 F2400
G1 X127.428 Y99.209 E.15461
G1 X127.428 Y99.687 F9000
G1 F2400
G1 X124.222 Y96.481 E.18168
G1 X123.744 Y96.482 F9000
G1 F2400
G1 X127.428 Y100.166 E.20875
G1 X127.428 Y100.644 F9000
G1 F2400
G1 X123.27 Y96.486 E.23562
G1 X122.81 Y96.504 F9000
G1 F2400
G1 X127.428 Y101.122 E.2617
G1 X127.428 Y101.6 F9000
G1 F2400
G1 X122.35 Y96.522 E.28777
G1 X121.889 Y96.54 F9000
G1 F2400
G1 X127.428 Y102.078 E.31385
G1 X127.428 Y102.557 F9000
G1 F2400
G1 X121.429 Y96.558 E.33992
G1 X120.976 Y96.583 F9000
G1 F2400
G1 X127.428 Y103.035 E.36562
G1 X127.428 Y103.513 F9000
G1 F2400
G1 X120.532 Y96.617 E.39078
G1 X120.088 Y96.651 F9000
G1 F2400
G1 X127.428 Y103.991 E.41594
G1 X127.428 Y104.47 F9000
G1 F2400
G1 X119.644 Y96.685 E.4411
G1 X119.2 Y96.72 F9000
G1 F2400
G1 X127.428 Y104.948 E.46625
G1 X127.428 Y105.426 F9000
M73 P5 R13
M73 P5 R13
G1 F2400
G1 X118.767 Y96.765 E.49078
G1 X118.334 Y96.81 F9000
G1 F2400
G1 X127.428 Y105.904 E.51531
G1 X127.428 Y106.383 F9000
G1 F2400
G1 X117.909 Y96.863 E.53942
G1 X117.487 Y96.92 F9000
G1 F2400
G1 X127.428 Y106.861 E.56331
G1 X127.428 Y107.339 F9000
G1 F2400
G1 X117.066 Y96.976 E.58719
G1 X116.644 Y97.033 F9000
G1 F2400
G1 X127.428 Y107.817 E.61108
G1 X127.428 Y108.295 F9000
G1 F2400
G1 X116.223 Y97.09 E.63496
G1 X115.806 Y97.152 F9000
G1 F2400
G1 X127.428 Y108.774 E.65855
G1 X127.428 Y109.252 F9000
G1 F2400
G1 X115.396 Y97.22 E.6818
G1 X114.986 Y97.288 F9000
G1 F2400
G1 X127.428 Y109.73 E.70506
G1 X127.428 Y110.208 F9000
G1 F2400
G1 X114.584 Y97.364 E.7278
G1 X114.184 Y97.442 F9000
G1 F2400
G1 X127.428 Y110.687 E.75049
G1 X127.428 Y111.165 F9000
G1 F2400
G1 X113.783 Y97.52 E.77318
G1 X113.383 Y97.598 F9000
G1 F2400
G1 X127.428 Y111.643 E.79587
G1 X127.428 Y112.121 F9000
G1 F2400
G1 X112.982 Y97.676 E.81856
G1 X112.594 Y97.766 F9000
G1 F2400
G1 X127.428 Y112.599 E.84057
G1 X127.428 Y113.078 F9000
G1 F2400
G1 X112.207 Y97.856 E.86253
G1 X111.819 Y97.947 F9000
G1 F2400
G1 X127.428 Y113.556 E.88449
G1 X127.428 Y114.034 F9000
G1 F2400
G1 X111.431 Y98.038 E.90645
G1 X111.044 Y98.128 F9000
M73 P6 R13
M73 P6 R13
G1 F2400
G1 X127.428 Y114.512 E.92841
G1 X127.428 Y114.991 F9000
G1 F2400
G1 X110.662 Y98.224 E.95007
G1 X110.284 Y98.324 F9000
G1 F2400
G1 X127.428 Y115.469 E.97149
G1 X127.428 Y115.947 F9000
G1 F2400
G1 X109.906 Y98.425 E.99292
G1 X109.554 Y98.551 F9000
G1 F2400
G1 X127.428 Y116.425 E1.01285
G1 X127.428 Y116.904 F9000
M73 P6 R12
M73 P6 R12
G1 F2400
G1 X109.203 Y98.678 E1.03273
G1 X108.852 Y98.806 F9000
G1 F2400
G1 X127.428 Y117.382 E1.05261
G1 X127.428 Y117.86 F9000
G1 F2400
G1 X108.501 Y98.933 E1.07249
G1 X108.15 Y99.061 F9000
G1 F2400
G1 X127.428 Y118.338 E1.09237
G1 X127.428 Y118.816 F9000
G1 F2400
G1 X107.789 Y99.178 E1.11284
G1 X107.425 Y99.292 F9000
G1 F2400
G1 X127.428 Y119.295 E1.13345
G1 X127.428 Y119.773 F9000
G1 F2400
G1 X107.062 Y99.406 E1.15407
G1 X106.698 Y99.521 F9000
M73 P7 R12
M73 P7 R12
G1 F2400
G1 X127.428 Y120.251 E1.17468
G1 X127.428 Y120.729 F9000
G1 F2400
G1 X106.334 Y99.635 E1.19529
G1 X105.962 Y99.741 F9000
G1 F2400
G1 X127.428 Y121.208 E1.2164
G1 X127.428 Y121.686 F9000
G1 F2400
G1 X105.584 Y99.842 E1.23779
G1 X105.207 Y99.943 F9000
G1 F2400
G1 X127.428 Y122.164 E1.25918
G1 X127.401 Y122.615 F9000
G1 F2400
G1 X104.829 Y100.043 E1.27901
G1 X104.452 Y100.144 F9000
G1 F2400
G1 X127.298 Y122.99 E1.29455
G1 X127.085 Y123.255 F9000
G1 F2400
G1 X104.066 Y100.237 E1.30434
G1 X103.675 Y100.324 F9000
G1 F2400
G1 X126.782 Y123.431 E1.30935
G1 X126.397 Y123.524 F9000
G1 F2400
G1 X103.283 Y100.41 E1.30973
G1 X102.892 Y100.497 F9000
G1 F2400
G1 X125.923 Y123.528 E1.30505
G1 X125.444 Y123.528 F9000
M73 P8 R12
M73 P8 R12
G1 F2400
G1 X102.5 Y100.584 E1.30014
G1 X102.097 Y100.658 F9000
G1 F2400
G1 X124.966 Y123.528 E1.29591
G1 X124.488 Y123.528 F9000
G1 F2400
G1 X101.69 Y100.73 E1.29186
G1 X101.283 Y100.802 F9000
G1 F2400
G1 X124.01 Y123.528 E1.2878
G1 X123.532 Y123.528 F9000
G1 F2400
G1 X100.877 Y100.873 E1.28375
G1 X100.47 Y100.945 F9000
G1 F2400
G1 X123.053 Y123.528 E1.27969
G1 X122.575 Y123.528 F9000
G1 F2400
G1 X100.052 Y101.005 E1.27626
G1 X99.633 Y101.065 F9000
G1 F2400
G1 X122.097 Y123.528 E1.2729
G1 X121.619 Y123.528 F9000
G1 F2400
G1 X99.208 Y101.118 E1.26988
G1 X98.777 Y101.165 F9000
G1 F2400
G1 X121.14 Y123.528 E1.26721
G1 X120.662 Y123.528 F9000
M73 P9 R12
M73 P9 R12
G1 F2400
G1 X98.346 Y101.212 E1.26454
G1 X97.915 Y101.259 F9000
G1 F2400
G1 X120.184 Y123.528 E1.26188
G1 X119.706 Y123.528 F9000
G1 F2400
G1 X97.479 Y101.302 E1.25945
G1 X97.031 Y101.332 F9000
G1 F2400
G1 X119.228 Y123.528 E1.25776
G1 X118.749 Y123.528 F9000
G1 F2400
G1 X96.583 Y101.361 E1.25607
G1 X96.134 Y101.391 F9000
G1 F2400
G1 X118.271 Y123.528 E1.25438
G1 X117.793 Y123.528 F9000
G1 F2400
G1 X95.686 Y101.421 E1.2527
G1 X95.224 Y101.437 F9000
G1 F2400
G1 X117.315 Y123.528 E1.25179
G1 X116.836 Y123.528 F9000
G1 F2400
G1 X94.757 Y101.449 E1.25114
G1 X94.29 Y101.46 F9000
G1 F2400
G1 X116.358 Y123.528 E1.25048
G1 X115.88 Y123.528 F9000
M73 P10 R12
M73 P10 R12
G1 F2400
G1 X93.823 Y101.472 E1.24983
G1 X93.389 Y101.515 F9000
G1 F2400
G1 X115.402 Y123.528 E1.24736
G1 X114.923 Y123.528 F9000
G1 F2400
G1 X93.042 Y101.647 E1.2399
G1 X92.793 Y101.875 F9000
G1 F2400
G1 X114.445 Y123.528 E1.22695
G1 X113.967 Y123.528 F9000
G1 F2400
G1 X92.631 Y102.193 E1.20898
G1 X92.572 Y102.611 F9000
G1 F2400
G1 X113.489 Y123.528 E1.18525
G1 X113.011 Y123.528 F9000
G1 F2400
G1 X92.572 Y103.089 E1.15815
G1 X92.572 Y103.568 F9000
G1 F2400
G1 X112.532 Y123.528 E1.13106
G1 X112.054 Y123.528 F9000
G1 F2400
G1 X92.572 Y104.046 E1.10396
G1 X92.572 Y104.524 F9000
G1 F2400
G1 X111.576 Y123.528 E1.07686
G1 X111.098 Y123.528 F9000
G1 F2400
G1 X92.572 Y105.002 E1.04976
G1 X92.572 Y105.481 F9000
M73 P11 R12
M73 P11 R12
G1 F2400
G1 X110.619 Y123.528 E1.02266
G1 X110.141 Y123.528 F9000
G1 F2400
G1 X92.572 Y105.959 E.99556
G1 X92.572 Y106.437 F9000
G1 F2400
G1 X109.663 Y123.528 E.96846
G1 X109.185 Y123.528 F9000
G1 F2400
G1 X92.572 Y106.915 E.94136
G1 X92.572 Y107.394 F9000
G1 F2400
G1 X108.706 Y123.528 E.91426
G1 X108.228 Y123.528 F9000
G1 F2400
G1 X92.572 Y107.872 E.88717
G1 X92.572 Y108.35 F9000
G1 F2400
G1 X107.75 Y123.528 E.86007
G1 X107.272 Y123.528 F9000
G1 F2400
G1 X92.572 Y108.828 E.83297
G1 X92.572 Y109.306 F9000
G1 F2400
G1 X106.794 Y123.528 E.80587
G1 X106.315 Y123.528 F9000
G1 F2400
G1 X92.572 Y109.785 E.77877
G1 X92.572 Y110.263 F9000
G1 F2400
G1 X105.837 Y123.528 E.75167
G1 X105.359 Y123.528 F9000
G1 F2400
G1 X92.572 Y110.741 E.72457
G1 X92.572 Y111.219 F9000
G1 F2400
G1 X104.881 Y123.528 E.69747
G1 X104.402 Y123.528 F9000
G1 F2400
G1 X92.572 Y111.698 E.67037
G1 X92.572 Y112.176 F9000
G1 F2400
G1 X103.924 Y123.528 E.64328
G1 X103.446 Y123.528 F9000
M73 P12 R12
M73 P12 R12
G1 F2400
G1 X92.572 Y112.654 E.61618
G1 X92.572 Y113.132 F9000
G1 F2400
G1 X102.968 Y123.528 E.58908
G1 X102.49 Y123.528 F9000
G1 F2400
G1 X92.572 Y113.611 E.56198
G1 X92.572 Y114.089 F9000
G1 F2400
G1 X102.011 Y123.528 E.53488
G1 X101.533 Y123.528 F9000
G1 F2400
G1 X92.572 Y114.567 E.50778
G1 X92.572 Y115.045 F9000
G1 F2400
G1 X101.055 Y123.528 E.48068
G1 X100.577 Y123.528 F9000
G1 F2400
G1 X92.572 Y115.523 E.45358
G1 X92.572 Y116.002 F9000
G1 F2400
G1 X100.098 Y123.528 E.42649
G1 X99.62 Y123.528 F9000
G1 F2400
G1 X92.572 Y116.48 E.39939
G1 X92.572 Y116.958 F9000
G1 F2400
G1 X99.142 Y123.528 E.37229
G1 X98.664 Y123.528 F9000
G1 F2400
G1 X92.572 Y117.436 E.34519
G1 X92.572 Y117.915 F9000
G1 F2400
G1 X98.185 Y123.528 E.31809
G1 X97.707 Y123.528 F9000
G1 F2400
G1 X92.572 Y118.393 E.29099
G1 X92.572 Y118.871 F9000
G1 F2400
G1 X97.229 Y123.528 E.26389
G1 X96.751 Y123.528 F9000
G1 F2400
G1 X92.572 Y119.349 E.23679
G1 X92.572 Y119.827 F9000
G1 F2400
G1 X96.273 Y123.528 E.20969
G1 X95.794 Y123.528 F9000
G1 F2400
G1 X92.572 Y120.306 E.1826
G1 X92.572 Y120.784 F9000
G1 F2400
G1 X95.316 Y123.528 E.1555
G1 X94.838 Y123.528 F9000
G1 F2400
G1 X92.572 Y121.262 E.1284
G1 X92.572 Y121.74 F9000
G1 F2400
G1 X94.36 Y123.528 E.1013
G1 X93.881 Y123.528 F9000
G1 F2400
G1 X92.572 Y122.219 E.0742
G1 X92.623 Y122.747 F9000
G1 F2400
G1 X93.369 Y123.494 E.04232
; stop printing object Body1.stl id:2129007149440 copy 0
EXCLUDE_OBJECT_END NAME=Body1_stl_id_2129007149440_copy_0
;LAYER_CHANGE
;Z:0.6
;HEIGHT:0.3
;BEFORE_LAYER_CHANGE
;0.6
G92 E0

;_SET_FAN_SPEED_CHANGING_LAYER
M104 S255 ; set nozzle temperature
M140 S80 ; set bed temperature
; printing object Body1.stl id:2129007149440 copy 0
EXCLUDE_OBJECT_START NAME=Body1_stl_id_2129007149440_copy_0
G1 E-1 F5100
G1 Z1 F9000
G1 X115.187 Y97.156 Z1
G1 Z.6
G1 E1 F3900
;TYPE:Inner wall
;WIDTH:0.4
G1 F14301.93
G1 X117.025 Y96.87 E.07397
G1 X118.306 Y96.711 E.05133
G1 X119.402 Y96.601 E.0438
G1 X120.984 Y96.479 E.06311
G1 X122.367 Y96.409 E.05504
G1 X123.431 Y96.381 E.04232
G1 X126.564 Y96.375 E.1246
G1 X127.025 Y96.565 E.01983
G1 X127.335 Y96.875 E.01745
G1 X127.471 Y97.175 E.01309
G1 X127.529 Y97.603 E.01718
G1 X127.529 Y122.342 E.98381
G1 X127.468 Y122.846 E.02016
G1 X127.269 Y123.213 E.01663
G1 X127.04 Y123.419 E.01225
G1 X126.735 Y123.556 E.01329
G1 X126.357 Y123.629 E.01531
G1 X93.703 Y123.629 E1.29855
G1 X93.381 Y123.603 E.01288
G1 X93.045 Y123.459 E.01451
G1 X92.731 Y123.213 E.01587
G1 X92.552 Y122.857 E.01586
G1 X92.471 Y122.457 E.01622
G1 X92.471 Y102.658 E.78738
G1 X92.532 Y102.154 E.02016
G1 X92.657 Y101.896 E.01142
G1 X92.993 Y101.555 E.01902
G1 X93.331 Y101.426 E.01438
G1 X93.721 Y101.372 E.01569
G1 X95.855 Y101.313 E.08487
G1 X97.422 Y101.209 E.06245
G1 X98.387 Y101.116 E.03856
G1 X99.341 Y101.003 E.0382
G1 X100.619 Y100.821 E.05136
G1 X102.501 Y100.483 E.07601
G1 X104.359 Y100.067 E.07575
G1 X106.196 Y99.574 E.07562
G1 X108.073 Y98.983 E.07827
G1 X109.861 Y98.332 E.07566
G1 X110.844 Y98.072 E.04045
G1 X113.011 Y97.567 E.08846
G1 X114.844 Y97.21 E.07426
G1 X115.148 Y97.163 E.01224
G1 X115.084 Y96.49 F9000
;TYPE:Outer wall
G1 F14301.93
G1 X115.857 Y96.361 E.03116
G1 X116.835 Y96.218 E.03931
G1 X118.222 Y96.045 E.05559
G1 X119.248 Y95.94 E.041
G1 X120.942 Y95.809 E.06757
G1 X122.337 Y95.738 E.05557
