; HEADER_BLOCK_START
; generated by OrcaSlicer 2.2.0 on 2025-02-23 at 18:16:10
; total layer number: 83
; filament_density: 1.24
; filament_diameter: 1.75
; max_z_height: 24.90
; HEADER_BLOCK_END

; THUMBNAIL_BLOCK_START

;
; THUMBNAIL_BLOCK_END

; THUMBNAIL_BLOCK_START

;
; THUMBNAIL_BLOCK_END

; external perimeters extrusion width = 0.50mm
; perimeters extrusion width = 0.50mm
; infill extrusion width = 0.50mm
; solid infill extrusion width = 0.50mm
; top infill extrusion width = 0.50mm
; first layer extrusion width = 0.50mm

; external perimeters extrusion width = 0.50mm
; perimeters extrusion width = 0.50mm
; infill extrusion width = 0.50mm
; solid infill extrusion width = 0.50mm
; top infill extrusion width = 0.50mm
; first layer extrusion width = 0.50mm

; external perimeters extrusion width = 0.50mm
; perimeters extrusion width = 0.50mm
; infill extrusion width = 0.50mm
; solid infill extrusion width = 0.50mm
; top infill extrusion width = 0.50mm
; first layer extrusion width = 0.50mm

; EXECUTABLE_BLOCK_START
M73 P0 R19
;TYPE:Custom
G28 ; home all axis
G90 ; use absolute coordinates
M83 ; extruder relative mode
led_heating
;M140 S70 ; set final bed temp
M104 S150 ; set temporary nozzle temp to prevent oozing during homing
G4 S10 ; allow partial nozzle warmup
M190 S70 ; wait for bed temp to stabilize
BED_MESH_CALIBRATE

G1 Z50 F240
G1 X2 Y10 F3000
M73 P1 R18
M104 S225 ; set final nozzle temp
;M190 S70 ; wait for bed temp to stabilize
M109 S225 ; wait for nozzle temp to stabilize
led_printing
M73 P1 R18
G1 Z0.28 F240
LINE_PURGE
G92 E0
G90
G21
M83 ; use relative distances for extrusion
; filament start gcode
SET_PRESSURE_ADVANCE ADVANCE=0.04; Override pressure advance value
M106 S0
;LAYER_CHANGE
;Z:0.3
;HEIGHT:0.3
;BEFORE_LAYER_CHANGE
;0.3
G92 E0

G1 E-1 F5100
M73 P2 R18
;_SET_FAN_SPEED_CHANGING_LAYER
SET_VELOCITY_LIMIT ACCEL=5000 ACCEL_TO_DECEL=2500
; printing object Body3.stl id:6077683972451217716 copy 0
M73 P2 R18
G1 Z.7 F9000
G1 X98.957 Y84.345
G1 Z.7
G1 Z.3
G1 E1 F3900
;TYPE:Brim
;WIDTH:0.5
G1 F1800
G1 X99.311 Y83.942 E.02856
G1 X100.361 Y82.893 E.07906
G1 X100.843 Y82.479 E.0338
G1 X101.372 Y82.149 E.03321
G1 X102.153 Y81.836 E.04484
G1 X102.857 Y81.683 E.03835
G1 X103.482 Y81.65 E.0333
G1 X104.105 Y81.711 E.03336
G1 X104.71 Y81.866 E.03324
G1 X105.439 Y82.193 E.04252
G1 X105.963 Y82.537 E.03338
G1 X106.366 Y82.892 E.0286
G1 X114.379 Y90.905 E.60339
G1 X114.519 Y91.028 E.00995
G1 X114.69 Y91.121 E.01033
G1 X114.91 Y91.171 E.01202
G1 X115.106 Y91.161 E.01044
G1 X115.323 Y91.084 E.01227
G1 X115.555 Y90.905 E.01563
G1 X126.64 Y79.82 E.8347
G1 X127.121 Y79.406 E.0338
G1 X127.649 Y79.077 E.03315
G1 X128.523 Y78.737 E.04991
G1 X129.135 Y78.61 E.03327
G1 X129.76 Y78.577 E.03336
G1 X130.384 Y78.639 E.03336
G1 X130.989 Y78.794 E.03328
G1 X131.67 Y79.094 E.03962
G1 X132.242 Y79.465 E.03628
G1 X132.645 Y79.819 E.02856
G1 X133.694 Y80.869 E.07906
G1 X134.108 Y81.35 E.0338
G1 X134.438 Y81.88 E.03321
G1 X134.751 Y82.661 E.04483
G1 X134.904 Y83.365 E.03835
G1 X134.937 Y83.99 E.0333
G1 X134.876 Y84.613 E.03336
G1 X134.721 Y85.218 E.03324
G1 X134.394 Y85.946 E.04252
G1 X134.05 Y86.47 E.03338
G1 X133.695 Y86.874 E.0286
G1 X122.61 Y97.959 E.83477
G1 X122.51 Y98.069 E.00789
G1 X122.414 Y98.221 E.00959
G1 X122.346 Y98.449 E.01264
G1 X122.354 Y98.693 E.01299
G1 X122.41 Y98.864 E.00956
G1 X122.61 Y99.135 E.01797
G1 X130.622 Y107.148 E.60332
G1 X131.035 Y107.629 E.0338
G1 X131.365 Y108.157 E.03315
G1 X131.705 Y109.031 E.04991
G1 X131.832 Y109.643 E.03327
G1 X131.865 Y110.268 E.03336
G1 X131.803 Y110.892 E.03336
G1 X131.648 Y111.497 E.03328
G1 X131.348 Y112.178 E.03962
G1 X130.977 Y112.749 E.03628
G1 X130.623 Y113.152 E.02856
G1 X129.573 Y114.202 E.07906
G1 X129.091 Y114.616 E.0338
G1 X128.563 Y114.945 E.03315
G1 X127.69 Y115.285 E.04991
G1 X127.078 Y115.412 E.03327
G1 X126.452 Y115.445 E.03336
G1 X125.829 Y115.383 E.03336
G1 X125.223 Y115.229 E.03328
G1 X124.543 Y114.928 E.03962
G1 X123.971 Y114.557 E.03628
G1 X123.568 Y114.203 E.02856
G1 X117.216 Y107.851 E.47831
G1 X117.921 Y107.146 E.05311
G1 X117.985 Y107.049 E.00617
G1 X118.003 Y106.883 E.00888
G1 X117.977 Y106.79 E.00516
G1 X117.921 Y106.696 E.0058
G1 X116.861 Y105.636 E.07987
G1 X116.764 Y105.572 E.00617
G1 X116.598 Y105.554 E.00888
G1 X116.505 Y105.58 E.00516
G1 X116.411 Y105.636 E.0058
G1 X115.706 Y106.341 E.05311
G1 X99.312 Y89.947 E1.23448
G1 X98.899 Y89.466 E.0338
G1 X98.568 Y88.937 E.03321
G1 X98.255 Y88.155 E.04484
G1 X98.102 Y87.451 E.03835
G1 X98.069 Y86.827 E.0333
G1 X98.131 Y86.203 E.03336
G1 X98.286 Y85.598 E.03328
G1 X98.586 Y84.917 E.03962
G1 X98.935 Y84.379 E.03415
G1 X99.3 Y84.617 F9000
G1 F1800
G1 X99.632 Y84.238 E.02685
G1 X100.654 Y83.216 E.07695
G1 X101.11 Y82.826 E.03194
G1 X101.58 Y82.534 E.02947
G1 X102.271 Y82.258 E.03964
G1 X102.905 Y82.118 E.03455
G1 X103.482 Y82.087 E.03074
G1 X104.019 Y82.141 E.02878
G1 X104.555 Y82.276 E.02941
G1 X105.237 Y82.582 E.03981
G1 X105.69 Y82.879 E.02885
G1 X106.071 Y83.213 E.02693
G1 X114.224 Y91.348 E.61328
G1 X114.475 Y91.5 E.0156
G1 X114.8 Y91.593 E.018
G1 X115.122 Y91.596 E.01718
G1 X115.26 Y91.569 E.00745
G1 X115.458 Y91.499 E.01121
G1 X115.597 Y91.423 E.00843
G1 X115.868 Y91.207 E.01845
G1 X126.94 Y80.136 E.83368
G1 X127.388 Y79.753 E.03142
G1 X127.857 Y79.463 E.02933
G1 X128.658 Y79.154 E.04572
G1 X129.201 Y79.043 E.02951
G1 X129.76 Y79.015 E.02983
G1 X130.318 Y79.072 E.02983
G1 X130.856 Y79.211 E.02963
G1 X131.453 Y79.474 E.03471
G1 X131.97 Y79.808 E.03277
G1 X132.349 Y80.14 E.02685
G1 X133.371 Y81.162 E.07695
G1 X133.75 Y81.602 E.03089
G1 X134.053 Y82.088 E.03052
G1 X134.329 Y82.779 E.03963
G1 X134.469 Y83.413 E.03455
G1 X134.5 Y83.989 E.03074
G1 X134.443 Y84.547 E.02983
G1 X134.304 Y85.084 E.02955
G1 X134.005 Y85.745 E.03863
G1 X133.708 Y86.198 E.02886
G1 X133.38 Y86.572 E.02649
G1 X122.304 Y97.649 E.8341
G1 X122.194 Y97.768 E.00858
G1 X122.049 Y97.985 E.01391
G1 X121.932 Y98.315 E.01863
G1 X121.911 Y98.473 E.00852
G1 X121.918 Y98.692 E.01168
G1 X121.994 Y98.992 E.01648
G1 X122.065 Y99.129 E.0082
G1 X122.308 Y99.45 E.02143
G1 X130.305 Y107.448 E.60224
G1 X130.677 Y107.88 E.03037
G1 X130.967 Y108.343 E.02908
G1 X131.288 Y109.166 E.04701
G1 X131.399 Y109.708 E.02951
G1 X131.427 Y110.268 E.02983
G1 X131.374 Y110.806 E.02878
G1 X131.238 Y111.344 E.02954
G1 X130.957 Y111.979 E.03696
G1 X130.634 Y112.478 E.03167
G1 X130.308 Y112.851 E.0264
G1 X129.273 Y113.886 E.07792
G1 X128.824 Y114.269 E.03142
G1 X128.356 Y114.559 E.02933
G1 X127.576 Y114.862 E.04456
G1 X127.032 Y114.977 E.02961
G1 X126.472 Y115.008 E.02983
G1 X125.915 Y114.954 E.02983
G1 X125.356 Y114.811 E.03068
G1 X124.76 Y114.548 E.03471
G1 X124.227 Y114.203 E.03378
G1 X123.863 Y113.882 E.02584
G1 X117.925 Y107.944 E.44719
G1 X117.887 Y107.839 E.00594
G1 X117.925 Y107.759 E.0047
G1 X118.222 Y107.461 E.02242
G1 X118.342 Y107.297 E.01083
G1 X118.419 Y107.083 E.01211
G1 X118.435 Y106.945 E.00738
G1 X118.419 Y106.75 E.01039
G1 X118.298 Y106.479 E.01584
G1 X118.224 Y106.382 E.00647
G1 X117.176 Y105.335 E.07889
G1 X117.012 Y105.215 E.01083
G1 X116.798 Y105.138 E.01211
G1 X116.66 Y105.122 E.00738
G1 X116.47 Y105.138 E.01013
G1 X116.197 Y105.256 E.01585
G1 X115.798 Y105.633 E.0292
G1 X115.693 Y105.67 E.00594
G1 X115.614 Y105.633 E.0047
G1 X99.635 Y89.654 E1.20318
G1 X99.257 Y89.215 E.03089
M73 P3 R18
M73 P3 R18
G1 X98.964 Y88.749 E.0293
G1 X98.677 Y88.037 E.04086
G1 X98.535 Y87.383 E.03566
G1 X98.507 Y86.827 E.02963
G1 X98.56 Y86.289 E.02878
G1 X98.703 Y85.731 E.03068
G1 X98.967 Y85.134 E.03471
G1 X99.278 Y84.651 E.03064
G1 X99.644 Y84.888 F9000
G1 F1800
G1 X99.954 Y84.532 E.02511
G1 X100.946 Y83.539 E.07477
G1 X101.376 Y83.173 E.03006
G1 X101.788 Y82.92 E.02573
G1 X102.39 Y82.679 E.03453
G1 X102.953 Y82.553 E.03073
G1 X103.481 Y82.525 E.02816
G1 X103.954 Y82.573 E.02527
G1 X104.4 Y82.686 E.02454
G1 X105.036 Y82.971 E.03708
G1 X105.433 Y83.233 E.02531
G1 X105.776 Y83.534 E.02432
G1 X113.907 Y91.647 E.6116
G1 X114.244 Y91.869 E.0215
G1 X114.671 Y92.009 E.02393
G1 X114.804 Y92.028 E.00717
G1 X115.108 Y92.031 E.01616
G1 X115.339 Y91.997 E.01244
G1 X115.596 Y91.912 E.01443
G1 X115.798 Y91.809 E.01203
G1 X116.182 Y91.51 E.02595
G1 X127.24 Y80.453 E.83261
G1 X127.638 Y80.113 E.02792
G1 X128.063 Y79.851 E.02656
G1 X128.791 Y79.571 E.04155
G1 X129.265 Y79.476 E.02574
G1 X129.759 Y79.452 E.0263
G1 X130.25 Y79.504 E.0263
G1 X130.722 Y79.628 E.02601
G1 X131.236 Y79.855 E.02989
G1 X131.699 Y80.152 E.02928
G1 X132.055 Y80.461 E.02511
G1 X133.048 Y81.455 E.07481
G1 X133.391 Y81.853 E.02797
G1 X133.667 Y82.297 E.02783
G1 X133.908 Y82.898 E.03449
G1 X134.034 Y83.461 E.03073
G1 X134.062 Y83.989 E.02814
G1 X134.01 Y84.479 E.02625
G1 X133.887 Y84.949 E.02586
G1 X133.617 Y85.543 E.03477
G1 X133.365 Y85.926 E.02441
G1 X133.059 Y86.278 E.02482
G1 X121.982 Y97.355 E.83412
G1 X121.83 Y97.53 E.01231
G1 X121.634 Y97.852 E.02012
G1 X121.525 Y98.159 E.01733
G1 X121.48 Y98.411 E.01364
G1 X121.483 Y98.695 E.01513
G1 X121.57 Y99.09 E.02152
G1 X121.674 Y99.322 E.01354
G1 X121.956 Y99.707 E.02542
G1 X129.982 Y107.741 E.60464
G1 X130.319 Y108.132 E.0275
G1 X130.57 Y108.529 E.02501
G1 X130.871 Y109.3 E.04407
G1 X130.966 Y109.773 E.0257
G1 X130.99 Y110.248 E.02529
G1 X130.944 Y110.721 E.02531
G1 X130.827 Y111.191 E.02578
G1 X130.567 Y111.78 E.03428
G1 X130.29 Y112.207 E.02709
G1 X129.992 Y112.55 E.02422
G1 X128.973 Y113.569 E.07674
G1 X128.574 Y113.91 E.02792
G1 X128.149 Y114.172 E.02658
G1 X127.461 Y114.44 E.03933
G1 X126.984 Y114.542 E.02598
G1 X126.491 Y114.571 E.0263
G1 X126 Y114.525 E.02625
G1 X125.489 Y114.394 E.02807
G1 X124.977 Y114.167 E.02981
G1 X124.499 Y113.86 E.03026
G1 X124.165 Y113.567 E.02368
G1 X118.54 Y107.943 E.42354
G1 X118.502 Y107.838 E.00594
G1 X118.528 Y107.771 E.00381
G1 X118.689 Y107.56 E.01414
G1 X118.754 Y107.438 E.00735
G1 X118.853 Y107.122 E.01763
G1 X118.868 Y106.899 E.01192
G1 X118.854 Y106.725 E.00928
G1 X118.812 Y106.564 E.00885
G1 X118.701 Y106.313 E.01464
G1 X118.57 Y106.119 E.01244
G1 X117.49 Y105.033 E.08157
G1 X117.275 Y104.868 E.01444
G1 X117.153 Y104.803 E.00734
G1 X116.837 Y104.704 E.01763
G1 X116.614 Y104.689 E.01192
G1 X116.445 Y104.703 E.00903
G1 X116.288 Y104.742 E.00861
G1 X116.035 Y104.852 E.01467
G1 X115.804 Y105.028 E.01544
G1 X115.698 Y105.063 E.00594
G1 X115.622 Y105.025 E.00451
G1 X99.958 Y89.361 E1.17951
G1 X99.615 Y88.963 E.02802
G1 X99.36 Y88.559 E.0254
G1 X99.099 Y87.919 E.03685
G1 X98.968 Y87.314 E.03293
G1 X98.944 Y86.847 E.0249
G1 X98.99 Y86.375 E.02527
G1 X99.121 Y85.864 E.02809
G1 X99.347 Y85.351 E.02985
G1 X99.622 Y84.922 E.02715
G1 X99.989 Y85.158 F9000
G1 F1800
G1 X100 Y85.143 E.001
G1 X100.275 Y84.827 E.02234
G1 X101.239 Y83.863 E.07253
G1 X101.642 Y83.521 E.02814
G1 X101.995 Y83.307 E.022
G1 X102.51 Y83.101 E.02954
G1 X103.002 Y82.989 E.02689
G1 X103.481 Y82.963 E.02553
G1 X103.887 Y83.006 E.02173
G1 X104.267 Y83.104 E.02092
G1 X104.834 Y83.36 E.03313
G1 X105.175 Y83.586 E.02174
G1 X105.481 Y83.855 E.02174
G1 X113.591 Y91.947 E.60999
G1 X113.999 Y92.229 E.0264
G1 X114.117 Y92.286 E.00696
G1 X114.525 Y92.42 E.0229
G1 X114.81 Y92.464 E.01534
G1 X115.095 Y92.467 E.01517
G1 X115.395 Y92.428 E.01614
G1 X115.726 Y92.327 E.01842
G1 X115.985 Y92.202 E.01532
G1 X116.496 Y91.812 E.03424
G1 X127.54 Y80.77 E.83152
G1 X127.888 Y80.472 E.02441
G1 X128.268 Y80.239 E.02377
G1 X128.924 Y79.989 E.03737
G1 X129.329 Y79.909 E.02196
G1 X129.756 Y79.89 E.02278
G1 X130.181 Y79.936 E.02276
G1 X130.588 Y80.045 E.02241
G1 X131.02 Y80.236 E.02517
G1 X131.429 Y80.496 E.0258
G1 X131.76 Y80.783 E.02335
G1 X132.725 Y81.748 E.07265
G1 X133.044 Y82.12 E.0261
G1 X133.281 Y82.505 E.02406
G1 X133.486 Y83.017 E.02941
G1 X133.601 Y83.531 E.02805
G1 X133.624 Y83.988 E.02433
G1 X133.578 Y84.41 E.02261
G1 X133.47 Y84.812 E.02216
G1 X133.238 Y85.323 E.02988
G1 X133.011 Y85.669 E.02204
G1 X132.737 Y85.984 E.02222
G1 X121.678 Y97.043 E.83278
G1 X121.453 Y97.311 E.01862
G1 X121.268 Y97.615 E.01897
G1 X121.117 Y98.006 E.02232
G1 X121.054 Y98.325 E.0173
G1 X121.06 Y98.801 E.02533
G1 X121.177 Y99.278 E.02614
G1 X121.33 Y99.589 E.01845
G1 X121.599 Y99.956 E.02428
G1 X129.659 Y108.034 E.60757
G1 X129.962 Y108.385 E.02468
G1 X130.173 Y108.716 E.02091
G1 X130.447 Y109.413 E.03987
G1 X130.531 Y109.818 E.02203
G1 X130.553 Y110.228 E.02188
G1 X130.515 Y110.637 E.02187
G1 X130.416 Y111.038 E.02199
G1 X130.177 Y111.581 E.03158
G1 X129.947 Y111.936 E.02256
G1 X129.676 Y112.249 E.02202
G1 X128.673 Y113.252 E.07553
G1 X128.324 Y113.55 E.02441
G1 X127.965 Y113.774 E.02257
G1 X127.345 Y114.017 E.03542
G1 X126.935 Y114.107 E.02236
G1 X126.508 Y114.133 E.02276
G1 X126.085 Y114.095 E.02263
G1 X125.643 Y113.983 E.02429
G1 X125.194 Y113.787 E.02611
G1 X124.77 Y113.516 E.02677
G1 X124.466 Y113.252 E.02147
G1 X119.109 Y107.896 E.40335
G1 X119.083 Y107.747 E.00802
G1 X119.172 Y107.561 E.01096
G1 X119.288 Y107.14 E.02325
G1 X119.301 Y106.858 E.01506
G1 X119.253 Y106.524 E.01793
G1 X119.285 Y106.418 E.00594
G1 X119.388 Y106.375 E.00594
G1 X119.474 Y106.413 E.00502
G1 X125.402 Y112.34 E.44632
G1 X125.732 Y112.59 E.02205
G1 X126.097 Y112.747 E.02116
G1 X126.407 Y112.808 E.01684
G1 X126.891 Y112.78 E.02583
G1 X127.131 Y112.717 E.0132
G1 X127.484 Y112.539 E.02106
G1 X127.742 Y112.337 E.01742
G1 X128.902 Y111.143 E.08863
G1 X128.979 Y111.039 E.00689
G1 X129.1 Y110.808 E.01393
G1 X129.19 Y110.534 E.01532
G1 X129.228 Y110.315 E.01184
G1 X129.223 Y109.951 E.01939
G1 X129.11 Y109.526 E.02339
G1 X128.982 Y109.275 E.01503
G1 X128.758 Y108.98 E.01973
G1 X120.755 Y100.977 E.60259
G1 X120.449 Y100.631 E.02463
G1 X120.104 Y100.099 E.03374
G1 X119.86 Y99.492 E.03488
G1 X119.809 Y99.29 E.01108
G1 X119.742 Y98.856 E.02335
G1 X119.728 Y98.434 E.02249
G1 X119.766 Y98.027 E.02179
G1 X119.858 Y97.62 E.0222
G1 X120.009 Y97.2 E.02379
G1 X120.212 Y96.808 E.02348
G1 X120.558 Y96.329 E.03149
G1 X131.873 Y84.987 E.85305
G1 X132.023 Y84.805 E.01257
G1 X132.137 Y84.611 E.01193
G1 X132.238 Y84.348 E.01501
G1 X132.306 Y83.914 E.02342
G1 X132.304 Y83.782 E.00701
G1 X132.262 Y83.49 E.01572
G1 X132.178 Y83.232 E.01445
G1 X131.895 Y82.779 E.02842
G1 X130.86 Y81.736 E.07823
G1 X130.567 Y81.5 E.02007
G1 X130.156 Y81.3 E.02436
G1 X129.764 Y81.219 E.02127
G1 X129.377 Y81.229 E.02063
G1 X129.153 Y81.28 E.01224
G1 X128.998 Y81.337 E.0088
G1 X128.768 Y81.459 E.01382
G1 X128.473 Y81.683 E.01976
G1 X117.215 Y92.928 E.84722
G1 X116.838 Y93.219 E.02534
G1 X116.332 Y93.5 E.03085
G1 X115.91 Y93.651 E.02384
G1 X115.292 Y93.773 E.03358
G1 X114.812 Y93.785 E.02557
G1 X114.21 Y93.7 E.03236
G1 X113.81 Y93.581 E.02223
G1 X113.43 Y93.418 E.022
G1 X112.883 Y93.065 E.03467
G1 X112.537 Y92.759 E.02462
G1 X104.485 Y84.72 E.60582
G1 X104.148 Y84.472 E.02231
G1 X103.941 Y84.38 E.01206
G1 X103.697 Y84.312 E.01346
G1 X103.381 Y84.279 E.01695
G1 X103.036 Y84.313 E.01844
G1 X102.629 Y84.455 E.02297
G1 X102.264 Y84.7 E.02339
G1 X101.034 Y85.95 E.09338
G1 X100.955 Y86.056 E.00705
M73 P4 R18
M73 P4 R18
G1 X100.833 Y86.289 E.014
G1 X100.768 Y86.468 E.01011
G1 X100.706 Y86.782 E.01705
G1 X100.701 Y86.911 E.0069
G1 X100.734 Y87.266 E.01898
G1 X100.797 Y87.506 E.0132
G1 X100.976 Y87.86 E.02114
G1 X101.133 Y88.067 E.01381
G1 X117.148 Y104.087 E1.20618
G1 X117.186 Y104.192 E.00594
G1 X117.129 Y104.288 E.00594
G1 X117.028 Y104.307 E.00549
G1 X116.857 Y104.269 E.0093
G1 X116.652 Y104.255 E.01096
G1 X116.417 Y104.269 E.01252
G1 X116.106 Y104.347 E.01705
G1 X115.814 Y104.48 E.01713
G1 X115.667 Y104.454 E.00794
G1 X100.275 Y89.061 E1.15909
G1 X99.972 Y88.71 E.02468
G1 X99.755 Y88.369 E.02152
G1 X99.521 Y87.8 E.03279
G1 X99.4 Y87.246 E.03017
G1 X99.382 Y86.848 E.02122
G1 X99.419 Y86.461 E.02071
G1 X99.538 Y85.997 E.02547
G1 X99.738 Y85.549 E.02611
G1 X99.968 Y85.192 E.02263
G1 X100.334 Y85.43 F9000
G1 F1800
G1 X100.355 Y85.398 E.00202
G1 X100.597 Y85.121 E.0196
G1 X101.53 Y84.188 E.07027
G1 X101.906 Y83.871 E.02618
G1 X102.2 Y83.694 E.01827
G1 X102.63 Y83.522 E.02466
G1 X103.052 Y83.424 E.02305
G1 X103.48 Y83.401 E.02284
G1 X103.818 Y83.438 E.01812
G1 X104.132 Y83.521 E.01729
G1 X104.632 Y83.748 E.02921
G1 X104.916 Y83.938 E.01819
