; HEADER_BLOCK_START
; generated by OrcaSlicer 2.2.0 on 2025-02-23 at 13:27:02
; total layer number: 90
; filament_density: 1.27
; filament_diameter: 1.75
; max_z_height: 27.00
; HEADER_BLOCK_END

; THUMBNAIL_BLOCK_START

;
; THUMBNAIL_BLOCK_END

; THUMBNAIL_BLOCK_START

;
; THUMBNAIL_BLOCK_END

; external perimeters extrusion width = 0.50mm
; perimeters extrusion width = 0.50mm
; infill extrusion width = 0.50mm
; solid infill extrusion width = 0.50mm
; top infill extrusion width = 0.50mm
; first layer extrusion width = 0.50mm

; EXECUTABLE_BLOCK_START


; Pre-Processed for Cancel-Object support by preprocess_cancellation v0.2.0
; 1 known objects
EXCLUDE_OBJECT_DEFINE NAME=Body1_stl_id_7811887588677804288_copy_0 CENTER=110.143,100.712 POLYGON=[[88.603,93.262],[88.603,125.497],[131.397,125.497],[131.397,93.262]]
M73 P0 R14
;TYPE:Custom
G28 ; home all axis
G90 ; use absolute coordinates
M83 ; extruder relative mode
led_heating
;M140 S80 ; set final bed temp
M104 S150 ; set temporary nozzle temp to prevent oozing during homing
G4 S10 ; allow partial nozzle warmup
M190 S80 ; wait for bed temp to stabilize
BED_MESH_CALIBRATE

G1 Z50 F240
G1 X2 Y10 F3000
M73 P1 R13
M104 S260 ; set final nozzle temp
;M190 S80 ; wait for bed temp to stabilize
M109 S260 ; wait for nozzle temp to stabilize
led_printing
M73 P1 R13
G1 Z0.28 F240
LINE_PURGE
G92 E0
G90
G21
M83 ; use relative distances for extrusion
; filament start gcode
SET_PRESSURE_ADVANCE ADVANCE=0.04; Override pressure advance value
M106 S0
;LAYER_CHANGE
;Z:0.3
;HEIGHT:0.3
;BEFORE_LAYER_CHANGE
;0.3
G92 E0

;_SET_FAN_SPEED_CHANGING_LAYER
SET_VELOCITY_LIMIT ACCEL=5000 ACCEL_TO_DECEL=2500
; printing object Body1.stl id:7811887588677804288 copy 0
EXCLUDE_OBJECT_START NAME=Body1_stl_id_7811887588677804288_copy_0
G1 E-1 F5100
M73 P2 R13
M73 P2 R13
G1 Z.7 F9000
G1 X89.93 Y94.423
G1 Z.7
M73 P3 R13
M73 P3 R13
G1 Z.3
G1 E1 F3900
;TYPE:Brim
;WIDTH:0.5
G1 F1800
G1 X90.415 Y94.026 E.03234
G1 X90.952 Y93.707 E.03226
G1 X91.646 Y93.438 E.03841
G1 X92.313 Y93.296 E.03517
G1 X92.848 Y93.262 E.02769
G1 X127.151 Y93.262 E1.77059
G1 X127.784 Y93.31 E.03276
G1 X128.391 Y93.45 E.03219
G1 X129.166 Y93.781 E.04346
G1 X129.771 Y94.171 E.03718
G1 X130.236 Y94.589 E.03228
G1 X130.633 Y95.074 E.03234
G1 X130.952 Y95.611 E.03226
G1 X131.221 Y96.305 E.03841
G1 X131.363 Y96.972 E.03517
G1 X131.397 Y97.507 E.02769
G1 X131.397 Y98.992 E.07664
G1 X131.349 Y99.625 E.03276
G1 X131.209 Y100.232 E.03219
G1 X130.878 Y101.006 E.04346
G1 X130.488 Y101.612 E.03718
G1 X130.07 Y102.077 E.03228
G1 X129.585 Y102.474 E.03234
G1 X129.048 Y102.793 E.03226
G1 X128.354 Y103.062 E.03841
G1 X127.687 Y103.204 E.03517
G1 X127.152 Y103.238 E.02769
G1 X115.809 Y103.239 E.58547
G1 X115.672 Y103.245 E.0071
G1 X115.496 Y103.285 E.00929
G1 X115.327 Y103.371 E.00981
G1 X115.184 Y103.496 E.00981
G1 X115.042 Y103.732 E.01421
G1 X114.988 Y104.07 E.01766
G1 X114.988 Y121.251 E.88681
G1 X114.94 Y121.884 E.03276
G1 X114.8 Y122.491 E.03219
G1 X114.469 Y123.266 E.04346
G1 X114.079 Y123.871 E.03718
G1 X113.661 Y124.336 E.03228
G1 X113.176 Y124.733 E.03234
G1 X112.639 Y125.052 E.03226
G1 X111.945 Y125.321 E.03841
G1 X111.278 Y125.463 E.03517
G1 X110.743 Y125.497 E.02769
G1 X109.258 Y125.497 E.07664
G1 X108.625 Y125.449 E.03276
G1 X108.018 Y125.309 E.03219
G1 X107.244 Y124.978 E.04346
G1 X106.638 Y124.588 E.03718
G1 X106.173 Y124.17 E.03228
G1 X105.776 Y123.685 E.03234
G1 X105.457 Y123.148 E.03226
G1 X105.188 Y122.454 E.03841
G1 X105.046 Y121.787 E.03517
G1 X105.012 Y121.252 E.02769
G1 X105.012 Y104.07 E.88689
G1 X104.954 Y103.723 E.01812
G1 X104.816 Y103.495 E.01377
G1 X104.714 Y103.4 E.00721
G1 X104.554 Y103.305 E.00959
G1 X104.372 Y103.252 E.00978
G1 X104.19 Y103.239 E.00941
G1 X92.849 Y103.238 E.58538
G1 X92.216 Y103.19 E.03276
G1 X91.61 Y103.05 E.03214
G1 X90.752 Y102.673 E.04838
G1 X90.229 Y102.33 E.03225
G1 X89.764 Y101.911 E.03234
G1 X89.367 Y101.426 E.03234
G1 X89.048 Y100.889 E.03226
G1 X88.779 Y100.195 E.03841
G1 X88.637 Y99.528 E.03517
G1 X88.603 Y98.993 E.02769
G1 X88.603 Y97.508 E.07664
G1 X88.651 Y96.875 E.03276
G1 X88.791 Y96.269 E.03214
G1 X89.168 Y95.411 E.04838
G1 X89.511 Y94.888 E.03225
G1 X89.903 Y94.453 E.03027
G1 X90.225 Y94.746 F9000
G1 F1800
G1 X90.674 Y94.378 E.02993
G1 X91.153 Y94.096 E.02873
G1 X91.761 Y93.861 E.03365
G1 X92.363 Y93.731 E.03177
G1 X92.866 Y93.697 E.02602
G1 X127.139 Y93.698 E1.76905
G1 X127.727 Y93.744 E.03045
G1 X128.266 Y93.87 E.02857
G1 X128.951 Y94.163 E.03842
G1 X129.497 Y94.513 E.03349
G1 X129.927 Y94.899 E.0298
G1 X130.281 Y95.333 E.02892
G1 X130.563 Y95.813 E.02873
G1 X130.804 Y96.44 E.03472
G1 X130.928 Y97.022 E.0307
G1 X130.962 Y97.517 E.02559
G1 X130.962 Y98.97 E.07502
G1 X130.918 Y99.549 E.02995
G1 X130.796 Y100.085 E.0284
G1 X130.496 Y100.792 E.03961
G1 X130.146 Y101.338 E.03349
G1 X129.775 Y101.754 E.02878
G1 X129.342 Y102.11 E.02892
G1 X128.847 Y102.404 E.02975
G1 X128.239 Y102.639 E.03365
G1 X127.637 Y102.769 E.03177
G1 X127.142 Y102.802 E.02559
G1 X115.658 Y102.81 E.59278
G1 X115.297 Y102.899 E.0192
G1 X115.03 Y103.051 E.01585
G1 X114.905 Y103.161 E.00861
G1 X114.804 Y103.281 E.00809
G1 X114.675 Y103.498 E.01303
G1 X114.611 Y103.675 E.00968
G1 X114.553 Y104.079 E.0211
G1 X114.553 Y121.229 E.88522
G1 X114.506 Y121.827 E.03097
G1 X114.38 Y122.366 E.02857
G1 X114.087 Y123.051 E.03842
G1 X113.737 Y123.597 E.03349
G1 X113.366 Y124.013 E.02878
G1 X112.933 Y124.369 E.02892
G1 X112.437 Y124.663 E.02975
G1 X111.829 Y124.898 E.03365
G1 X111.228 Y125.028 E.03177
G1 X110.725 Y125.062 E.02603
G1 X109.28 Y125.062 E.07459
G1 X108.701 Y125.018 E.02995
G1 X108.143 Y124.889 E.02959
M73 P4 R13
M73 P4 R13
G1 X107.458 Y124.596 E.03842
G1 X106.895 Y124.234 E.03457
G1 X106.482 Y123.86 E.02872
G1 X106.14 Y123.442 E.0279
G1 X105.846 Y122.947 E.02975
G1 X105.605 Y122.319 E.03472
G1 X105.481 Y121.737 E.0307
G1 X105.447 Y121.234 E.02602
G1 X105.447 Y104.079 E.88546
G1 X105.386 Y103.664 E.02169
G1 X105.32 Y103.487 E.00975
G1 X105.108 Y103.173 E.01954
G1 X104.93 Y103.023 E.01205
G1 X104.667 Y102.885 E.01529
G1 X104.392 Y102.816 E.01462
G1 X104.186 Y102.803 E.01068
G1 X92.871 Y102.803 E.58405
G1 X92.273 Y102.756 E.03097
G1 X91.736 Y102.63 E.02843
G1 X90.97 Y102.293 E.0432
G1 X90.504 Y101.989 E.02871
G1 X90.087 Y101.616 E.02892
G1 X89.731 Y101.183 E.02892
G1 X89.437 Y100.687 E.02975
G1 X89.202 Y100.079 E.03365
G1 X89.072 Y99.478 E.03177
G1 X89.038 Y98.975 E.02602
G1 X89.038 Y97.53 E.07459
G1 X89.082 Y96.951 E.02995
G1 X89.211 Y96.396 E.02945
G1 X89.558 Y95.61 E.04432
G1 X89.864 Y95.148 E.0286
G1 X90.198 Y94.776 E.02583
G1 X90.52 Y95.069 F9000
G1 F1800
G1 X90.933 Y94.732 E.02751
G1 X91.354 Y94.486 E.02517
G1 X91.877 Y94.283 E.02898
G1 X92.433 Y94.163 E.02937
G1 X92.885 Y94.133 E.02336
G1 X127.117 Y94.133 E1.76694
G1 X127.65 Y94.175 E.0276
G1 X128.14 Y94.29 E.02598
G1 X128.736 Y94.545 E.03347
G1 X129.224 Y94.855 E.02979
G1 X129.603 Y95.193 E.02624
G1 X129.927 Y95.591 E.02649
G1 X130.173 Y96.013 E.02519
G1 X130.388 Y96.575 E.03107
G1 X130.494 Y97.073 E.0263
G1 X130.526 Y97.527 E.02348
G1 X130.526 Y98.949 E.07339
G1 X130.487 Y99.474 E.02716
G1 X130.382 Y99.939 E.02462
G1 X130.113 Y100.578 E.03575
G1 X129.804 Y101.065 E.02981
G1 X129.479 Y101.431 E.02528
G1 X129.099 Y101.746 E.02545
G1 X128.646 Y102.014 E.02721
G1 X128.123 Y102.217 E.02894
G1 X127.585 Y102.335 E.02839
G1 X127.132 Y102.367 E.02347
G1 X115.671 Y102.374 E.59155
G1 X115.2 Y102.474 E.02488
G1 X115.072 Y102.525 E.00709
G1 X114.824 Y102.667 E.01474
G1 X114.565 Y102.889 E.01763
G1 X114.426 Y103.065 E.01158
G1 X114.307 Y103.264 E.01194
G1 X114.178 Y103.625 E.0198
G1 X114.117 Y104.088 E.02409
G1 X114.117 Y121.207 E.88364
G1 X114.075 Y121.75 E.02811
G1 X113.96 Y122.24 E.02598
G1 X113.705 Y122.836 E.03347
G1 X113.395 Y123.324 E.02983
G1 X113.07 Y123.69 E.02528
G1 X112.674 Y124.017 E.02649
G1 X112.236 Y124.274 E.02617
G1 X111.694 Y124.482 E.02999
G1 X111.158 Y124.596 E.02831
G1 X110.706 Y124.626 E.02336
G1 X109.301 Y124.626 E.07252
G1 X108.777 Y124.587 E.02711
G1 X108.268 Y124.468 E.02698
G1 X107.673 Y124.214 E.0334
G1 X107.153 Y123.879 E.03194
G1 X106.806 Y123.566 E.02413
G1 X106.504 Y123.2 E.02449
G1 X106.236 Y122.746 E.02721
G1 X106.022 Y122.184 E.03103
G1 X105.915 Y121.686 E.02629
G1 X105.883 Y121.215 E.02436
G1 X105.883 Y104.09 E.88395
G1 X105.79 Y103.503 E.03064
G1 X105.674 Y103.232 E.01522
G1 X105.474 Y102.936 E.01844
G1 X105.22 Y102.697 E.01802
G1 X104.879 Y102.505 E.0202
G1 X104.505 Y102.396 E.02009
G1 X104.217 Y102.369 E.01495
G1 X92.893 Y102.367 E.5845
G1 X92.33 Y102.322 E.02914
G1 X91.864 Y102.21 E.02472
G1 X91.188 Y101.913 E.03812
G1 X90.779 Y101.648 E.02518
G1 X90.41 Y101.32 E.02549
G1 X90.083 Y100.924 E.02649
G1 X89.826 Y100.486 E.02617
G1 X89.618 Y99.944 E.02999
G1 X89.504 Y99.408 E.02831
G1 X89.474 Y98.956 E.02336
G1 X89.474 Y97.551 E.07252
G1 X89.513 Y97.027 E.02711
G1 X89.631 Y96.523 E.02674
G1 X89.948 Y95.811 E.04024
G1 X90.204 Y95.423 E.02397
G1 X90.494 Y95.099 E.02243
G1 X90.816 Y95.393 F9000
G1 F1800
G1 X91.191 Y95.085 E.02503
G1 X91.553 Y94.876 E.0216
G1 X91.993 Y94.705 E.02437
G1 X92.504 Y94.595 E.02696
G1 X92.904 Y94.568 E.02068
G1 X127.095 Y94.569 E1.76484
G1 X127.573 Y94.606 E.02473
G1 X128.014 Y94.71 E.02339
G1 X128.523 Y94.928 E.02859
G1 X128.951 Y95.198 E.02612
G1 X129.293 Y95.503 E.02369
G1 X129.573 Y95.849 E.02294
G1 X129.783 Y96.211 E.02161
G1 X129.971 Y96.709 E.02745
G1 X130.06 Y97.125 E.02199
G1 X130.09 Y97.538 E.02136
G1 X130.091 Y98.928 E.07175
G1 X130.056 Y99.4 E.02442
G1 X129.968 Y99.794 E.02086
G1 X129.73 Y100.365 E.0319
G1 X129.461 Y100.793 E.02613
G1 X129.167 Y101.124 E.0228
G1 X128.839 Y101.394 E.02196
G1 X128.445 Y101.625 E.02359
G1 X128.006 Y101.795 E.02428
G1 X127.533 Y101.9 E.02504
G1 X127.121 Y101.931 E.0213
G1 X115.569 Y101.951 E.59628
G1 X115.03 Y102.073 E.02851
G1 X114.849 Y102.151 E.01017
G1 X114.619 Y102.283 E.01372
G1 X114.215 Y102.629 E.02742
G1 X114.048 Y102.848 E.01424
G1 X113.939 Y103.031 E.01097
G1 X113.772 Y103.467 E.02411
G1 X113.682 Y104.097 E.03285
G1 X113.682 Y121.186 E.88204
G1 X113.644 Y121.673 E.02523
M73 P5 R13
M73 P5 R13
G1 X113.54 Y122.114 E.02338
G1 X113.322 Y122.623 E.02858
G1 X113.052 Y123.052 E.02619
G1 X112.773 Y123.368 E.02173
G1 X112.431 Y123.652 E.02294
G1 X112.037 Y123.884 E.02362
G1 X111.56 Y124.065 E.02635
G1 X111.088 Y124.165 E.02487
G1 X110.687 Y124.191 E.02073
G1 X109.322 Y124.191 E.07047
G1 X108.853 Y124.156 E.02426
G1 X108.394 Y124.048 E.02436
G1 X107.888 Y123.832 E.02839
G1 X107.41 Y123.525 E.02932
G1 X107.116 Y123.257 E.02057
G1 X106.868 Y122.957 E.02008
G1 X106.626 Y122.546 E.02463
G1 X106.438 Y122.051 E.02732
G1 X106.35 Y121.634 E.02196
G1 X106.318 Y121.196 E.0227
G1 X106.318 Y104.099 E.88245
G1 X106.222 Y103.443 E.03425
G1 X106.188 Y103.326 E.00628
G1 X106.029 Y102.979 E.01968
G1 X105.842 Y102.703 E.01723
G1 X105.526 Y102.388 E.023
G1 X105.103 Y102.131 E.02557
G1 X104.635 Y101.98 E.02537
G1 X104.262 Y101.936 E.01937
G1 X92.915 Y101.932 E.5857
G1 X92.389 Y101.888 E.02727
G1 X91.993 Y101.791 E.02102
G1 X91.405 Y101.532 E.03317
G1 X91.036 Y101.294 E.0227
G1 X90.718 Y101.009 E.02203
G1 X90.436 Y100.664 E.02297
G1 X90.216 Y100.287 E.02255
G1 X90.035 Y99.81 E.02635
G1 X89.935 Y99.338 E.02487
G1 X89.909 Y98.937 E.02072
G1 X89.909 Y97.572 E.07047
G1 X89.944 Y97.104 E.02424
G1 X90.051 Y96.651 E.02401
G1 X90.327 Y96.031 E.03505
G1 X90.545 Y95.698 E.02053
G1 X90.789 Y95.422 E.01901
G1 X91.112 Y95.715 F9000
G1 F1800
G1 X91.449 Y95.439 E.02249
G1 X91.751 Y95.266 E.018
G1 X92.109 Y95.127 E.01981
G1 X92.574 Y95.027 E.02455
G1 X92.922 Y95.004 E.018
G1 X127.073 Y95.004 E1.76277
G1 X127.495 Y95.037 E.02184
G1 X127.887 Y95.13 E.02079
G1 X128.31 Y95.311 E.02376
G1 X128.696 Y95.554 E.02354
G1 X128.984 Y95.813 E.01997
G1 X129.207 Y96.088 E.01828
G1 X129.382 Y96.389 E.01799
G1 X129.548 Y96.823 E.02394
G1 X129.625 Y97.178 E.01878
G1 X129.654 Y97.559 E.0197
G1 X129.655 Y98.907 E.06961
G1 X129.624 Y99.327 E.02172
G1 X129.547 Y99.673 E.01831
G1 X129.347 Y100.153 E.02687
G1 X129.104 Y100.539 E.02351
G1 X128.871 Y100.801 E.01811
G1 X128.597 Y101.029 E.0184
G1 X128.264 Y101.226 E.01998
G1 X127.87 Y101.379 E.02181
G1 X127.478 Y101.466 E.0207
G1 X127.1 Y101.495 E.01958
G1 X115.575 Y101.515 E.59486
G1 X114.849 Y101.677 E.03841
G1 X114.413 Y101.899 E.02525
G1 X113.861 Y102.376 E.03766
G1 X113.706 Y102.579 E.0132
G1 X113.57 Y102.8 E.01336
G1 X113.34 Y103.412 E.03376
G1 X113.246 Y104.106 E.03616
G1 X113.246 Y121.164 E.88047
G1 X113.213 Y121.596 E.02234
G1 X113.12 Y121.987 E.02078
G1 X112.939 Y122.41 E.02376
G1 X112.707 Y122.782 E.0226
G1 X112.476 Y123.047 E.01818
G1 X112.171 Y123.3 E.02042
G1 X111.837 Y123.493 E.01992
G1 X111.426 Y123.648 E.02266
G1 X111.019 Y123.732 E.02146
G1 X110.669 Y123.755 E.01813
G1 X109.343 Y123.755 E.06844
G1 X108.93 Y123.725 E.02139
G1 X108.52 Y123.628 E.02174
G1 X108.103 Y123.45 E.02339
G1 X107.669 Y123.171 E.02666
G1 X107.439 Y122.962 E.01603
G1 X107.233 Y122.714 E.01666
G1 X107.016 Y122.346 E.02203
G1 X106.855 Y121.918 E.02361
G1 X106.781 Y121.564 E.01864
G1 X106.754 Y121.176 E.02011
G1 X106.754 Y104.108 E.88095
G1 X106.653 Y103.386 E.03766
G1 X106.608 Y103.213 E.0092
G1 X106.384 Y102.728 E.02758
G1 X106.143 Y102.388 E.02153
G1 X105.74 Y102.009 E.02854
G1 X105.34 Y101.766 E.02415
G1 X104.778 Y101.569 E.03077
G1 X104.321 Y101.504 E.02382
G1 X92.938 Y101.496 E.58752
G1 X92.449 Y101.454 E.02536
G1 X92.124 Y101.373 E.01731
G1 X91.622 Y101.152 E.02829
G1 X91.31 Y100.952 E.01914
G1 X91.027 Y100.699 E.01956
G1 X90.79 Y100.406 E.01945
G1 X90.607 Y100.088 E.01894
G1 X90.452 Y99.676 E.02272
G1 X90.368 Y99.269 E.02146
G1 X90.345 Y98.919 E.01813
G1 X90.345 Y97.593 E.06844
G1 X90.375 Y97.181 E.02134
G1 X90.47 Y96.78 E.02127
G1 X90.706 Y96.249 E.02996
G1 X90.886 Y95.971 E.0171
G1 X91.085 Y95.745 E.01553
G1 X91.397 Y96.066 F9000
G1 F1800
G1 X91.525 Y95.942 E.00919
G1 X91.842 Y95.721 E.01994
G1 X92.15 Y95.575 E.01759
G1 X92.421 Y95.495 E.01455
G1 X92.81 Y95.444 E.02025
G1 X127.289 Y95.453 E1.77971
G1 X127.557 Y95.494 E.01395
G1 X127.782 Y95.553 E.01201
G1 X128.298 Y95.808 E.02972
G1 X128.447 Y95.921 E.00967
G1 X128.759 Y96.233 E.02279
G1 X128.91 Y96.448 E.01353
G1 X129.015 Y96.638 E.01121
G1 X129.145 Y97.003 E.02001
G1 X129.206 Y97.399 E.02066
G1 X129.196 Y99.226 E.09434
G1 X129.124 Y99.562 E.01773
G1 X128.995 Y99.892 E.01828
G1 X128.826 Y100.167 E.01668
G1 X128.565 Y100.475 E.02082
G1 X128.414 Y100.607 E.01034
G1 X128.078 Y100.823 E.02064
G1 X127.772 Y100.953 E.01714
G1 X127.502 Y101.02 E.01435
G1 X127.126 Y101.06 E.01955
G1 X115.829 Y101.06 E.58309
G1 X115.385 Y101.088 E.02298
G1 X114.832 Y101.215 E.02929
G1 X114.331 Y101.431 E.02815
G1 X113.874 Y101.744 E.02861
G1 X113.482 Y102.141 E.02879
G1 X113.26 Y102.453 E.01974
G1 X113.016 Y102.936 E.02793
G1 X112.896 Y103.319 E.02071
G1 X112.82 Y103.852 E.02783
G1 X112.81 Y121.232 E.89709
G1 X112.773 Y121.576 E.01786
M73 P6 R13
M73 P6 R13
G1 X112.633 Y122.041 E.02505
G1 X112.43 Y122.41 E.02173
G1 X112.239 Y122.648 E.01574
G1 X112.021 Y122.854 E.01548
G1 X111.541 Y123.144 E.02896
G1 X111.147 Y123.267 E.02132
G1 X110.779 Y123.311 E.01913
G1 X109.024 Y123.296 E.09059
G1 X108.688 Y123.224 E.01773
G1 X108.358 Y123.094 E.0183
G1 X108.084 Y122.926 E.01657
G1 X107.748 Y122.631 E.02311
G1 X107.539 Y122.365 E.01746
G1 X107.361 Y122.037 E.0193
G1 X107.319 Y121.92 E.00641
G1 X107.196 Y121.308 E.03218
G1 X107.18 Y103.847 E.90127
G1 X107.135 Y103.466 E.01981
G1 X107.047 Y103.119 E.01849
G1 X106.811 Y102.571 E.03082
G1 X106.505 Y102.121 E.02805
G1 X106.238 Y101.843 E.0199
G1 X105.958 Y101.616 E.01863
G1 X105.526 Y101.358 E.02595
G1 X105.15 Y101.206 E.02094
G1 X104.596 Y101.087 E.02925
G1 X104.17 Y101.06 E.02202
G1 X92.882 Y101.06 E.58266
G1 X92.371 Y100.988 E.02663
G1 X91.955 Y100.837 E.02285
G1 X91.531 Y100.558 E.02621
G1 X91.251 Y100.276 E.02049
G1 X90.971 Y99.812 E.02797
G1 X90.866 Y99.539 E.01507
G1 X90.781 Y98.955 E.03047
G1 X90.81 Y97.236 E.08878
G1 X90.884 Y96.912 E.01714
G1 X91.025 Y96.564 E.01939
G1 X91.168 Y96.342 E.01365
G1 X91.371 Y96.096 E.01644
G1 X91.707 Y96.373 F9000
G1 F1800
G1 X91.731 Y96.344 E.00195
G1 X91.827 Y96.255 E.00673
