; HEADER_BLOCK_START
; generated by OrcaSlicer 2.2.0 on 2025-02-23 at 16:36:49
; total layer number: 83
; filament_density: 1.24
; filament_diameter: 1.75
; max_z_height: 24.90
; HEADER_BLOCK_END

; THUMBNAIL_BLOCK_START

;
; THUMBNAIL_BLOCK_END

; THUMBNAIL_BLOCK_START

;
; THUMBNAIL_BLOCK_END

; external perimeters extrusion width = 0.50mm
; perimeters extrusion width = 0.50mm
; infill extrusion width = 0.50mm
; solid infill extrusion width = 0.50mm
; top infill extrusion width = 0.50mm
; first layer extrusion width = 0.50mm

; EXECUTABLE_BLOCK_START


; Pre-Processed for Cancel-Object support by preprocess_cancellation v0.2.0
; 1 known objects
EXCLUDE_OBJECT_DEFINE NAME=Body3_stl_id_7811887588677804288_copy_0 CENTER=110.105,100.858 POLYGON=[[88.603,93.493],[88.603,124.224],[131.397,124.224],[131.397,93.493]]
M73 P0 R13
;TYPE:Custom
G28 ; home all axis
G90 ; use absolute coordinates
M83 ; extruder relative mode
led_heating
;M140 S70 ; set final bed temp
M104 S150 ; set temporary nozzle temp to prevent oozing during homing
G4 S10 ; allow partial nozzle warmup
M190 S70 ; wait for bed temp to stabilize
BED_MESH_CALIBRATE

G1 Z50 F240
G1 X2 Y10 F3000
M73 P1 R13
M104 S225 ; set final nozzle temp
;M190 S70 ; wait for bed temp to stabilize
M109 S225 ; wait for nozzle temp to stabilize
led_printing
M73 P1 R13
G1 Z0.28 F240
LINE_PURGE
G92 E0
G90
G21
M83 ; use relative distances for extrusion
; filament start gcode
SET_PRESSURE_ADVANCE ADVANCE=0.04; Override pressure advance value
M106 S0
;LAYER_CHANGE
;Z:0.3
;HEIGHT:0.3
;BEFORE_LAYER_CHANGE
;0.3
G92 E0

G1 E-1 F5100
M73 P3 R12
;_SET_FAN_SPEED_CHANGING_LAYER
SET_VELOCITY_LIMIT ACCEL=5000 ACCEL_TO_DECEL=2500
; printing object Body3.stl id:7811887588677804288 copy 0
EXCLUDE_OBJECT_START NAME=Body3_stl_id_7811887588677804288_copy_0
M73 P3 R12
G1 Z.7 F9000
G1 X89.93 Y94.654
G1 Z.7
G1 Z.3
G1 E1 F3900
;TYPE:Brim
;WIDTH:0.5
G1 F1800
G1 X90.415 Y94.257 E.03336
G1 X90.952 Y93.938 E.03328
G1 X91.646 Y93.669 E.03963
G1 X92.313 Y93.527 E.03628
G1 X92.848 Y93.493 E.02856
G1 X127.151 Y93.493 E1.8265
G1 X127.784 Y93.541 E.0338
G1 X128.391 Y93.682 E.03321
G1 X129.166 Y94.013 E.04483
G1 X129.771 Y94.402 E.03835
G1 X130.236 Y94.821 E.0333
G1 X130.633 Y95.305 E.03336
G1 X130.952 Y95.843 E.03328
G1 X131.221 Y96.537 E.03963
G1 X131.363 Y97.203 E.03628
G1 X131.397 Y97.738 E.02856
G1 X131.397 Y99.223 E.07906
G1 X131.349 Y99.856 E.0338
G1 X131.209 Y100.464 E.03321
G1 X130.878 Y101.238 E.04483
G1 X130.488 Y101.844 E.03835
G1 X130.07 Y102.308 E.0333
G1 X129.585 Y102.706 E.03336
G1 X129.048 Y103.024 E.03328
G1 X128.354 Y103.293 E.03963
G1 X127.687 Y103.435 E.03628
G1 X127.152 Y103.47 E.02856
G1 X115.82 Y103.47 E.60339
G1 X115.628 Y103.483 E.01025
G1 X115.446 Y103.537 E.01012
G1 X115.327 Y103.602 E.00723
G1 X115.184 Y103.727 E.01012
G1 X115.044 Y103.959 E.0144
G1 X114.988 Y104.301 E.01847
G1 X114.988 Y119.977 E.8347
G1 X114.94 Y120.61 E.0338
G1 X114.8 Y121.218 E.03321
G1 X114.469 Y121.992 E.04483
G1 X114.079 Y122.598 E.03835
G1 X113.661 Y123.063 E.0333
G1 X113.176 Y123.46 E.03336
G1 X112.639 Y123.779 E.03328
G1 X111.945 Y124.048 E.03963
G1 X111.278 Y124.19 E.03628
G1 X110.743 Y124.224 E.02856
G1 X109.258 Y124.224 E.07906
G1 X108.625 Y124.176 E.0338
G1 X108.018 Y124.036 E.03321
G1 X107.244 Y123.704 E.04483
G1 X106.638 Y123.315 E.03835
G1 X106.173 Y122.896 E.0333
G1 X105.776 Y122.412 E.03336
G1 X105.457 Y121.874 E.03328
G1 X105.188 Y121.18 E.03963
G1 X105.046 Y120.514 E.03628
G1 X105.012 Y119.979 E.02856
G1 X105.012 Y104.301 E.83476
G1 X104.98 Y104.033 E.01439
G1 X104.951 Y103.948 E.00476
G1 X104.788 Y103.696 E.01597
G1 X104.669 Y103.6 E.00816
G1 X104.504 Y103.517 E.00986
G1 X104.328 Y103.476 E.00959
G1 X104.19 Y103.47 E.00735
G1 X92.849 Y103.47 E.60387
G1 X92.216 Y103.422 E.0338
G1 X91.61 Y103.281 E.03315
G1 X90.752 Y102.904 E.04991
G1 X90.229 Y102.561 E.03327
G1 X89.764 Y102.142 E.03336
G1 X89.367 Y101.657 E.03336
G1 X89.048 Y101.12 E.03328
G1 X88.779 Y100.426 E.03963
G1 X88.637 Y99.76 E.03628
G1 X88.603 Y99.224 E.02856
G1 X88.603 Y97.74 E.07906
G1 X88.651 Y97.107 E.0338
G1 X88.791 Y96.5 E.03315
G1 X89.168 Y95.642 E.04991
G1 X89.511 Y95.12 E.03327
G1 X89.903 Y94.684 E.03123
G1 X90.225 Y94.977 F9000
G1 F1800
G1 X90.674 Y94.61 E.03088
G1 X91.153 Y94.328 E.02963
G1 X91.761 Y94.092 E.03472
G1 X92.363 Y93.962 E.03277
G1 X92.866 Y93.929 E.02685
G1 X127.139 Y93.929 E1.82492
G1 X127.727 Y93.975 E.03142
M73 P4 R12
M73 P4 R12
G1 X128.266 Y94.102 E.02947
G1 X128.951 Y94.395 E.03963
G1 X129.497 Y94.744 E.03455
G1 X129.927 Y95.13 E.03074
G1 X130.281 Y95.564 E.02983
G1 X130.563 Y96.044 E.02963
G1 X130.804 Y96.672 E.03582
G1 X130.928 Y97.253 E.03167
G1 X130.962 Y97.748 E.0264
G1 X130.962 Y99.202 E.07739
G1 X130.918 Y99.78 E.03089
G1 X130.796 Y100.316 E.0293
G1 X130.496 Y101.023 E.04086
G1 X130.146 Y101.569 E.03455
G1 X129.775 Y101.985 E.02969
G1 X129.342 Y102.341 E.02983
G1 X128.847 Y102.635 E.03068
G1 X128.239 Y102.871 E.03472
G1 X127.637 Y103.001 E.03277
G1 X127.142 Y103.034 E.0264
G1 X115.824 Y103.034 E.60265
G1 X115.609 Y103.048 E.01148
G1 X115.326 Y103.118 E.0155
G1 X115.032 Y103.281 E.01792
G1 X114.905 Y103.392 E.009
G1 X114.805 Y103.511 E.00825
G1 X114.677 Y103.723 E.0132
G1 X114.612 Y103.9 E.01003
G1 X114.553 Y104.311 E.02208
G1 X114.553 Y119.956 E.83305
G1 X114.506 Y120.554 E.03194
G1 X114.38 Y121.093 E.02947
G1 X114.087 Y121.777 E.03963
G1 X113.737 Y122.324 E.03455
G1 X113.366 Y122.74 E.02969
G1 X112.933 Y123.096 E.02983
G1 X112.437 Y123.389 E.03068
G1 X111.829 Y123.625 E.03472
G1 X111.228 Y123.755 E.03277
G1 X110.725 Y123.789 E.02685
G1 X109.28 Y123.789 E.07694
G1 X108.701 Y123.745 E.03089
G1 X108.143 Y123.615 E.03052
G1 X107.458 Y123.322 E.03963
G1 X106.895 Y122.96 E.03566
G1 X106.482 Y122.587 E.02963
G1 X106.14 Y122.169 E.02878
G1 X105.846 Y121.673 E.03068
G1 X105.611 Y121.065 E.03472
G1 X105.481 Y120.464 E.03277
G1 X105.447 Y119.961 E.02685
G1 X105.447 Y104.308 E.83343
G1 X105.413 Y103.991 E.017
G1 X105.365 Y103.816 E.00965
G1 X105.158 Y103.467 E.02162
G1 X105.058 Y103.355 E.00801
G1 X104.854 Y103.205 E.01346
G1 X104.709 Y103.133 E.00861
G1 X104.431 Y103.054 E.01538
G1 X104.211 Y103.035 E.01177
G1 X92.871 Y103.034 E.60384
G1 X92.273 Y102.988 E.03194
G1 X91.736 Y102.861 E.02933
G1 X90.97 Y102.524 E.04456
G1 X90.504 Y102.221 E.02961
G1 X90.087 Y101.847 E.02983
G1 X89.731 Y101.415 E.02983
G1 X89.437 Y100.919 E.03068
G1 X89.202 Y100.311 E.03472
G1 X89.072 Y99.709 E.03277
G1 X89.038 Y99.206 E.02685
G1 X89.038 Y97.761 E.07695
G1 X89.082 Y97.182 E.03089
G1 X89.211 Y96.627 E.03038
G1 X89.558 Y95.842 E.04572
G1 X89.864 Y95.379 E.02951
G1 X90.198 Y95.007 E.02665
G1 X90.52 Y95.301 F9000
G1 F1800
G1 X90.933 Y94.963 E.02838
G1 X91.354 Y94.717 E.02597
G1 X91.877 Y94.514 E.0299
G1 X92.433 Y94.394 E.03029
G1 X92.885 Y94.364 E.0241
G1 X127.117 Y94.365 E1.82273
G1 X127.65 Y94.406 E.02847
G1 X128.14 Y94.522 E.0268
G1 X128.736 Y94.777 E.03453
G1 X129.224 Y95.086 E.03073
G1 X129.603 Y95.425 E.02707
G1 X129.927 Y95.822 E.02732
G1 X130.173 Y96.244 E.02599
G1 X130.388 Y96.806 E.03205
G1 X130.494 Y97.305 E.02713
G1 X130.526 Y97.758 E.02422
G1 X130.526 Y99.18 E.07571
G1 X130.487 Y99.705 E.02802
G1 X130.382 Y100.17 E.0254
G1 X130.113 Y100.809 E.03688
G1 X129.804 Y101.296 E.03075
G1 X129.479 Y101.663 E.02608
G1 X129.099 Y101.977 E.02625
G1 X128.646 Y102.246 E.02807
G1 X128.123 Y102.448 E.02985
G1 X127.585 Y102.566 E.02929
G1 X127.132 Y102.598 E.0242
G1 X115.828 Y102.598 E.6019
G1 X115.591 Y102.612 E.01262
G1 X115.228 Y102.694 E.01984
G1 X114.832 Y102.894 E.0236
G1 X114.565 Y103.12 E.01864
G1 X114.428 Y103.294 E.01178
G1 X114.311 Y103.488 E.01207
G1 X114.18 Y103.85 E.02051
G1 X114.117 Y104.319 E.02521
G1 X114.117 Y119.934 E.83142
G1 X114.072 Y120.497 E.03006
G1 X113.96 Y120.967 E.02574
G1 X113.705 Y121.563 E.03453
G1 X113.395 Y122.051 E.03077
G1 X113.07 Y122.417 E.02608
G1 X112.674 Y122.743 E.02732
G1 X112.236 Y123 E.027
G1 X111.694 Y123.209 E.03094
G1 X111.158 Y123.323 E.02921
G1 X110.706 Y123.353 E.0241
G1 X109.301 Y123.353 E.07481
G1 X108.777 Y123.314 E.02797
G1 X108.268 Y123.195 E.02783
G1 X107.673 Y122.941 E.03445
G1 X107.153 Y122.606 E.03295
G1 X106.806 Y122.292 E.0249
G1 X106.504 Y121.926 E.02527
G1 X106.236 Y121.472 E.02809
G1 X106.027 Y120.93 E.03094
G1 X105.915 Y120.412 E.02819
G1 X105.883 Y119.942 E.02511
G1 X105.883 Y104.315 E.83208
G1 X105.847 Y103.953 E.01936
G1 X105.787 Y103.707 E.0135
G1 X105.735 Y103.586 E.00696
G1 X105.538 Y103.253 E.02062
G1 X105.388 Y103.071 E.01257
G1 X105.118 Y102.858 E.01829
G1 X104.911 Y102.747 E.01248
G1 X104.56 Y102.637 E.01963
G1 X104.204 Y102.599 E.01903
G1 X92.893 Y102.598 E.6023
G1 X92.33 Y102.553 E.03005
G1 X91.864 Y102.441 E.02551
G1 X91.188 Y102.144 E.03933
G1 X90.779 Y101.879 E.02598
G1 X90.41 Y101.551 E.0263
G1 X90.083 Y101.155 E.02733
G1 X89.826 Y100.718 E.027
G1 X89.618 Y100.175 E.03094
G1 X89.504 Y99.639 E.02921
G1 X89.474 Y99.187 E.0241
G1 X89.474 Y97.782 E.07481
G1 X89.513 Y97.259 E.02796
G1 X89.631 Y96.754 E.02758
G1 X89.948 Y96.042 E.04151
G1 X90.204 Y95.655 E.02473
G1 X90.494 Y95.331 E.02314
G1 X90.816 Y95.624 F9000
G1 F1800
G1 X91.191 Y95.317 E.02582
G1 X91.553 Y95.107 E.02228
G1 X91.993 Y94.936 E.02513
G1 X92.504 Y94.826 E.02781
G1 X92.904 Y94.8 E.02133
G1 X127.095 Y94.8 E1.82057
G1 X127.573 Y94.837 E.02551
M73 P5 R12
M73 P5 R12
G1 X128.014 Y94.941 E.02413
G1 X128.523 Y95.159 E.02949
G1 X128.951 Y95.429 E.02694
G1 X129.293 Y95.735 E.02444
G1 X129.573 Y96.08 E.02366
G1 X129.783 Y96.443 E.0223
G1 X129.971 Y96.94 E.02831
G1 X130.06 Y97.357 E.02268
G1 X130.09 Y97.769 E.02203
G1 X130.091 Y99.159 E.07402
G1 X130.056 Y99.631 E.02519
G1 X129.968 Y100.026 E.02152
G1 X129.73 Y100.596 E.03291
G1 X129.461 Y101.025 E.02695
G1 X129.167 Y101.355 E.02352
G1 X128.839 Y101.625 E.02266
G1 X128.445 Y101.856 E.02433
G1 X128.006 Y102.026 E.02504
G1 X127.533 Y102.132 E.02583
G1 X127.121 Y102.162 E.02195
G1 X115.832 Y102.163 E.60114
G1 X115.575 Y102.177 E.01368
G1 X115.139 Y102.268 E.0237
G1 X115.026 Y102.308 E.00642
G1 X114.542 Y102.569 E.02928
G1 X114.217 Y102.858 E.02313
G1 X114.051 Y103.075 E.01456
G1 X113.943 Y103.253 E.01108
G1 X113.774 Y103.691 E.02497
G1 X113.682 Y104.329 E.03433
G1 X113.682 Y119.911 E.82971
G1 X113.641 Y120.418 E.02706
G1 X113.54 Y120.84 E.02308
G1 X113.322 Y121.35 E.02954
G1 X113.052 Y121.779 E.02702
G1 X112.773 Y122.095 E.02242
G1 X112.431 Y122.379 E.02366
G1 X112.037 Y122.61 E.02436
G1 X111.56 Y122.792 E.02718
G1 X111.088 Y122.891 E.02566
G1 X110.687 Y122.917 E.02138
G1 X109.322 Y122.917 E.07269
G1 X108.853 Y122.883 E.02502
G1 X108.394 Y122.775 E.02513
G1 X107.888 Y122.559 E.02928
G1 X107.41 Y122.252 E.03024
G1 X107.116 Y121.983 E.02122
G1 X106.868 Y121.683 E.02071
G1 X106.625 Y121.272 E.02545
G1 X106.444 Y120.795 E.02716
G1 X106.35 Y120.36 E.02369
G1 X106.318 Y119.922 E.02338
G1 X106.318 Y104.321 E.83073
G1 X106.282 Y103.919 E.02145
G1 X106.184 Y103.528 E.02148
G1 X106.106 Y103.358 E.00995
G1 X105.917 Y103.038 E.01978
G1 X105.731 Y102.803 E.016
G1 X105.395 Y102.522 E.02329
G1 X105.03 Y102.328 E.02198
G1 X104.595 Y102.203 E.0241
G1 X104.198 Y102.164 E.02127
G1 X92.915 Y102.163 E.60075
G1 X92.389 Y102.12 E.02813
G1 X91.993 Y102.022 E.02168
G1 X91.405 Y101.764 E.03421
G1 X91.036 Y101.525 E.02342
G1 X90.718 Y101.24 E.02273
G1 X90.436 Y100.896 E.0237
G1 X90.216 Y100.518 E.02327
G1 X90.035 Y100.041 E.02718
G1 X89.935 Y99.569 E.02566
G1 X89.909 Y99.169 E.02138
G1 X89.909 Y97.803 E.0727
G1 X89.944 Y97.335 E.025
G1 X90.051 Y96.882 E.02476
G1 X90.327 Y96.262 E.03616
G1 X90.545 Y95.929 E.02117
G1 X90.789 Y95.654 E.01962
G1 X91.112 Y95.947 F9000
G1 F1800
G1 X91.449 Y95.671 E.0232
G1 X91.751 Y95.497 E.01857
G1 X92.109 Y95.359 E.02044
G1 X92.574 Y95.258 E.02532
G1 X92.922 Y95.235 E.01856
G1 X127.073 Y95.236 E1.81843
G1 X127.495 Y95.268 E.02253
G1 X127.887 Y95.361 E.02145
G1 X128.31 Y95.542 E.02451
G1 X128.696 Y95.785 E.02429
G1 X128.984 Y96.044 E.0206
G1 X129.207 Y96.32 E.01886
G1 X129.382 Y96.621 E.01856
G1 X129.548 Y97.054 E.0247
G1 X129.625 Y97.409 E.01938
G1 X129.654 Y97.79 E.02032
G1 X129.655 Y99.139 E.07181
G1 X129.624 Y99.558 E.02241
G1 X129.547 Y99.904 E.01889
G1 X129.347 Y100.385 E.02771
G1 X129.104 Y100.77 E.02425
G1 X128.871 Y101.033 E.01868
G1 X128.597 Y101.26 E.01899
G1 X128.264 Y101.458 E.02061
G1 X127.87 Y101.61 E.0225
G1 X127.478 Y101.697 E.02136
G1 X127.101 Y101.726 E.02017
G1 X115.835 Y101.727 E.59985
G1 X115.56 Y101.742 E.01467
G1 X115.057 Y101.84 E.02727
G1 X114.886 Y101.896 E.0096
G1 X114.341 Y102.183 E.03278
G1 X114.248 Y102.248 E.00606
G1 X113.864 Y102.602 E.02778
G1 X113.709 Y102.805 E.01362
G1 X113.575 Y103.02 E.0135
G1 X113.342 Y103.635 E.03499
G1 X113.246 Y104.338 E.03778
G1 X113.246 Y119.889 E.82805
G1 X113.211 Y120.339 E.02405
G1 X113.121 Y120.712 E.02042
G1 X112.939 Y121.137 E.0246
G1 X112.707 Y121.508 E.02331
G1 X112.461 Y121.788 E.01983
G1 X112.171 Y122.026 E.01998
G1 X111.837 Y122.22 E.02055
G1 X111.426 Y122.375 E.02338
G1 X111.019 Y122.459 E.02214
G1 X110.669 Y122.482 E.0187
G1 X109.343 Y122.482 E.0706
G1 X108.93 Y122.452 E.02206
G1 X108.52 Y122.355 E.02242
G1 X108.103 Y122.177 E.02413
G1 X107.669 Y121.898 E.0275
G1 X107.439 Y121.688 E.01654
G1 X107.233 Y121.44 E.01719
G1 X107.015 Y121.072 E.02279
G1 X106.86 Y120.661 E.02336
G1 X106.781 Y120.289 E.02025
G1 X106.754 Y119.902 E.02066
G1 X106.754 Y104.327 E.82931
G1 X106.702 Y103.806 E.02791
G1 X106.576 Y103.339 E.02574
G1 X106.478 Y103.13 E.01227
G1 X106.295 Y102.823 E.01903
G1 X106.079 Y102.542 E.01889
G1 X105.682 Y102.195 E.0281
G1 X105.245 Y101.949 E.02666
G1 X104.724 Y101.787 E.02904
G1 X104.246 Y101.731 E.02563
G1 X92.938 Y101.727 E.6021
G1 X92.449 Y101.686 E.02616
M73 P6 R12
M73 P6 R12
G1 X92.124 Y101.604 E.01786
G1 X91.622 Y101.383 E.02918
G1 X91.31 Y101.183 E.01975
G1 X91.027 Y100.93 E.02018
G1 X90.79 Y100.638 E.02006
G1 X90.607 Y100.32 E.01954
G1 X90.452 Y99.908 E.02344
G1 X90.368 Y99.501 E.02214
G1 X90.345 Y99.15 E.0187
G1 X90.345 Y97.824 E.0706
G1 X90.375 Y97.412 E.02202
G1 X90.47 Y97.011 E.02194
G1 X90.706 Y96.481 E.03091
G1 X90.886 Y96.203 E.01764
G1 X91.085 Y95.977 E.01602
G1 X91.397 Y96.297 F9000
G1 F1800
G1 X91.525 Y96.173 E.00948
G1 X91.842 Y95.952 E.02057
G1 X92.15 Y95.806 E.01815
G1 X92.421 Y95.727 E.01501
G1 X92.81 Y95.675 E.02089
G1 X127.289 Y95.684 E1.83592
G1 X127.557 Y95.725 E.01439
G1 X127.782 Y95.784 E.01239
G1 X128.298 Y96.039 E.03066
G1 X128.447 Y96.152 E.00998
G1 X128.759 Y96.465 E.02351
G1 X128.91 Y96.679 E.01395
G1 X129.015 Y96.869 E.01156
G1 X129.145 Y97.234 E.02064
G1 X129.206 Y97.63 E.02131
G1 X129.196 Y99.458 E.09732
G1 X129.124 Y99.794 E.0183
G1 X128.998 Y100.119 E.01857
G1 X128.847 Y100.373 E.01573
G1 X128.618 Y100.656 E.01942
G1 X128.423 Y100.833 E.01398
G1 X128.159 Y101.007 E.01685
G1 X127.762 Y101.181 E.02308
G1 X127.502 Y101.251 E.01435
G1 X127.126 Y101.292 E.02013
G1 X115.83 Y101.292 E.60148
G1 X115.385 Y101.319 E.02373
G1 X114.845 Y101.442 E.02949
G1 X114.345 Y101.656 E.02896
G1 X113.904 Y101.95 E.02825
G1 X113.511 Y102.338 E.02938
G1 X113.257 Y102.687 E.02298
G1 X113.025 Y103.141 E.02715
G1 X112.895 Y103.55 E.02287
G1 X112.82 Y104.084 E.02867
G1 X112.81 Y119.955 E.84509
G1 X112.746 Y120.424 E.02521
G1 X112.585 Y120.88 E.02575
G1 X112.481 Y121.063 E.01119
G1 X112.316 Y121.288 E.01486
G1 X111.929 Y121.647 E.02812
G1 X111.527 Y121.878 E.02466
G1 X111.236 Y121.975 E.01637
G1 X110.778 Y122.038 E.02461
G1 X109.024 Y122.023 E.09339
G1 X108.688 Y121.951 E.01829
G1 X108.358 Y121.821 E.01888
G1 X108.084 Y121.652 E.01715
G1 X107.77 Y121.387 E.02187
G1 X107.64 Y121.237 E.01057
G1 X107.423 Y120.895 E.02156
G1 X107.312 Y120.631 E.01523
G1 X107.22 Y120.253 E.02071
G1 X107.18 Y104.08 E.86118
G1 X107.132 Y103.686 E.02115
G1 X107.029 Y103.296 E.02144
G1 X106.839 Y102.853 E.02571
G1 X106.639 Y102.529 E.02025
G1 X106.407 Y102.243 E.0196
G1 X106.129 Y101.977 E.02047
G1 X105.674 Y101.666 E.02939
G1 X105.148 Y101.438 E.03048
G1 X104.581 Y101.316 E.0309
G1 X104.171 Y101.292 E.02186
G1 X92.881 Y101.292 E.60118
G1 X92.367 Y101.219 E.0276
G1 X92.051 Y101.114 E.01777
G1 X91.823 Y100.998 E.01362
G1 X91.348 Y100.618 E.03239
G1 X91.096 Y100.283 E.02233
