; HEADER_BLOCK_START
; generated by OrcaSlicer 2.2.0 on 2025-02-18 at 16:31:05
; total layer number: 33
; filament_density: 1.27
; filament_diameter: 1.75
; max_z_height: 9.90
; HEADER_BLOCK_END

; THUMBNAIL_BLOCK_START

;
; THUMBNAIL_BLOCK_END

; THUMBNAIL_BLOCK_START

;
; THUMBNAIL_BLOCK_END

; external perimeters extrusion width = 0.50mm
; perimeters extrusion width = 0.50mm
; infill extrusion width = 0.50mm
; solid infill extrusion width = 0.50mm
; top infill extrusion width = 0.50mm
; first layer extrusion width = 0.50mm

; EXECUTABLE_BLOCK_START
M73 P0 R69
;TYPE:Custom
G28 ; home all axis
G90 ; use absolute coordinates
M83 ; extruder relative mode
led_heating
;M140 S80 ; set final bed temp
M104 S150 ; set temporary nozzle temp to prevent oozing during homing
G4 S10 ; allow partial nozzle warmup
M190 S80 ; wait for bed temp to stabilize
BED_MESH_CALIBRATE

G1 Z50 F240
G1 X2 Y10 F3000
M73 P0 R68
M104 S260 ; set final nozzle temp
;M190 S80 ; wait for bed temp to stabilize
M109 S260 ; wait for nozzle temp to stabilize
led_printing
M73 P0 R68
G1 Z0.28 F240
LINE_PURGE
G92 E0
G90
G21
M83 ; use relative distances for extrusion
; filament start gcode
SET_PRESSURE_ADVANCE ADVANCE=0.04; Override pressure advance value
M106 S0
;LAYER_CHANGE
;Z:0.3
;HEIGHT:0.3
;BEFORE_LAYER_CHANGE
;0.3
G92 E0

;_SET_FAN_SPEED_CHANGING_LAYER
SET_VELOCITY_LIMIT ACCEL=5000 ACCEL_TO_DECEL=2500
; printing object book_stand_x_v_0_3_5.stl id:7811887588677804288 copy 0
G1 E-1 F5100
G1 Z.7 F9000
G1 X124.514 Y122.894
G1 Z.7
G1 Z.3
G1 E1 F3900
;TYPE:Inner wall
;WIDTH:0.5
G1 F1800
G1 X124.535 Y122.753 E.00739
G1 X124.535 Y111.4 E.58601
G1 X124.356 Y110.965 E.02427
G1 X124.102 Y110.693 E.01921
G1 X123.777 Y110.525 E.01889
G1 X123.446 Y110.473 E.01729
G1 X111.722 Y110.473 E.60515
G1 X125.24 Y33.807 E4.01825
G1 X125.471 Y33.292 E.02918
G1 X125.843 Y32.98 E.02503
G1 X126.391 Y32.842 E.02918
G1 X133.06 Y32.842 E.34422
G1 X134.502 Y33.07 E.07538
G1 X135.77 Y33.709 E.07327
G1 X136.754 Y34.693 E.07185
G1 X137.388 Y35.936 E.07198
G1 X137.62 Y37.401 E.0766
G1 X137.62 Y163.154 E6.49089
G1 X137.879 Y164.975 E.0949
G1 X137.962 Y165.317 E.01818
G1 X138.716 Y167.141 E.1019
G1 X138.836 Y167.358 E.01278
G1 X140.011 Y169.003 E.10434
G1 X140.177 Y169.187 E.01278
G1 X141.657 Y170.493 E.1019
G1 X141.882 Y170.647 E.01405
G1 X143.591 Y171.52 E.09906
G1 X178.496 Y183.516 E1.90513
G1 X179.934 Y184.251 E.08336
G1 X181.207 Y185.374 E.08759
G1 X182.228 Y186.804 E.09072
G1 X182.876 Y188.372 E.08759
G1 X183.104 Y189.971 E.08336
G1 X183.104 Y191.498 E.07881
G1 X93.025 Y191.503 E4.64951
;WIDTH:0.490255
G1 X92.62 Y191.511 E.02045
;WIDTH:0.489426
G1 X90.862 Y191.503 E.08851
;WIDTH:0.499248
G1 X90.658 Y191.499 E.01052
;WIDTH:0.5
G1 X59.193 Y191.498 E1.62411
G1 X56.62 Y188.514 E.20341
G1 X54.582 Y182.954 E.30566
G1 X54.509 Y176.66 E.32491
G1 X55.703 Y168.624 E.41932
G1 X55.886 Y168.025 E.03235
M73 P1 R68
M73 P1 R68
G1 X56.161 Y167.696 E.02212
G1 X56.532 Y167.481 E.02212
G1 X57.019 Y167.4 E.02548
G1 X58.414 Y167.434 E.07205
G1 X58.678 Y167.502 E.01406
G1 X58.726 Y167.763 E.01371
G1 X56.855 Y178.372 E.55604
G1 X56.823 Y180.215 E.09514
G1 X56.871 Y180.553 E.01759
G1 X57.385 Y182.236 E.09084
G1 X57.535 Y182.542 E.01759
G1 X58.544 Y183.984 E.09084
G1 X58.781 Y184.229 E.01759
G1 X60.186 Y185.288 E.09084
G1 X60.487 Y185.448 E.01759
G1 X62.314 Y186.063 E.09951
G1 X90.753 Y191.077 E1.49052
;WIDTH:0.499248
G1 X92.623 Y191.101 E.09641
;WIDTH:0.490255
G1 X92.959 Y191.062 E.01706
;WIDTH:0.5
G1 X94.644 Y190.552 E.09084
G1 X94.95 Y190.403 E.01759
G1 X96.392 Y189.394 E.09084
G1 X96.637 Y189.157 E.01759
G1 X97.696 Y187.751 E.09084
G1 X97.856 Y187.45 E.01759
G1 X98.471 Y185.623 E.09951
G1 X109.365 Y123.842 E3.23812
G1 X123.446 Y123.842 E.72682
G1 X123.841 Y123.768 E.02075
G1 X124.162 Y123.573 E.01937
G1 X124.33 Y123.388 E.01292
G1 X124.49 Y123.061 E.01882
G1 X124.509 Y122.934 E.0066
G1 X124.083 Y122.836 F9000
G1 F1800
G1 X124.099 Y122.753 E.00438
G1 X124.099 Y111.461 E.58283
G1 X123.958 Y111.156 E.01736
G1 X123.724 Y110.971 E.01538
G1 X123.446 Y110.909 E.0147
G1 X111.203 Y110.909 E.63194
G1 X124.821 Y33.678 E4.04783
G1 X125.115 Y33.022 E.03713
G1 X125.639 Y32.582 E.03535
G1 X126.337 Y32.406 E.03713
G1 X133.094 Y32.406 E.34879
G1 X134.638 Y32.65 E.08066
G1 X136.029 Y33.351 E.0804
G1 X137.111 Y34.434 E.07903
G1 X137.807 Y35.799 E.07911
G1 X138.055 Y37.367 E.08193
G1 X138.055 Y163.124 E6.49107
G1 X138.333 Y165.074 E.10171
G1 X139.148 Y167.044 E.11001
G1 X140.409 Y168.811 E.11206
G1 X142.007 Y170.221 E.11001
G1 X143.761 Y171.118 E.10171
G1 X178.667 Y183.114 E1.90513
G1 X180.181 Y183.888 E.08778
G1 X181.532 Y185.08 E.09299
G1 X182.611 Y186.592 E.09587
G1 X183.299 Y188.257 E.09299
G1 X183.539 Y189.94 E.08778
G1 X183.539 Y191.934 E.10289
G1 X58.994 Y191.934 E6.42857
G1 X56.238 Y188.738 E.2178
G1 X54.147 Y183.034 E.31361
G1 X54.073 Y176.63 E.33056
G1 X55.298 Y168.385 E.43023
G1 X55.501 Y167.805 E.03171
G1 X55.877 Y167.358 E.03016
G1 X56.382 Y167.065 E.03016
G1 X56.988 Y166.963 E.03171
G1 X58.425 Y166.999 E.0742
G1 X58.942 Y167.127 E.02749
G1 X59.124 Y167.349 E.01484
G1 X59.165 Y167.781 E.02238
G1 X57.29 Y178.414 E.55732
G1 X57.259 Y180.223 E.09337
G1 X57.287 Y180.425 E.01055
G1 X57.802 Y182.108 E.09084
G1 X57.891 Y182.292 E.01055
G1 X58.901 Y183.734 E.09084
G1 X59.043 Y183.881 E.01055
G1 X60.448 Y184.94 E.09084
G1 X60.629 Y185.036 E.01055
G1 X62.39 Y185.634 E.09599
G1 X90.822 Y190.647 E1.49021
G1 X92.631 Y190.679 E.09337
G1 X92.833 Y190.65 E.01055
G1 X94.516 Y190.136 E.09084
G1 X94.7 Y190.046 E.01055
G1 X96.142 Y189.037 E.09084
G1 X96.289 Y188.895 E.01055
G1 X97.348 Y187.489 E.09084
G1 X97.444 Y187.309 E.01055
G1 X98.042 Y185.548 E.09599
G1 X108.999 Y123.406 E3.25699
G1 X123.446 Y123.406 E.74568
M73 P1 R67
M73 P1 R67
G1 X123.683 Y123.362 E.01245
G1 X123.875 Y123.245 E.01162
G1 X124.051 Y123 E.01553
G1 X124.075 Y122.875 E.00658
G1 X123.664 Y122.753 F9000
;TYPE:Outer wall
G1 F1800
G1 X123.664 Y111.562 E.57761
G1 X123.604 Y111.412 E.00832
G1 X123.446 Y111.344 E.00888
G1 X110.684 Y111.344 E.65874
G1 X124.401 Y33.55 E4.07742
G1 X124.758 Y32.753 E.04508
G1 X125.436 Y32.184 E.04567
G1 X126.283 Y31.97 E.04508
G1 X133.129 Y31.97 E.35335
G1 X134.773 Y32.231 E.08593
G1 X136.287 Y32.994 E.08752
G1 X137.468 Y34.175 E.0862
G1 X138.227 Y35.663 E.08623
G1 X138.491 Y37.333 E.08726
G1 X138.491 Y163.093 E6.49124
G1 X138.757 Y164.959 E.09728
G1 X139.531 Y166.831 E.1046
G1 X140.734 Y168.517 E.10692
G1 X142.254 Y169.858 E.1046
G1 X143.932 Y170.716 E.09728
G1 X178.838 Y182.712 E1.90513
G1 X180.428 Y183.525 E.09221
G1 X181.858 Y184.786 E.0984
G1 X182.995 Y186.379 E.10101
G1 X183.723 Y188.141 E.0984
G1 X183.975 Y189.91 E.09221
G1 X183.975 Y192.369 E.12697
G1 X58.794 Y192.369 E6.46136
G1 X55.856 Y188.963 E.2322
G1 X53.712 Y183.113 E.32156
G1 X53.637 Y176.6 E.33621
G1 X54.873 Y168.28 E.43417
G1 X55.117 Y167.586 E.03794
G1 X55.592 Y167.019 E.0382
G1 X56.232 Y166.648 E.0382
G1 X56.957 Y166.527 E.03794
G1 X58.597 Y166.567 E.08465
G1 X59.195 Y166.748 E.03227
G1 X59.545 Y167.176 E.02853
G1 X59.604 Y167.798 E.03227
G1 X57.725 Y178.456 E.55859
G1 X57.694 Y180.265 E.09338
G1 X58.228 Y182.014 E.09441
G1 X59.277 Y183.512 E.09441
G1 X60.738 Y184.613 E.0944
G1 X62.466 Y185.205 E.09425
G1 X90.864 Y190.212 E1.48844
G1 X92.673 Y190.244 E.09338
M73 P2 R67
M73 P2 R67
G1 X94.422 Y189.709 E.09441
G1 X95.92 Y188.66 E.09441
G1 X97.021 Y187.199 E.09441
G1 X97.613 Y185.472 E.09425
G1 X108.634 Y122.971 E3.27585
G1 X123.446 Y122.971 E.76455
G1 X123.598 Y122.908 E.0085
G1 X123.648 Y122.79 E.00664
G1 E-1 F5100
G1 Z.7 F9000
G1 X168.028 Y187.722 Z.7
G1 Z.3
G1 E1 F3900
;TYPE:Inner wall
G1 F1800
G1 X167.628 Y188.253 E.03434
G1 X167.427 Y188.445 E.01432
G1 X167.161 Y188.589 E.01562
G1 X166.176 Y188.958 E.05429
G1 X164.653 Y189.181 E.07946
G1 X162.799 Y189.246 E.09577
G1 X110.249 Y189.092 E2.71241
G1 X108.94 Y188.94 E.06801
G1 X108.688 Y188.879 E.01338
G1 X107.55 Y188.458 E.06266
G1 X107.301 Y188.328 E.01448
G1 X106.32 Y187.638 E.0619
G1 X106.112 Y187.447 E.0146
G1 X105.371 Y186.563 E.05953
G1 X105.143 Y186.16 E.02389
G1 X104.72 Y185.248 E.0519
G1 X104.637 Y184.984 E.01427
G1 X104.421 Y183.79 E.06265
G1 X104.405 Y183.531 E.01338
G1 X104.484 Y182.216 E.06802
G1 X106.75 Y169.193 E.68227
G1 X107.119 Y167.932 E.06785
G1 X107.222 Y167.692 E.01346
G1 X107.826 Y166.649 E.0622
G1 X107.996 Y166.427 E.01449
G1 X108.821 Y165.598 E.06035
G1 X109.054 Y165.42 E.01512
G1 X110.059 Y164.848 E.05967
G1 X110.65 Y164.658 E.03204
G1 X111.447 Y164.456 E.04245
G1 X112.055 Y164.425 E.0314
G1 X112.944 Y164.432 E.04588
G1 X113.503 Y164.542 E.02942
G1 X114.48 Y164.792 E.05204
G1 X163.852 Y183.561 E2.72632
G1 X165.559 Y184.286 E.09577
G1 X166.801 Y184.982 E.07347
G1 X167.69 Y185.736 E.06015
G1 X167.935 Y186.049 E.02054
G1 X168.186 Y186.777 E.0397
G1 X168.235 Y187.198 E.0219
G1 X168.129 Y187.587 E.02078
G1 X168.052 Y187.69 E.00666
G1 X167.683 Y187.468 F9000
G1 F1800
G1 X167.289 Y187.98 E.03335
G1 X167.009 Y188.181 E.01781
G1 X166.067 Y188.533 E.05189
G1 X164.614 Y188.746 E.07583
G1 X162.792 Y188.81 E.0941
G1 X110.275 Y188.656 E2.71072
G1 X108.913 Y188.498 E.07079
G1 X107.621 Y188.02 E.07108
G1 X106.501 Y187.233 E.07069
G1 X105.705 Y186.283 E.06395
G1 X105.215 Y185.28 E.05763
G1 X105.066 Y184.907 E.02073
G1 X104.836 Y183.635 E.0667
G1 X104.917 Y182.266 E.07079
G1 X107.175 Y169.292 E.67974
G1 X107.559 Y167.979 E.07065
G1 X108.245 Y166.794 E.07065
G1 X109.193 Y165.843 E.06931
G1 X110.274 Y165.227 E.06425
G1 X110.757 Y165.08 E.02601
G1 X111.554 Y164.879 E.04245
G1 X112.84 Y164.867 E.0664
G1 X113.098 Y164.888 E.01334
G1 X114.348 Y165.208 E.06659
G1 X163.689 Y183.965 E2.72462
G1 X165.367 Y184.677 E.0941
G1 X166.587 Y185.362 E.07223
G1 X167.401 Y186.062 E.05541
G1 X167.548 Y186.25 E.01233
G1 X167.771 Y186.911 E.03596
G1 X167.801 Y187.163 E.01314
G1 X167.737 Y187.397 E.01247
G1 X167.707 Y187.436 E.00257
G1 X167.345 Y187.207 F9000
;TYPE:Outer wall
G1 F1800
G1 X166.95 Y187.706 E.0329
G1 X166.856 Y187.773 E.00594
G1 X165.958 Y188.109 E.04949
G1 X164.574 Y188.312 E.07219
G1 X162.785 Y188.375 E.09243
G1 X110.301 Y188.221 E2.70902
G1 X109.015 Y188.071 E.06682
G1 X107.825 Y187.631 E.06547
G1 X106.798 Y186.909 E.06483
G1 X106.038 Y186.003 E.06101
G1 X105.61 Y185.097 E.05175
G1 X105.494 Y184.829 E.01505
G1 X105.273 Y183.609 E.064
G1 X105.351 Y182.317 E.06683
G1 X107.6 Y169.391 E.6772
G1 X107.963 Y168.151 E.06667
G1 X108.594 Y167.061 E.06501
G1 X109.46 Y166.192 E.06333
G1 X110.49 Y165.605 E.0612
G1 X111.661 Y165.301 E.06244
G1 X112.837 Y165.302 E.06073
G1 X113.287 Y165.386 E.02359
G1 X114.216 Y165.624 E.04951
G1 X163.526 Y184.369 E2.72292
G1 X165.175 Y185.069 E.09243
G1 X166.374 Y185.742 E.07099
G1 X167.113 Y186.389 E.05067
G1 X167.176 Y186.485 E.00594
G1 X167.357 Y187.045 E.03036
G1 X167.348 Y187.167 E.00632
G1 E-1 F5100
G1 Z.7 F9000
G1 X128.233 Y164.278 Z.7
G1 Z.3
G1 E1 F3900
;TYPE:Inner wall
G1 F1800
G1 X128.08 Y164.298 E.00799
G1 X126.936 Y164.276 E.05904
G1 X126.67 Y164.238 E.01387
G1 X125.423 Y163.897 E.06671
G1 X115.399 Y159.935 E.55637
G1 X114.222 Y159.324 E.06845
G1 X113.693 Y158.947 E.03352
G1 X112.894 Y158.295 E.05322
G1 X112.537 Y157.9 E.0275
G1 X111.785 Y157.005 E.06033
G1 X110.989 Y155.607 E.08306
G1 X110.46 Y154.096 E.08261
G1 X110.227 Y152.537 E.08135
G1 X110.304 Y151.061 E.07628
G1 X112.604 Y136.733 E.74903
G1 X112.995 Y135.312 E.07607
G1 X113.713 Y133.926 E.08054
G1 X114.701 Y132.699 E.08136
G1 X115.914 Y131.682 E.08166
G1 X117.295 Y130.923 E.08136
G1 X118.785 Y130.459 E.08054
G1 X120.233 Y130.324 E.07506
G1 X126.67 Y130.427 E.33228
G1 X128.059 Y130.6 E.07225
G1 X128.657 Y130.793 E.03247
G1 X129.608 Y131.145 E.05235
G1 X130.877 Y131.983 E.07844
G1 X131.921 Y133.085 E.0784
G1 X132.688 Y134.397 E.07844
G1 X133.139 Y135.851 E.07856
G1 X133.247 Y137.309 E.07547
G1 X132.407 Y159.341 E1.138
G1 X132.216 Y160.619 E.06671
G1 X132.144 Y160.878 E.01387
G1 X131.703 Y161.933 E.05904
G1 X131.544 Y162.199 E.01599
G1 X130.867 Y163.036 E.05559
G1 X130.615 Y163.262 E.01745
G1 X129.734 Y163.837 E.0543
G1 X129.426 Y163.976 E.01745
G1 X128.387 Y164.259 E.05559
G1 X128.273 Y164.274 E.00593
G1 X128.242 Y163.847 F9000
G1 F1800
G1 X128.182 Y163.864 E.00323
G1 X126.863 Y163.839 E.06808
G1 X125.561 Y163.483 E.06967
G1 X115.559 Y159.53 E.55514
G1 X114.424 Y158.938 E.06604
G1 X113.969 Y158.609 E.02902
G1 X113.122 Y157.919 E.0564
G1 X112.144 Y156.755 E.07845
G1 X111.387 Y155.426 E.07898
G1 X110.885 Y153.991 E.07845
G1 X110.665 Y152.516 E.07697
G1 X110.738 Y151.107 E.07281
G1 X113.031 Y136.826 E.7466
G1 X113.403 Y135.472 E.07248
G1 X114.08 Y134.166 E.07592
G1 X115.014 Y133.005 E.0769
G1 X116.161 Y132.044 E.07725
G1 X117.467 Y131.326 E.0769
G1 X118.871 Y130.888 E.07592
G1 X120.25 Y130.76 E.07147
G1 X126.663 Y130.863 E.33105
G1 X128.003 Y131.032 E.06972
G1 X129.41 Y131.536 E.07717
G1 X130.595 Y132.318 E.07327
G1 X131.57 Y133.349 E.07322
G1 X132.286 Y134.574 E.07328
G1 X132.708 Y135.933 E.07343
G1 X132.811 Y137.317 E.07165
G1 X131.972 Y159.3 E1.13549
G1 X131.773 Y160.635 E.06967
G1 X131.317 Y161.727 E.06109
G1 X131.206 Y161.925 E.01172
G1 X130.528 Y162.762 E.05559
G1 X130.377 Y162.898 E.01047
G1 X129.496 Y163.473 E.0543
G1 X129.311 Y163.556 E.01047
G1 X128.281 Y163.837 E.05514
G1 X128.127 Y163.427 F9000
;TYPE:Outer wall
G1 F1800
G1 X126.926 Y163.404 E.06205
G1 X125.699 Y163.069 E.06563
G1 X115.719 Y159.125 E.5539
G1 X114.519 Y158.496 E.06991
G1 X113.429 Y157.607 E.07262
G1 X112.503 Y156.505 E.07429
G1 X111.785 Y155.244 E.07489
G1 X111.31 Y153.886 E.07429
G1 X111.102 Y152.495 E.07259
G1 X111.172 Y151.153 E.06934
G1 X113.457 Y136.918 E.74416
G1 X113.811 Y135.631 E.06889
G1 X114.446 Y134.405 E.0713
G1 X115.326 Y133.311 E.07244
G1 X116.408 Y132.405 E.07285
G1 X117.638 Y131.729 E.07245
G1 X118.957 Y131.318 E.0713
G1 X120.266 Y131.196 E.06789
G1 X126.656 Y131.298 E.32983
G1 X127.947 Y131.464 E.06718
G1 X129.211 Y131.927 E.06952
G1 X130.313 Y132.654 E.06813
G1 X131.219 Y133.612 E.06805
G1 X131.885 Y134.751 E.06811
G1 X132.277 Y136.015 E.06829
G1 X132.375 Y137.325 E.06783
G1 X131.538 Y159.259 E1.13299
G1 X131.35 Y160.517 E.06563
G1 X130.887 Y161.626 E.06205
G1 X130.168 Y162.514 E.05897
G1 X129.23 Y163.126 E.05784
G1 X128.166 Y163.417 E.0569
G1 E-1 F5100
G1 Z.7 F9000
G1 X129.999 Y45.861 Z.7
G1 Z.3
G1 E1 F3900
;TYPE:Inner wall
G1 F1800
G1 X130.206 Y45.907 E.01095
G1 X130.459 Y46.057 E.0152
G1 X131.177 Y46.813 E.05383
G1 X131.395 Y47.138 E.0202
G1 X131.921 Y49.092 E.10444
G1 X132.282 Y52 E.15126
G1 X132.497 Y55.791 E.19598
G1 X133.624 Y89.06 E1.71821
G1 X133.519 Y90.388 E.06878
G1 X133.471 Y90.634 E.01292
G1 X133.089 Y91.831 E.06484
G1 X132.982 Y92.064 E.01322
G1 X132.337 Y93.128 E.06424
G1 X132.177 Y93.332 E.0134
G1 X131.301 Y94.211 E.06403
G1 X131.097 Y94.371 E.0134
G1 X130.035 Y95.02 E.06424
G1 X129.802 Y95.127 E.01322
G1 X128.607 Y95.513 E.06484
G1 X127.728 Y95.614 E.04566
G1 X127.095 Y95.666 E.0328
G1 X125.622 Y95.627 E.07602
G1 X124.526 Y95.469 E.05716
G1 X124.066 Y95.371 E.02427
G1 X122.93 Y94.917 E.06316
G1 X122.692 Y94.785 E.01402
G1 X121.726 Y94.079 E.06178
G1 X121.522 Y93.886 E.01447
G1 X120.774 Y92.964 E.06128
G1 X120.627 Y92.726 E.01447
G1 X120.135 Y91.635 E.06178
G1 X120.055 Y91.375 E.01403
G1 X119.843 Y90.17 E.06316
G1 X119.829 Y89.913 E.01328
G1 X119.913 Y88.594 E.06819
G1 X125.834 Y55.316 E1.74466
G1 X126.584 Y51.594 E.19598
G1 X127.353 Y48.767 E.15126
G1 X128.097 Y47.033 E.09737
G1 X128.234 Y46.799 E.01399
G1 X129.096 Y46.063 E.05849
G1 X129.402 Y45.889 E.01821
G1 X129.823 Y45.821 E.02198
G1 X129.96 Y45.852 E.00724
G1 X129.827 Y46.277 F9000
G1 F1800
G1 X129.962 Y46.282 E.00696
G1 X130.188 Y46.398 E.01311
G1 X130.858 Y47.109 E.05044
G1 X131.01 Y47.384 E.01619
G1 X131.493 Y49.176 E.0958
G1 X131.848 Y52.039 E.14893
G1 X132.062 Y55.81 E.19497
G1 X133.188 Y89.05 E1.71669
G1 X133.079 Y90.429 E.07141
G1 X132.65 Y91.772 E.07274
G1 X131.924 Y92.969 E.07229
G1 X130.937 Y93.959 E.07212
G1 X129.742 Y94.688 E.07229
G1 X128.473 Y95.098 E.06884
G1 X127.059 Y95.232 E.07331
G1 X125.66 Y95.192 E.07222
G1 X124.588 Y95.037 E.05589
G1 X124.151 Y94.936 E.0232
G1 X123.015 Y94.482 E.06311
G1 X121.914 Y93.677 E.0704
