; HEADER_BLOCK_START
; generated by OrcaSlicer 2.2.0 on 2025-02-19 at 06:49:16
; total layer number: 4
; filament_density: 1.24
; filament_diameter: 1.75
; max_z_height: 0.85
; HEADER_BLOCK_END

; THUMBNAIL_BLOCK_START

;
; THUMBNAIL_BLOCK_END

; THUMBNAIL_BLOCK_START

;
; THUMBNAIL_BLOCK_END

; external perimeters extrusion width = 0.50mm
; perimeters extrusion width = 0.50mm
; infill extrusion width = 0.50mm
; solid infill extrusion width = 0.50mm
; top infill extrusion width = 0.50mm
; first layer extrusion width = 0.56mm

; EXECUTABLE_BLOCK_START


; Pre-Processed for Cancel-Object support by preprocess_cancellation v0.2.0
; 1 known objects
EXCLUDE_OBJECT_DEFINE NAME=Cube_id_4617315517961601024_copy_0 CENTER=67.958,79.985 POLYGON=[[65.711,77.757],[65.711,82.257],[70.211,82.257],[70.211,77.757]]
M73 P0 R7
;TYPE:Custom
G28 ; home all axis
G90 ; use absolute coordinates
M83 ; extruder relative mode
led_heating
;M140 S70 ; set final bed temp
M104 S150 ; set temporary nozzle temp to prevent oozing during homing
G4 S10 ; allow partial nozzle warmup
M190 S70 ; wait for bed temp to stabilize
BED_MESH_CALIBRATE

G1 Z50 F240
G1 X2 Y10 F3000
M73 P2 R6
M104 S225 ; set final nozzle temp
;M190 S70 ; wait for bed temp to stabilize
M109 S225 ; wait for nozzle temp to stabilize
led_printing
M73 P2 R6
G1 Z0.28 F240
M73 P3 R6
LINE_PURGE
G92 E0
G90
G21
M83 ; use relative distances for extrusion
; filament start gcode
SET_PRESSURE_ADVANCE ADVANCE=0.04; Override pressure advance value
M106 S0
;LAYER_CHANGE
;Z:0.25
;HEIGHT:0.25
;BEFORE_LAYER_CHANGE
;0.25
G92 E0

;_SET_FAN_SPEED_CHANGING_LAYER
SET_VELOCITY_LIMIT ACCEL=5000 ACCEL_TO_DECEL=2500
;CUSTOM_GCODE
; start pressure advance pattern for layer
M73 P3 R6
G1 E-1 F5100 ; retract
M73 P5 R6
M73 P5 R6
G1 X65.461 Y84.507 F9000 ; Move to start XY position
G1 E1 F3900 ;  ; unretract
M73 P6 R6
M73 P6 R6
G1 Z.25 F9000 ; Move to start Z position
SET_PRESSURE_ADVANCE ADVANCE=0; Override pressure advance value
G1 E-1 F5100 ; retract
G1 X65.461 Y84.507 F9000 ; Move to box start
G1 E1 F3900 ;  ; unretract
G1 F1800
G1 X65.461 Y126.933 E2.1882 ; Draw perimeter (up)

G1 X149.539 Y126.933 E4.33647 ; Draw perimeter (right)

G1 X149.539 Y84.507 E2.1882 ; Draw perimeter (down)
M73 P7 R6

M73 P7 R6
G1 X65.461 Y84.507 E4.33647 ; Draw perimeter (left)
G1 E-1 F5100 ; retract
M73 P8 R6
M73 P8 R6
G1 X65.967 Y85.013 F9000 ; Step inwards to print next perimeter
G1 E1 F3900 ;  ; unretract
G1 F1800
G1 X65.967 Y126.427 E2.13597 ; Draw perimeter (up)

G1 X149.033 Y126.427 E4.28424 ; Draw perimeter (right)

G1 X149.033 Y85.013 E2.13597 ; Draw perimeter (down)
M73 P9 R6

M73 P9 R6
G1 X65.967 Y85.013 E4.28424 ; Draw perimeter (left)
G1 E-1 F5100 ; retract
M73 P10 R6
M73 P10 R6
G1 X66.473 Y85.519 F9000 ; Step inwards to print next perimeter
G1 E1 F3900 ;  ; unretract
G1 F1800
G1 X66.473 Y125.921 E2.08374 ; Draw perimeter (up)

G1 X148.527 Y125.921 E4.23201 ; Draw perimeter (right)

G1 X148.527 Y85.519 E2.08374 ; Draw perimeter (down)
M73 P11 R6

M73 P11 R6
G1 X66.473 Y85.519 E4.23201 ; Draw perimeter (left)
G1 E-1 F5100 ; retract
M73 P12 R6
M73 P12 R6
G1 X65.461 Y127.44 F9000 ; Move to box start
G1 E1 F3900 ;  ; unretract
G1 F1800
G1 X65.461 Y140.946 E.69661 ; Draw perimeter (up)

G1 X149.539 Y140.946 E4.33647 ; Draw perimeter (right)

G1 X149.539 Y127.44 E.69661 ; Draw perimeter (down)

G1 X65.461 Y127.44 E4.33647 ; Draw perimeter (left)
M73 P13 R6
M73 P13 R6
G1 E-1 F5100 ; retract
G1 X65.967 Y127.946 F9000 ; Step inwards to print next perimeter
G1 E1 F3900 ;  ; unretract
G1 F1800
G1 X65.967 Y140.44 E.64438 ; Draw perimeter (up)

G1 X149.033 Y140.44 E4.28424 ; Draw perimeter (right)

G1 X149.033 Y127.946 E.64438 ; Draw perimeter (down)
M73 P14 R6

M73 P14 R6
G1 X65.967 Y127.946 E4.28424 ; Draw perimeter (left)
G1 E-1 F5100 ; retract
M73 P15 R5
M73 P15 R5
G1 X66.473 Y128.452 F9000 ; Step inwards to print next perimeter
G1 E1 F3900 ;  ; unretract
G1 F1800
G1 X66.473 Y139.933 E.59215 ; Draw perimeter (up)

G1 X148.527 Y139.933 E4.23201 ; Draw perimeter (right)

G1 X148.527 Y128.452 E.59215 ; Draw perimeter (down)
M73 P16 R5

M73 P16 R5
G1 X66.473 Y128.452 E4.23201 ; Draw perimeter (left)
G1 E-1 F5100 ; retract
G1 X66.847 Y128.826 F9000 ; Move to fill start
G1 E1 F3900 ;  ; unretract
G1 E-1 F5100 ; retract
G1 X67.563 Y128.826 F9000 ; Fill: Step right
G1 E1 F3900 ;  ; unretract
G1 F1800
G1 X66.847 Y129.542 E.05223 ; Fill: Print up/left
G1 E-1 F5100 ; retract
G1 X66.847 Y130.258 F9000 ; Fill: Step up
G1 E1 F3900 ;  ; unretract
G1 F1800
G1 X68.279 Y128.826 E.10446 ; Fill: Print down/right
G1 E-1 F5100 ; retract
G1 X68.995 Y128.826 F9000 ; Fill: Step right
G1 E1 F3900 ;  ; unretract
G1 F1800
G1 X66.847 Y130.974 E.15669 ; Fill: Print up/left
G1 E-1 F5100 ; retract
G1 X66.847 Y131.69 F9000 ; Fill: Step up
G1 E1 F3900 ;  ; unretract
G1 F1800
G1 X69.711 Y128.826 E.20893 ; Fill: Print down/right
G1 E-1 F5100 ; retract
G1 X70.427 Y128.826 F9000 ; Fill: Step right
G1 E1 F3900 ;  ; unretract
G1 F1800
G1 X66.847 Y132.406 E.26116 ; Fill: Print up/left
G1 E-1 F5100 ; retract
M73 P17 R5
M73 P17 R5
G1 X66.847 Y133.122 F9000 ; Fill: Step up
G1 E1 F3900 ;  ; unretract
G1 F1800
G1 X71.143 Y128.826 E.31339 ; Fill: Print down/right
G1 E-1 F5100 ; retract
G1 X71.859 Y128.826 F9000 ; Fill: Step right
G1 E1 F3900 ;  ; unretract
G1 F1800
G1 X66.847 Y133.838 E.36562 ; Fill: Print up/left
G1 E-1 F5100 ; retract
G1 X66.847 Y134.554 F9000 ; Fill: Step up
G1 E1 F3900 ;  ; unretract
G1 F1800
G1 X72.575 Y128.826 E.41785 ; Fill: Print down/right
G1 E-1 F5100 ; retract
G1 X73.291 Y128.826 F9000 ; Fill: Step right
G1 E1 F3900 ;  ; unretract
G1 F1800
G1 X66.847 Y135.27 E.47008 ; Fill: Print up/left
G1 E-1 F5100 ; retract
G1 X66.847 Y135.986 F9000 ; Fill: Step up
G1 E1 F3900 ;  ; unretract
G1 F1800
G1 X74.008 Y128.826 E.52231 ; Fill: Print down/right
G1 E-1 F5100 ; retract
G1 X74.724 Y128.826 F9000 ; Fill: Step right
G1 E1 F3900 ;  ; unretract
G1 F1800
G1 X66.847 Y136.703 E.57454 ; Fill: Print up/left
G1 E-1 F5100 ; retract
G1 X66.847 Y137.419 F9000 ; Fill: Step up
G1 E1 F3900 ;  ; unretract
G1 F1800
G1 X75.44 Y128.826 E.62678 ; Fill: Print down/right
G1 E-1 F5100 ; retract
G1 X76.156 Y128.826 F9000 ; Fill: Step right
G1 E1 F3900 ;  ; unretract
G1 F1800
G1 X66.847 Y138.135 E.67901 ; Fill: Print up/left
G1 E-1 F5100 ; retract
G1 X66.847 Y138.851 F9000 ; Fill: Step up
G1 E1 F3900 ;  ; unretract
G1 F1800
G1 X76.872 Y128.826 E.73124 ; Fill: Print down/right
G1 E-1 F5100 ; retract
G1 X77.588 Y128.826 F9000 ; Fill: Step right
G1 E1 F3900 ;  ; unretract
G1 F1800
G1 X66.854 Y139.56 E.78296 ; Fill: Print up/left
G1 E-1 F5100 ; retract
M73 P18 R5
M73 P18 R5
G1 X67.57 Y139.56 F9000 ; Fill: Step right
G1 E1 F3900 ;  ; unretract
G1 F1800
G1 X78.304 Y128.826 E.78296 ; Fill: Print down/right
G1 E-1 F5100 ; retract
G1 X79.02 Y128.826 F9000 ; Fill: Step right
G1 E1 F3900 ;  ; unretract
G1 F1800
G1 X68.286 Y139.56 E.78296 ; Fill: Print up/left
G1 E-1 F5100 ; retract
G1 X69.002 Y139.56 F9000 ; Fill: Step right
G1 E1 F3900 ;  ; unretract
G1 F1800
G1 X79.736 Y128.826 E.78296 ; Fill: Print down/right
G1 E-1 F5100 ; retract
G1 X80.452 Y128.826 F9000 ; Fill: Step right
G1 E1 F3900 ;  ; unretract
G1 F1800
G1 X69.718 Y139.56 E.78296 ; Fill: Print up/left
G1 E-1 F5100 ; retract
G1 X70.434 Y139.56 F9000 ; Fill: Step right
G1 E1 F3900 ;  ; unretract
G1 F1800
G1 X81.168 Y128.826 E.78296 ; Fill: Print down/right
G1 E-1 F5100 ; retract
G1 X81.885 Y128.826 F9000 ; Fill: Step right
G1 E1 F3900 ;  ; unretract
G1 F1800
G1 X71.15 Y139.56 E.78296 ; Fill: Print up/left
G1 E-1 F5100 ; retract
G1 X71.866 Y139.56 F9000 ; Fill: Step right
G1 E1 F3900 ;  ; unretract
G1 F1800
M73 P19 R5
M73 P19 R5
G1 X82.601 Y128.826 E.78296 ; Fill: Print down/right
G1 E-1 F5100 ; retract
G1 X83.317 Y128.826 F9000 ; Fill: Step right
G1 E1 F3900 ;  ; unretract
G1 F1800
G1 X72.582 Y139.56 E.78296 ; Fill: Print up/left
G1 E-1 F5100 ; retract
G1 X73.298 Y139.56 F9000 ; Fill: Step right
G1 E1 F3900 ;  ; unretract
G1 F1800
G1 X84.033 Y128.826 E.78296 ; Fill: Print down/right
G1 E-1 F5100 ; retract
G1 X84.749 Y128.826 F9000 ; Fill: Step right
G1 E1 F3900 ;  ; unretract
G1 F1800
G1 X74.015 Y139.56 E.78296 ; Fill: Print up/left
G1 E-1 F5100 ; retract
G1 X74.731 Y139.56 F9000 ; Fill: Step right
G1 E1 F3900 ;  ; unretract
G1 F1800
G1 X85.465 Y128.826 E.78296 ; Fill: Print down/right
G1 E-1 F5100 ; retract
G1 X86.181 Y128.826 F9000 ; Fill: Step right
G1 E1 F3900 ;  ; unretract
G1 F1800
G1 X75.447 Y139.56 E.78296 ; Fill: Print up/left
G1 E-1 F5100 ; retract
G1 X76.163 Y139.56 F9000 ; Fill: Step right
G1 E1 F3900 ;  ; unretract
G1 F1800
G1 X86.897 Y128.826 E.78296 ; Fill: Print down/right
G1 E-1 F5100 ; retract
G1 X87.613 Y128.826 F9000 ; Fill: Step right
M73 P20 R5
M73 P20 R5
G1 E1 F3900 ;  ; unretract
G1 F1800
G1 X76.879 Y139.56 E.78296 ; Fill: Print up/left
G1 E-1 F5100 ; retract
G1 X77.595 Y139.56 F9000 ; Fill: Step right
G1 E1 F3900 ;  ; unretract
G1 F1800
G1 X88.329 Y128.826 E.78296 ; Fill: Print down/right
G1 E-1 F5100 ; retract
G1 X89.045 Y128.826 F9000 ; Fill: Step right
G1 E1 F3900 ;  ; unretract
G1 F1800
G1 X78.311 Y139.56 E.78296 ; Fill: Print up/left
G1 E-1 F5100 ; retract
G1 X79.027 Y139.56 F9000 ; Fill: Step right
G1 E1 F3900 ;  ; unretract
G1 F1800
G1 X89.761 Y128.826 E.78296 ; Fill: Print down/right
G1 E-1 F5100 ; retract
G1 X90.478 Y128.826 F9000 ; Fill: Step right
G1 E1 F3900 ;  ; unretract
G1 F1800
G1 X79.743 Y139.56 E.78296 ; Fill: Print up/left
G1 E-1 F5100 ; retract
G1 X80.459 Y139.56 F9000 ; Fill: Step right
G1 E1 F3900 ;  ; unretract
G1 F1800
G1 X91.194 Y128.826 E.78296 ; Fill: Print down/right
G1 E-1 F5100 ; retract
G1 X91.91 Y128.826 F9000 ; Fill: Step right
G1 E1 F3900 ;  ; unretract
G1 F1800
G1 X81.175 Y139.56 E.78296 ; Fill: Print up/left
G1 E-1 F5100 ; retract
M73 P21 R5
M73 P21 R5
G1 X81.892 Y139.56 F9000 ; Fill: Step right
G1 E1 F3900 ;  ; unretract
G1 F1800
G1 X92.626 Y128.826 E.78296 ; Fill: Print down/right
G1 E-1 F5100 ; retract
G1 X93.342 Y128.826 F9000 ; Fill: Step right
G1 E1 F3900 ;  ; unretract
G1 F1800
G1 X82.608 Y139.56 E.78296 ; Fill: Print up/left
G1 E-1 F5100 ; retract
G1 X83.324 Y139.56 F9000 ; Fill: Step right
G1 E1 F3900 ;  ; unretract
G1 F1800
G1 X94.058 Y128.826 E.78296 ; Fill: Print down/right
G1 E-1 F5100 ; retract
G1 X94.774 Y128.826 F9000 ; Fill: Step right
G1 E1 F3900 ;  ; unretract
G1 F1800
G1 X84.04 Y139.56 E.78296 ; Fill: Print up/left
G1 E-1 F5100 ; retract
G1 X84.756 Y139.56 F9000 ; Fill: Step right
G1 E1 F3900 ;  ; unretract
G1 F1800
G1 X95.49 Y128.826 E.78296 ; Fill: Print down/right
G1 E-1 F5100 ; retract
G1 X96.206 Y128.826 F9000 ; Fill: Step right
G1 E1 F3900 ;  ; unretract
G1 F1800
G1 X85.472 Y139.56 E.78296 ; Fill: Print up/left
G1 E-1 F5100 ; retract
G1 X86.188 Y139.56 F9000 ; Fill: Step right
G1 E1 F3900 ;  ; unretract
G1 F1800
G1 X96.922 Y128.826 E.78296 ; Fill: Print down/right
G1 E-1 F5100 ; retract
M73 P22 R5
M73 P22 R5
G1 X97.638 Y128.826 F9000 ; Fill: Step right
G1 E1 F3900 ;  ; unretract
G1 F1800
G1 X86.904 Y139.56 E.78296 ; Fill: Print up/left
G1 E-1 F5100 ; retract
G1 X87.62 Y139.56 F9000 ; Fill: Step right
G1 E1 F3900 ;  ; unretract
G1 F1800
G1 X98.354 Y128.826 E.78296 ; Fill: Print down/right
G1 E-1 F5100 ; retract
G1 X99.071 Y128.826 F9000 ; Fill: Step right
G1 E1 F3900 ;  ; unretract
G1 F1800
G1 X88.336 Y139.56 E.78296 ; Fill: Print up/left
G1 E-1 F5100 ; retract
G1 X89.052 Y139.56 F9000 ; Fill: Step right
G1 E1 F3900 ;  ; unretract
G1 F1800
G1 X99.787 Y128.826 E.78296 ; Fill: Print down/right
G1 E-1 F5100 ; retract
G1 X100.503 Y128.826 F9000 ; Fill: Step right
G1 E1 F3900 ;  ; unretract
G1 F1800
G1 X89.768 Y139.56 E.78296 ; Fill: Print up/left
G1 E-1 F5100 ; retract
G1 X90.485 Y139.56 F9000 ; Fill: Step right
G1 E1 F3900 ;  ; unretract
G1 F1800
G1 X101.219 Y128.826 E.78296 ; Fill: Print down/right
G1 E-1 F5100 ; retract
G1 X101.935 Y128.826 F9000 ; Fill: Step right
G1 E1 F3900 ;  ; unretract
G1 F1800
G1 X91.201 Y139.56 E.78296 ; Fill: Print up/left
G1 E-1 F5100 ; retract
M73 P23 R5
M73 P23 R5
G1 X91.917 Y139.56 F9000 ; Fill: Step right
G1 E1 F3900 ;  ; unretract
G1 F1800
G1 X102.651 Y128.826 E.78296 ; Fill: Print down/right
G1 E-1 F5100 ; retract
G1 X103.367 Y128.826 F9000 ; Fill: Step right
G1 E1 F3900 ;  ; unretract
G1 F1800
G1 X92.633 Y139.56 E.78296 ; Fill: Print up/left
G1 E-1 F5100 ; retract
G1 X93.349 Y139.56 F9000 ; Fill: Step right
G1 E1 F3900 ;  ; unretract
G1 F1800
G1 X104.083 Y128.826 E.78296 ; Fill: Print down/right
G1 E-1 F5100 ; retract
G1 X104.799 Y128.826 F9000 ; Fill: Step right
G1 E1 F3900 ;  ; unretract
G1 F1800
G1 X94.065 Y139.56 E.78296 ; Fill: Print up/left
G1 E-1 F5100 ; retract
G1 X94.781 Y139.56 F9000 ; Fill: Step right
G1 E1 F3900 ;  ; unretract
G1 F1800
G1 X105.515 Y128.826 E.78296 ; Fill: Print down/right
G1 E-1 F5100 ; retract
G1 X106.231 Y128.826 F9000 ; Fill: Step right
G1 E1 F3900 ;  ; unretract
G1 F1800
G1 X95.497 Y139.56 E.78296 ; Fill: Print up/left
G1 E-1 F5100 ; retract
G1 X96.213 Y139.56 F9000 ; Fill: Step right
G1 E1 F3900 ;  ; unretract
G1 F1800
G1 X106.948 Y128.826 E.78296 ; Fill: Print down/right
G1 E-1 F5100 ; retract
M73 P24 R5
M73 P24 R5
G1 X107.664 Y128.826 F9000 ; Fill: Step right
G1 E1 F3900 ;  ; unretract
G1 F1800
G1 X96.929 Y139.56 E.78296 ; Fill: Print up/left
G1 E-1 F5100 ; retract
G1 X97.645 Y139.56 F9000 ; Fill: Step right
G1 E1 F3900 ;  ; unretract
G1 F1800
G1 X108.38 Y128.826 E.78296 ; Fill: Print down/right
G1 E-1 F5100 ; retract
G1 X109.096 Y128.826 F9000 ; Fill: Step right
G1 E1 F3900 ;  ; unretract
G1 F1800
G1 X98.362 Y139.56 E.78296 ; Fill: Print up/left
G1 E-1 F5100 ; retract
G1 X99.078 Y139.56 F9000 ; Fill: Step right
G1 E1 F3900 ;  ; unretract
G1 F1800
G1 X109.812 Y128.826 E.78296 ; Fill: Print down/right
G1 E-1 F5100 ; retract
G1 X110.528 Y128.826 F9000 ; Fill: Step right
G1 E1 F3900 ;  ; unretract
G1 F1800
G1 X99.794 Y139.56 E.78296 ; Fill: Print up/left
G1 E-1 F5100 ; retract
G1 X100.51 Y139.56 F9000 ; Fill: Step right
G1 E1 F3900 ;  ; unretract
G1 F1800
G1 X111.244 Y128.826 E.78296 ; Fill: Print down/right
G1 E-1 F5100 ; retract
G1 X111.96 Y128.826 F9000 ; Fill: Step right
G1 E1 F3900 ;  ; unretract
G1 F1800
G1 X101.226 Y139.56 E.78296 ; Fill: Print up/left
G1 E-1 F5100 ; retract
M73 P25 R5
M73 P25 R5
G1 X101.942 Y139.56 F9000 ; Fill: Step right
G1 E1 F3900 ;  ; unretract
G1 F1800
G1 X112.676 Y128.826 E.78296 ; Fill: Print down/right
G1 E-1 F5100 ; retract
G1 X113.392 Y128.826 F9000 ; Fill: Step right
G1 E1 F3900 ;  ; unretract
G1 F1800
G1 X102.658 Y139.56 E.78296 ; Fill: Print up/left
G1 E-1 F5100 ; retract
G1 X103.374 Y139.56 F9000 ; Fill: Step right
G1 E1 F3900 ;  ; unretract
G1 F1800
G1 X114.108 Y128.826 E.78296 ; Fill: Print down/right
G1 E-1 F5100 ; retract
G1 X114.824 Y128.826 F9000 ; Fill: Step right
G1 E1 F3900 ;  ; unretract
G1 F1800
G1 X104.09 Y139.56 E.78296 ; Fill: Print up/left
G1 E-1 F5100 ; retract
G1 X104.806 Y139.56 F9000 ; Fill: Step right
G1 E1 F3900 ;  ; unretract
G1 F1800
G1 X115.541 Y128.826 E.78296 ; Fill: Print down/right
G1 E-1 F5100 ; retract
G1 X116.257 Y128.826 F9000 ; Fill: Step right
G1 E1 F3900 ;  ; unretract
G1 F1800
G1 X105.522 Y139.56 E.78296 ; Fill: Print up/left
G1 E-1 F5100 ; retract
G1 X106.238 Y139.56 F9000 ; Fill: Step right
G1 E1 F3900 ;  ; unretract
G1 F1800
G1 X116.973 Y128.826 E.78296 ; Fill: Print down/right
G1 E-1 F5100 ; retract
M73 P26 R5
M73 P26 R5
G1 X117.689 Y128.826 F9000 ; Fill: Step right
G1 E1 F3900 ;  ; unretract
G1 F1800
G1 X106.955 Y139.56 E.78296 ; Fill: Print up/left
G1 E-1 F5100 ; retract
G1 X107.671 Y139.56 F9000 ; Fill: Step right
G1 E1 F3900 ;  ; unretract
G1 F1800
G1 X118.405 Y128.826 E.78296 ; Fill: Print down/right
G1 E-1 F5100 ; retract
G1 X119.121 Y128.826 F9000 ; Fill: Step right
G1 E1 F3900 ;  ; unretract
G1 F1800
G1 X108.387 Y139.56 E.78296 ; Fill: Print up/left
G1 E-1 F5100 ; retract
G1 X109.103 Y139.56 F9000 ; Fill: Step right
G1 E1 F3900 ;  ; unretract
G1 F1800
G1 X119.837 Y128.826 E.78296 ; Fill: Print down/right
G1 E-1 F5100 ; retract
G1 X120.553 Y128.826 F9000 ; Fill: Step right
