; HEADER_BLOCK_START
; generated by OrcaSlicer 2.2.0 on 2025-02-18 at 10:57:28
; total layer number: 12
; filament_density: 1.27
; filament_diameter: 1.75
; max_z_height: 3.60
; HEADER_BLOCK_END

; THUMBNAIL_BLOCK_START

;
; THUMBNAIL_BLOCK_END

; THUMBNAIL_BLOCK_START

;
; THUMBNAIL_BLOCK_END

; external perimeters extrusion width = 0.50mm
; perimeters extrusion width = 0.50mm
; infill extrusion width = 0.50mm
; solid infill extrusion width = 0.50mm
; top infill extrusion width = 0.50mm
; first layer extrusion width = 0.50mm

; EXECUTABLE_BLOCK_START


; Pre-Processed for Cancel-Object support by preprocess_cancellation v0.2.0
; 1 known objects
EXCLUDE_OBJECT_DEFINE NAME=Frontplatte_Raspberry_4_stl_id_10304235947423694848_copy_0 CENTER=109.942,111.195 POLYGON=[[90.25,55.75],[90.25,164.25],[129.75,164.25],[129.75,55.75]]
M73 P0 R14
;TYPE:Custom
G28 ; home all axis
G90 ; use absolute coordinates
M83 ; extruder relative mode
led_heating
;M140 S80 ; set final bed temp
M104 S150 ; set temporary nozzle temp to prevent oozing during homing
G4 S10 ; allow partial nozzle warmup
M190 S80 ; wait for bed temp to stabilize
BED_MESH_CALIBRATE

G1 Z50 F240
G1 X2 Y10 F3000
M73 P1 R14
M104 S260 ; set final nozzle temp
;M190 S80 ; wait for bed temp to stabilize
M109 S260 ; wait for nozzle temp to stabilize
led_printing
M73 P1 R14
G1 Z0.28 F240
LINE_PURGE
G92 E0
G90
G21
M83 ; use relative distances for extrusion
; filament start gcode
SET_PRESSURE_ADVANCE ADVANCE=0.04; Override pressure advance value
M106 S0
;LAYER_CHANGE
;Z:0.3
;HEIGHT:0.3
;BEFORE_LAYER_CHANGE
;0.3
G92 E0

;_SET_FAN_SPEED_CHANGING_LAYER
SET_VELOCITY_LIMIT ACCEL=5000 ACCEL_TO_DECEL=2500
; printing object Frontplatte Raspberry 4.stl id:10304235947423694848 copy 0
EXCLUDE_OBJECT_START NAME=Frontplatte_Raspberry_4_stl_id_10304235947423694848_copy_0
G1 E-1 F5100
M73 P2 R14
M73 P2 R14
G1 Z.7 F9000
G1 X118.981 Y159.384
G1 Z.7
G1 Z.3
G1 E1 F3900
;TYPE:Inner wall
;WIDTH:0.5
G1 F1800
G1 X118.945 Y159.549 E.00872
G1 X118.95 Y160.483 E.04821
G1 X119.123 Y161.233 E.03975
G1 X119.442 Y161.934 E.03975
G1 X119.894 Y162.558 E.03975
G1 X120.46 Y163.08 E.03975
G1 X120.923 Y163.379 E.02845
G1 X91.121 Y163.379 E1.53824
M73 P3 R14
M73 P3 R14
G1 X91.121 Y56.621 E5.51041
G1 X120.932 Y56.621 E1.53872
G1 X120.441 Y56.93 E.02993
G1 X119.878 Y57.455 E.03975
G1 X119.43 Y58.082 E.03975
G1 X119.116 Y58.785 E.03975
G1 X118.946 Y59.564 E.04116
G1 X118.95 Y60.498 E.04821
G1 X119.124 Y61.248 E.03975
G1 X119.443 Y61.949 E.03975
G1 X119.894 Y62.573 E.03975
G1 X120.46 Y63.095 E.03975
G1 X120.926 Y63.396 E.0286
G1 X121.227 Y63.537 E.01716
G1 X121.843 Y63.756 E.03377
G1 X122.605 Y63.868 E.03975
G1 X123.374 Y63.828 E.03975
G1 X124.12 Y63.635 E.03975
G1 X124.813 Y63.299 E.03975
G1 X125.425 Y62.832 E.03975
G1 X125.933 Y62.253 E.03975
G1 X126.316 Y61.585 E.03975
G1 X126.563 Y60.821 E.04146
G1 X126.65 Y59.863 E.04963
G1 X126.553 Y59.133 E.03802
G1 X126.306 Y58.404 E.03975
G1 X125.919 Y57.738 E.03975
G1 X125.407 Y57.162 E.03975
G1 X124.974 Y56.817 E.0286
G1 X124.64 Y56.621 E.01996
G1 X128.879 Y56.621 E.21877
G1 X128.879 Y163.379 E5.51041
G1 X124.647 Y163.379 E.21842
M73 P4 R14
M73 P4 R14
G1 X124.812 Y163.283 E.00985
G1 X125.425 Y162.816 E.03975
G1 X125.932 Y162.237 E.03975
G1 X126.315 Y161.569 E.03975
G1 X126.563 Y160.805 E.04146
G1 X126.65 Y159.848 E.04963
G1 X126.553 Y159.117 E.03802
G1 X126.306 Y158.388 E.03975
G1 X125.918 Y157.722 E.03975
G1 X125.407 Y157.147 E.03975
G1 X124.792 Y156.683 E.03975
G1 X124.097 Y156.351 E.03975
G1 X123.35 Y156.164 E.03975
G1 X122.581 Y156.128 E.03975
G1 X121.819 Y156.245 E.03975
G1 X121.097 Y156.511 E.03975
G1 X120.441 Y156.914 E.03975
G1 X119.878 Y157.44 E.03975
G1 X119.43 Y158.066 E.03975
G1 X119.116 Y158.769 E.03975
G1 X118.99 Y159.344 E.03038
G1 E-1 F5100
G1 Z.7 F9000
G1 X119.816 Y163.82 Z.7
G1 Z.3
G1 E1 F3900
G1 F1800
G1 X90.686 Y163.814 E1.50358
G1 X90.686 Y56.186 E5.55538
G1 X121.325 Y56.186 E1.58147
;WIDTH:0.512471
G1 X122.057 Y56.192 E.03887
G1 X122.78 Y56.174 E.0384
;WIDTH:0.498037
G1 X123.508 Y56.185 E.03743
;WIDTH:0.5
G1 X129.314 Y56.186 E.2997
G1 X129.314 Y163.814 E5.55538
G1 X123.153 Y163.821 E.31804
M73 P5 R14
;WIDTH:0.487644
M73 P5 R14
G1 X122.428 Y163.821 E.03633
;WIDTH:0.5
G1 X119.856 Y163.82 E.13279
G1 E-1 F5100
G1 Z.7 F9000
G1 X90.25 Y164.25 Z.7
G1 Z.3
G1 E1 F3900
;TYPE:Outer wall
G1 F1800
G1 X90.25 Y55.75 E5.60035
G1 X129.75 Y55.75 E2.03884
G1 X129.75 Y164.25 E5.60035
G1 X90.29 Y164.25 E2.03677
M73 P6 R13
M73 P6 R13
G1 E-1 F5100
G1 Z.7 F9000
G1 X119.401 Y159.47 Z.7
G1 Z.3
G1 E1 F3900
;TYPE:Inner wall
G1 F1800
G1 X119.538 Y158.877 E.03144
G1 X119.823 Y158.255 E.03529
G1 X120.225 Y157.703 E.03529
G1 X120.729 Y157.241 E.03529
G1 X121.314 Y156.888 E.03529
G1 X121.958 Y156.658 E.03529
G1 X122.635 Y156.56 E.03529
G1 X123.317 Y156.598 E.03529
G1 X123.979 Y156.771 E.03529
G1 X124.593 Y157.071 E.03529
G1 X125.135 Y157.487 E.03529
G1 X125.585 Y158.002 E.03529
G1 X125.923 Y158.596 E.03529
G1 X126.137 Y159.246 E.03529
G1 X126.217 Y159.893 E.03365
G1 X126.13 Y160.754 E.04466
G1 X125.906 Y161.42 E.03631
G1 X125.561 Y162.01 E.03529
G1 X125.105 Y162.52 E.03529
G1 X124.558 Y162.93 E.03529
G1 X123.94 Y163.223 E.03529
G1 X123.276 Y163.385 E.03528
;WIDTH:0.494679
G1 X122.594 Y163.408 E.03482
;WIDTH:0.5
G1 X121.918 Y163.311 E.0352
G1 X121.277 Y163.074 E.03529
G1 X120.696 Y162.714 E.03529
G1 X120.198 Y162.246 E.03529
G1 X119.802 Y161.688 E.03529
G1 X119.525 Y161.064 E.03529
G1 X119.377 Y160.396 E.03529
G1 X119.381 Y159.559 E.0432
G1 X119.392 Y159.509 E.00264
G1 X119.817 Y159.566 F9000
;TYPE:Outer wall
G1 F1800
G1 X119.96 Y158.984 E.03091
G1 X120.215 Y158.444 E.03083
G1 X120.572 Y157.966 E.03083
G1 X121.017 Y157.567 E.03083
G1 X121.532 Y157.265 E.03082
G1 X122.097 Y157.071 E.03083
G1 X122.689 Y156.992 E.03083
G1 X123.285 Y157.033 E.03083
G1 X123.861 Y157.19 E.03082
G1 X124.394 Y157.459 E.03083
G1 X124.864 Y157.828 E.03083
G1 X125.251 Y158.282 E.03083
G1 X125.54 Y158.805 E.03083
G1 X125.721 Y159.374 E.03083
G1 X125.784 Y159.938 E.02928
G1 X125.698 Y160.702 E.03969
G1 X125.497 Y161.271 E.03117
G1 X125.189 Y161.783 E.03083
G1 X124.786 Y162.224 E.03083
G1 X124.304 Y162.576 E.03083
G1 X123.761 Y162.826 E.03083
G1 X123.18 Y162.963 E.03083
G1 X122.583 Y162.982 E.03083
G1 X121.994 Y162.882 E.03083
G1 X121.437 Y162.668 E.03083
G1 X120.933 Y162.348 E.03083
G1 X120.502 Y161.934 E.03083
G1 X120.162 Y161.443 E.03083
G1 X119.926 Y160.894 E.03082
G1 X119.804 Y160.31 E.03082
G1 X119.816 Y159.606 E.03634
G1 E-1 F5100
G1 Z.7 F9000
G1 X114.855 Y141.211 Z.7
G1 Z.3
G1 E1 F3900
;TYPE:Inner wall
G1 F1800
G1 X114.732 Y141.339 E.00916
G1 X114.418 Y141.501 E.01822
G1 X114.078 Y141.554 E.01776
G1 X99.518 Y141.554 E.75155
G1 X99.141 Y141.487 E.01973
G1 X98.785 Y141.27 E.02155
G1 X98.55 Y140.963 E.01994
G1 X98.429 Y140.604 E.01956
G1 X98.429 Y123.6 E.87767
G1 X98.487 Y123.25 E.01834
G1 X98.688 Y122.895 E.02105
G1 X98.966 Y122.662 E.01872
;WIDTH:0.510952
G1 X99.518 Y122.506 E.03036
G1 X114.082 Y122.506 E.77066
G1 X114.666 Y122.681 E.03227
;WIDTH:0.5
G1 X115.029 Y123.062 E.02714
G1 X115.169 Y123.531 E.02529
G1 X115.171 Y140.465 E.87403
G1 X115.121 Y140.793 E.01713
G1 X114.982 Y141.078 E.01637
G1 X114.882 Y141.182 E.00743
G1 X114.575 Y140.868 F9000
G1 F1800
G1 X114.505 Y140.963 E.00609
G1 X114.247 Y141.097 E.01504
G1 X113.379 Y141.118 E.04478
G1 X99.518 Y141.118 E.71549
G1 X99.292 Y141.078 E.01184
M73 P7 R13
M73 P7 R13
G1 X99.078 Y140.948 E.01293
G1 X98.906 Y140.694 E.01584
G1 X98.864 Y140.465 E.01201
G1 X98.864 Y123.6 E.87047
G1 X98.916 Y123.345 E.01346
G1 X99.02 Y123.177 E.01017
G1 X99.186 Y123.037 E.01123
G1 X99.518 Y122.947 E.01772
G1 X114.082 Y122.947 E.75176
G1 X114.433 Y123.049 E.01884
G1 X114.65 Y123.277 E.01629
G1 X114.736 Y123.6 E.01724
G1 X114.736 Y140.465 E.87047
G1 X114.683 Y140.722 E.01358
G1 X114.599 Y140.835 E.00726
G1 X114.237 Y140.618 F9000
;TYPE:Outer wall
G1 F1800
G1 X114.078 Y140.682 E.00885
G1 X99.518 Y140.682 E.75155
G1 X99.371 Y140.626 E.00812
G1 X99.3 Y140.465 E.00909
G1 X99.3 Y123.6 E.87047
G1 X99.352 Y123.459 E.00776
G1 X99.518 Y123.382 E.00944
G1 X114.082 Y123.382 E.75176
G1 X114.199 Y123.416 E.00628
G1 X114.298 Y123.571 E.00946
G1 X114.3 Y140.465 E.872
G1 X114.252 Y140.581 E.00649
G1 E-1 F5100
G1 Z.7 F9000
G1 X102.108 Y148.473 Z.7
G1 Z.3
G1 E1 F3900
;TYPE:Inner wall
G1 F1800
G1 X101.936 Y148.84 E.02092
G1 X101.564 Y149.361 E.03307
G1 X101.083 Y149.814 E.0341
G1 X100.522 Y150.163 E.0341
G1 X99.903 Y150.394 E.0341
G1 X99.25 Y150.497 E.0341
G1 X98.59 Y150.469 E.0341
G1 X97.949 Y150.311 E.0341
G1 X97.351 Y150.029 E.0341
G1 X96.821 Y149.634 E.0341
G1 X96.38 Y149.142 E.0341
G1 X96.046 Y148.573 E.0341
G1 X95.83 Y147.948 E.0341
G1 X95.743 Y147.293 E.0341
G1 X95.787 Y146.634 E.0341
G1 X95.961 Y145.997 E.0341
G1 X96.258 Y145.407 E.0341
G1 X96.646 Y144.908 E.03263
G1 X97.051 Y144.543 E.02812
G1 X97.596 Y144.207 E.03307
G1 X98.215 Y143.976 E.0341
G1 X98.868 Y143.873 E.0341
G1 X99.43 Y143.893 E.02904
G1 X99.742 Y143.938 E.01624
G1 X100.371 Y144.138 E.0341
G1 X100.949 Y144.458 E.0341
G1 X101.452 Y144.887 E.0341
G1 X101.86 Y145.407 E.0341
G1 X102.157 Y145.997 E.0341
G1 X102.331 Y146.634 E.0341
G1 X102.38 Y147.19 E.02882
G1 X102.331 Y147.736 E.02826
G1 X102.167 Y148.346 E.03263
G1 X102.125 Y148.436 E.00513
G1 X101.713 Y148.296 F9000
G1 F1800
G1 X101.515 Y148.7 E.02319
G1 X101.175 Y149.147 E.02899
G1 X100.795 Y149.487 E.02638
G1 X100.304 Y149.786 E.02964
G1 X99.764 Y149.981 E.02964
G1 X99.196 Y150.065 E.02964
G1 X98.623 Y150.035 E.02964
G1 X98.067 Y149.892 E.02964
G1 X97.55 Y149.642 E.02964
G1 X97.093 Y149.294 E.02964
G1 X96.714 Y148.862 E.02964
G1 X96.428 Y148.365 E.02964
G1 X96.247 Y147.82 E.02963
G1 X96.177 Y147.25 E.02964
G1 X96.221 Y146.678 E.02964
G1 X96.378 Y146.125 E.02963
G1 X96.641 Y145.615 E.02963
G1 X96.981 Y145.186 E.02826
G1 X97.359 Y144.853 E.02601
G1 X97.814 Y144.584 E.02727
G1 X98.354 Y144.389 E.02964
G1 X98.922 Y144.305 E.02964
G1 X99.496 Y144.335 E.02964
G1 X100.052 Y144.478 E.02964
G1 X100.568 Y144.728 E.02964
G1 X101.025 Y145.076 E.02964
G1 X101.404 Y145.507 E.02964
G1 X101.69 Y146.005 E.02964
G1 X101.872 Y146.55 E.02964
G1 X101.942 Y147.12 E.02964
G1 X101.897 Y147.692 E.02963
G1 X101.75 Y148.22 E.02826
G1 X101.73 Y148.26 E.00233
G1 X101.326 Y148.107 F9000
;TYPE:Outer wall
G1 F1800
G1 X101.319 Y148.128 E.00112
G1 X101.137 Y148.481 E.0205
G1 X100.84 Y148.867 E.02516
G1 X100.471 Y149.186 E.02517
G1 X100.047 Y149.426 E.02518
G1 X99.583 Y149.577 E.02517
G1 X99.098 Y149.634 E.02517
G1 X98.612 Y149.593 E.02517
G1 X98.144 Y149.457 E.02517
G1 X97.712 Y149.23 E.02517
G1 X97.333 Y148.923 E.02517
G1 X97.023 Y148.547 E.02517
G1 X96.794 Y148.116 E.02517
G1 X96.654 Y147.649 E.02517
G1 X96.61 Y147.207 E.02295
G1 X96.663 Y146.678 E.0274
G1 X96.811 Y146.214 E.02517
G1 X97.047 Y145.788 E.02513
G1 X97.342 Y145.438 E.02363
G1 X97.647 Y145.184 E.0205
G1 X98.072 Y144.944 E.02516
G1 X98.535 Y144.792 E.02517
G1 X99.02 Y144.736 E.02517
G1 X99.506 Y144.777 E.02517
G1 X99.974 Y144.913 E.02517
G1 X100.406 Y145.139 E.02517
G1 X100.785 Y145.447 E.02517
G1 X101.095 Y145.823 E.02517
G1 X101.324 Y146.254 E.02517
G1 X101.464 Y146.721 E.02517
G1 X101.508 Y147.207 E.02517
G1 X101.456 Y147.691 E.02512
G1 X101.338 Y148.069 E.02045
G1 E-1 F5100
G1 Z.7 F9000
G1 X117.102 Y121.76 Z.7
G1 Z.3
G1 E1 F3900
;TYPE:Inner wall
G1 F1800
G1 X116.952 Y121.893 E.01032
G1 X116.53 Y122.044 E.02317
G1 X114.849 Y122.054 E.08676
;WIDTH:0.510952
G1 X99.518 Y122.059 E.81122
G1 X98.966 Y121.903 E.03036
;WIDTH:0.5
G1 X98.688 Y121.67 E.01872
G1 X98.487 Y121.315 E.02105
G1 X98.429 Y120.965 E.01834
G1 X98.429 Y105.9 E.77757
G1 X98.5 Y105.513 E.02033
G1 X98.729 Y105.15 E.02216
G1 X99.011 Y104.936 E.01827
;WIDTH:0.540238
G1 X99.113 Y104.885 E.00644
;WIDTH:0.580476
G1 X99.215 Y104.833 E.00698
;WIDTH:0.620714
G1 X99.317 Y104.782 E.00753
;WIDTH:0.660952
G1 X99.419 Y104.731 E.00807
G1 X116.382 Y104.731 E1.19909
G1 X116.517 Y104.787 E.01034
;WIDTH:0.620714
G1 X116.652 Y104.843 E.00964
;WIDTH:0.580476
G1 X116.788 Y104.899 E.00895
;WIDTH:0.540238
G1 X116.923 Y104.955 E.00825
;WIDTH:0.5
G1 X117.202 Y105.183 E.01862
G1 X117.41 Y105.541 E.02135
G1 X117.471 Y105.9 E.01883
G1 X117.471 Y120.965 E.77757
G1 X117.405 Y121.337 E.01952
G1 X117.23 Y121.648 E.01841
G1 X117.132 Y121.734 E.00673
G1 X116.867 Y121.381 F9000
G1 F1800
G1 X116.796 Y121.471 E.00589
G1 X116.621 Y121.573 E.01045
G1 X116.382 Y121.618 E.01255
G1 X99.518 Y121.618 E.87047
M73 P8 R13
M73 P8 R13
G1 X99.186 Y121.528 E.01772
G1 X98.949 Y121.287 E.01746
G1 X98.864 Y121.036 E.01364
G1 X98.864 Y105.9 E.78127
G1 X98.928 Y105.62 E.01485
G1 X99.044 Y105.45 E.01063
G1 X99.214 Y105.322 E.01096
G1 X99.518 Y105.247 E.01616
G1 X116.382 Y105.247 E.87047
G1 X116.706 Y105.333 E.01732
G1 X116.947 Y105.571 E.01746
G1 X117.036 Y105.841 E.01469
G1 X117.036 Y120.965 E.7806
G1 X116.967 Y121.256 E.01544
G1 X116.892 Y121.35 E.00623
G1 X116.537 Y121.118 F9000
;TYPE:Outer wall
G1 F1800
G1 X116.382 Y121.182 E.00865
G1 X99.518 Y121.182 E.87047
G1 X99.352 Y121.106 E.00944
G1 X99.3 Y120.965 E.00776
G1 X99.3 Y105.9 E.77757
G1 X99.36 Y105.75 E.00834
G1 X99.449 Y105.682 E.00579
G1 X116.382 Y105.682 E.874
G1 X116.546 Y105.757 E.00929
G1 X116.6 Y105.9 E.00791
G1 X116.6 Y120.965 E.77757
G1 X116.552 Y121.081 E.00649
G1 E-1 F5100
G1 Z.7 F9000
G1 X116.719 Y103.995 Z.7
G1 Z.3
G1 E1 F3900
;TYPE:Inner wall
;WIDTH:0.580476
G1 F1800
G1 X116.652 Y104.022 E.0044
;WIDTH:0.620714
G1 X116.517 Y104.078 E.00964
;WIDTH:0.660952
G1 X116.382 Y104.134 E.01034
G1 X99.518 Y104.134 E1.1921
;WIDTH:0.666557
G1 X99.416 Y104.132 E.00729
G1 X99.314 Y104.082 E.00808
;WIDTH:0.624917
G1 X99.213 Y104.031 E.00752
;WIDTH:0.583278
G1 X99.112 Y103.98 E.00696
;WIDTH:0.541639
G1 X99.011 Y103.929 E.0064
;WIDTH:0.5
G1 X98.729 Y103.715 E.01827
G1 X98.5 Y103.352 E.02216
G1 X98.429 Y102.965 E.02033
G1 X98.429 Y87.9 E.77757
G1 X98.487 Y87.548 E.01841
G1 X98.645 Y87.249 E.01747
G1 X98.861 Y87.031 E.01585
G1 X99.191 Y86.861 E.01915
G1 X99.518 Y86.811 E.01706
G1 X116.382 Y86.811 E.87047
G1 X116.72 Y86.865 E.01767
G1 X117.058 Y87.047 E.01981
G1 X117.289 Y87.297 E.01757
G1 X117.44 Y87.641 E.01937
G1 X117.471 Y87.9 E.01349
G1 X117.471 Y102.965 E.77757
G1 X117.41 Y103.324 E.01883
G1 X117.202 Y103.682 E.02135
G1 X116.923 Y103.91 E.01862
;WIDTH:0.540238
G1 X116.788 Y103.966 E.00825
;WIDTH:0.580476
G1 X116.756 Y103.979 E.0021
G1 X116.49 Y103.589 F9000
;WIDTH:0.5
G1 F1800
G1 X116.382 Y103.618 E.00577
G1 X99.518 Y103.618 E.87047
G1 X99.214 Y103.543 E.01616
G1 X98.966 Y103.315 E.0174
G1 X98.864 Y103.044 E.0149
G1 X98.864 Y87.9 E.78169
G1 X98.941 Y87.594 E.0163
G1 X99.124 Y87.379 E.01459
G1 X99.384 Y87.261 E.01475
G1 X100.09 Y87.247 E.03646
G1 X116.382 Y87.247 E.84092
G1 X116.686 Y87.322 E.01615
G1 X116.884 Y87.481 E.01312
G1 X117.036 Y87.782 E.01737
G1 X117.036 Y102.965 E.78368
G1 X116.981 Y103.226 E.0138
M73 P9 R13
M73 P9 R13
G1 X116.874 Y103.395 E.01029
G1 X116.706 Y103.532 E.01117
G1 X116.529 Y103.579 E.00948
G1 X116.382 Y103.182 F9000
;TYPE:Outer wall
G1 F1800
G1 X99.518 Y103.182 E.87047
G1 X99.36 Y103.115 E.00886
G1 X99.3 Y102.965 E.00834
G1 X99.3 Y87.9 E.77757
G1 X99.364 Y87.746 E.00862
G1 X99.518 Y87.682 E.00859
G1 X116.382 Y87.682 E.87047
G1 X116.534 Y87.744 E.00845
G1 X116.6 Y87.9 E.00876
G1 X116.6 Y102.965 E.77757
G1 X116.546 Y103.108 E.00791
G1 X116.419 Y103.166 E.00723
G1 E-1 F5100
G1 Z.7 F9000
G1 X95.989 Y71.589 Z.7
G1 Z.3
G1 E1 F3900
;TYPE:Inner wall
G1 F1800
G1 X96.173 Y71.178 E.02324
G1 X96.555 Y70.639 E.0341
G1 X97.035 Y70.186 E.0341
G1 X97.596 Y69.837 E.0341
G1 X98.215 Y69.606 E.0341
G1 X98.868 Y69.503 E.0341
G1 X99.528 Y69.531 E.0341
G1 X100.17 Y69.689 E.0341
G1 X100.767 Y69.971 E.0341
G1 X101.297 Y70.365 E.0341
G1 X101.738 Y70.857 E.0341
G1 X102.013 Y71.318 E.02768
G1 X102.157 Y71.627 E.0176
G1 X102.314 Y72.156 E.0285
G1 X102.375 Y72.707 E.02859
G1 X102.331 Y73.366 E.0341
G1 X102.157 Y74.003 E.0341
G1 X101.86 Y74.593 E.0341
G1 X101.452 Y75.113 E.0341
G1 X100.949 Y75.542 E.0341
G1 X100.371 Y75.862 E.0341
G1 X99.556 Y76.097 E.04382
G1 X99.053 Y76.134 E.02599
G1 X98.483 Y76.086 E.02952
G1 X97.949 Y75.941 E.02861
G1 X97.351 Y75.659 E.0341
